P3
256 256
255
192 36 186
227 124 120
12 97 78
222 230 248
129 207 100
82 70 202
178 205 21
56 249 46
164 98 51
27 121 50
107 116 79
46 28 173
12 215 236
111 126 35
1 227 132
137 99 83
7 231 199
164 59 136
226 188 234
92 103 15
169 64 55
71 237 19
217 100 161
157 220 201
175 198 214
129 158 28
1 5 2
228 8 143
22 48 58
216 1 241
20 156 106
254 31 186
169 150 236
208 228 172
89 184 254
207 133 77
141 65 226
38 226 221
28 40 41
39 196 105
61 175 111
95 4 220
2 3 134
69 207 34
192 242 8
104 26 70
67 23 149
193 209 224
236 47 36
100 231 216
127 210 195
26 229 227
130 207 135
175 239 119
15 15 206
214 69 199
234 116 88
126 156 154
76 49 87
159 240 64
35 33 65
40 149 132
242 98 237
122 12 220
2 182 243
245 21 58
136 204 185
178 228 82
93 169 36
246 145 101
201 117 89
56 181 221
250 148 13
103 240 73
49 76 154
182 60 29
143 124 99
87 202 24
47 35 61
51 105 5
190 149 113
249 141 113
37 214 195
176 105 163
48 36 70
81 186 52
60 201 250
108 175 97
11 168 96
211 217 128
95 193 38
201 30 25
62 207 75
193 64 157
119 53 96
59 108 161
153 106 171
191 64 246
132 255 224
179 242 220
165 71 78
9 86 172
60 254 44
96 178 44
67 239 252
128 206 66
13 205 167
104 8 181
84 179 39
217 152 10
95 104 5
105 106 176
142 72 99
170 65 163
39 148 98
251 220 170
125 249 185
233 108 169
44 245 7
154 103 125
82 36 155
59 157 36
54 252 40
167 210 21
226 228 43
150 63 222
249 148 118
4 28 254
93 231 251
75 243 178
234 232 150
187 12 142
109 59 51
103 161 24
250 206 191
232 214 42
239 206 124
184 239 34
154 94 59
94 161 121
159 110 192
209 246 26
168 77 245
31 226 196
159 228 157
202 214 120
82 97 138
33 168 230
3 121 21
165 199 160
169 134 105
165 14 251
142 185 208
52 143 168
16 220 112
197 219 168
170 24 200
87 63 9
240 93 73
174 6 84
50 159 151
225 212 45
64 94 182
147 86 249
153 166 206
180 33 89
150 155 242
253 1 222
29 124 170
128 30 88
210 75 193
240 219 139
236 170 61
211 190 75
48 13 110
23 205 215
105 97 90
177 92 27
26 106 40
119 247 23
64 65 7
216 122 57
87 62 55
43 24 39
177 221 250
46 219 45
29 116 16
184 39 177
83 246 127
121 16 207
129 252 82
224 173 174
184 87 100
180 89 62
9 181 235
25 80 32
176 219 240
239 99 109
26 248 146
176 135 12
127 110 136
187 68 117
129 126 158
96 244 124
205 128 193
88 22 164
12 193 245
202 234 122
117 173 31
241 92 91
34 103 45
61 36 180
144 231 252
137 161 8
124 81 255
8 110 247
135 218 124
228 187 239
133 233 217
247 193 198
235 23 26
120 154 175
203 228 20
74 61 181
37 35 69
21 145 128
200 210 233
87 4 50
104 123 73
2 201 169
142 37 54
161 46 76
235 52 249
64 215 145
239 15 20
237 41 141
129 85 63
235 213 84
202 229 17
73 110 77
55 103 162
201 119 169
188 144 171
133 86 220
219 131 118
216 43 99
126 75 120
103 152 149
105 205 153
221 247 239
145 92 95
168 217 34
125 144 153
133 165 7
163 33 62
252 211 185
184 87 254
212 71 85
36 237 18
170 53 76
184 59 229
39 48 123
210 167 165
149 92 48
92 72 208
67 89 216
199 222 27
91 187 25
119 213 214
49 137 82
105 86 170
73 47 244
145 36 194
26 193 153
161 73 51
59 159 174
201 236 211
139 210 171
36 21 52
30 241 56
29 68 240
10 23 228
89 205 249
33 134 117
72 5 56
9 96 101
253 168 205
40 27 220
225 202 238
113 81 49
109 230 60
6 103 247
24 235 21
154 110 229
162 64 20
172 65 186
253 26 117
139 234 65
37 147 155
242 156 232
98 74 197
252 107 106
90 109 30
61 6 130
165 94 198
21 39 22
211 100 210
132 92 243
51 110 63
142 204 193
138 188 201
93 180 147
17 187 1
146 182 187
64 96 181
29 41 77
216 169 160
92 212 122
101 20 166
228 217 206
9 120 3
230 205 18
70 159 167
176 96 190
104 235 197
61 111 50
207 139 212
128 122 42
87 223 93
165 242 161
225 33 9
100 177 254
4 73 205
47 134 172
71 71 226
249 13 16
131 176 148
15 91 19
166 177 223
95 179 29
220 123 120
20 198 44
11 226 88
46 23 145
87 255 59
172 146 109
181 77 117
23 17 8
58 178 61
90 223 62
88 71 153
162 167 97
69 243 37
0 128 119
228 148 43
141 166 154
199 204 44
104 28 97
123 76 8
24 73 244
250 228 83
22 23 96
8 22 61
178 149 183
170 183 251
43 6 21
174 62 110
47 24 171
33 188 48
96 10 218
200 133 28
77 148 127
253 67 202
227 204 224
78 98 47
54 49 91
218 65 181
23 212 248
217 65 124
187 191 210
107 113 17
204 77 237
185 177 4
85 8 9
76 233 74
198 49 57
30 239 65
220 196 178
216 3 37
113 1 79
110 20 132
240 67 118
39 213 138
62 133 189
246 203 79
213 214 132
243 120 115
28 87 129
153 5 207
140 155 3
253 186 122
243 233 218
21 170 195
80 175 48
198 24 213
188 113 175
227 157 209
52 35 201
249 60 40
2 209 121
49 48 77
106 125 51
33 74 173
17 162 37
4 180 128
178 230 222
138 28 244
126 23 54
1 134 78
168 229 202
90 34 177
217 92 75
251 113 41
60 27 71
231 10 251
13 108 75
186 52 25
190 139 135
154 234 188
68 30 199
128 41 157
216 237 197
25 229 160
66 94 177
79 137 14
200 146 38
77 114 209
104 205 146
183 78 139
246 184 19
47 162 254
221 52 115
36 110 236
86 16 3
180 173 159
94 218 156
81 14 10
168 83 183
102 247 62
218 69 227
31 86 238
77 78 110
67 10 103
230 154 116
43 201 243
76 160 179
141 102 149
196 178 141
131 26 142
86 132 159
164 229 133
191 35 163
196 161 215
170 85 123
67 20 151
13 105 37
121 114 180
8 242 95
246 213 110
31 213 234
11 197 115
76 252 25
91 139 20
6 0 107
206 182 15
158 192 215
53 53 27
239 188 71
202 219 95
59 108 54
246 175 47
122 110 237
167 240 134
141 53 136
109 177 16
194 81 230
239 236 214
205 115 20
21 78 26
104 66 159
47 215 28
129 64 222
33 138 62
254 99 4
76 156 68
160 73 57
13 223 79
14 52 142
15 197 79
131 53 76
3 198 106
34 187 37
35 20 134
254 142 177
54 43 114
98 140 233
223 67 34
234 99 184
234 250 47
131 52 97
167 141 62
146 33 238
53 47 76
192 72 189
100 56 52
188 26 89
106 58 164
122 76 15
83 22 155
54 62 179
242 35 12
60 199 197
121 118 144
1 253 135
139 95 25
168 130 115
40 253 243
238 12 232
152 104 11
187 229 220
15 135 44
166 56 210
192 201 116
152 38 195
22 173 129
182 153 67
173 75 153
45 156 23
108 18 117
105 172 35
11 222 21
186 116 66
179 177 7
104 128 255
135 3 73
108 30 59
193 155 189
220 70 148
5 187 216
109 24 3
182 187 42
228 90 115
48 129 196
19 194 48
226 219 229
29 156 213
180 94 68
136 236 24
38 127 51
17 57 109
44 8 202
44 223 141
56 27 218
193 40 30
6 118 198
46 66 41
4 192 165
230 108 97
246 242 128
71 172 23
17 39 189
225 91 24
209 160 33
255 243 166
195 127 127
176 251 177
246 134 212
133 204 55
36 207 194
9 227 58
65 163 100
162 93 248
69 121 81
163 114 213
10 21 82
85 51 147
116 100 163
250 167 247
145 159 139
29 78 225
53 170 82
58 147 156
147 91 216
96 59 21
14 144 233
31 158 222
3 112 186
236 19 2
154 114 129
211 52 130
16 9 22
233 215 115
135 154 196
165 58 217
53 128 98
115 101 199
99 64 156
250 226 38
216 158 84
12 75 4
255 199 160
236 51 65
45 123 20
213 29 229
175 150 120
240 139 21
143 240 36
225 65 248
137 98 252
198 21 170
77 97 162
153 42 138
238 203 143
47 16 90
11 255 175
138 51 67
216 180 132
6 63 78
238 142 212
171 156 1
240 166 121
111 164 63
34 209 33
113 13 57
211 22 144
125 2 155
23 204 124
19 219 128
78 176 232
215 37 84
182 148 202
112 173 239
114 238 241
125 172 205
81 144 85
133 249 252
239 186 227
121 86 24
65 155 235
134 135 84
158 147 124
108 244 40
165 233 21
45 136 71
112 2 185
167 240 32
95 247 75
160 32 202
183 74 153
96 198 123
167 165 171
235 75 159
87 155 75
249 137 21
247 227 179
123 121 27
159 199 189
106 98 213
137 116 156
219 230 226
119 30 160
85 86 31
211 80 104
253 241 68
141 146 207
8 174 166
208 65 53
234 196 170
99 239 41
106 200 31
0 210 25
137 122 239
77 216 137
176 76 240
12 187 149
4 19 144
104 73 195
34 78 50
194 56 152
202 14 141
204 185 131
144 43 10
175 2 107
231 208 190
134 55 245
252 59 96
195 250 148
239 8 215
174 57 9
185 94 212
92 251 60
69 229 48
68 103 24
177 166 70
135 101 243
145 140 222
106 151 162
223 207 134
11 7 254
37 25 149
179 196 193
79 252 124
74 199 226
96 167 56
76 162 241
53 76 28
212 237 98
55 129 93
7 40 164
68 210 87
182 107 134
17 105 117
213 54 24
115 140 206
115 22 50
103 1 206
155 229 16
170 5 175
122 180 166
121 141 79
83 128 38
95 70 226
119 248 104
70 238 227
0 77 218
112 231 162
78 177 76
123 210 234
119 245 169
202 34 251
101 160 26
193 2 89
227 213 93
52 220 137
210 93 46
175 105 41
44 209 239
103 222 30
78 66 249
185 190 105
79 95 156
29 195 178
57 64 212
110 35 62
50 221 82
185 7 225
215 17 90
229 169 200
92 165 143
219 2 144
85 10 190
160 100 38
93 213 118
164 102 7
75 205 19
226 166 67
247 56 253
134 250 146
79 250 126
67 131 181
68 250 35
28 232 241
191 48 69
12 195 28
147 15 239
184 165 46
171 76 45
252 240 191
153 124 17
130 5 133
75 91 147
119 128 213
207 80 124
76 39 134
55 121 192
185 156 80
142 100 161
86 134 64
175 153 31
84 42 189
55 209 67
185 65 174
172 144 240
241 97 31
212 110 197
190 9 226
121 137 141
221 241 175
72 35 223
6 150 30
66 62 132
236 219 113
230 97 177
112 139 251
217 5 236
82 0 135
199 157 247
23 91 214
179 126 52
190 212 141
200 79 163
151 126 243
150 28 226
80 242 170
227 37 187
6 15 111
110 136 30
46 228 72
110 104 2
130 60 143
156 125 65
214 169 2
236 79 19
122 113 154
101 3 205
29 136 159
161 148 119
193 167 251
181 2 107
196 136 138
189 37 147
152 133 197
238 167 50
32 158 122
250 11 255
94 102 35
98 255 153
43 110 125
205 142 198
120 35 72
221 63 82
161 167 70
136 107 124
170 46 182
141 62 255
42 3 254
86 140 51
35 189 175
155 44 6
50 96 78
137 133 93
137 237 191
132 171 124
1 54 236
130 22 97
214 232 133
114 85 159
142 245 11
94 208 19
198 131 65
150 203 51
53 177 59
199 138 162
37 138 147
4 161 175
243 34 232
172 231 75
94 6 3
110 153 25
193 102 26
145 23 21
162 48 100
132 159 66
197 183 79
172 173 181
118 102 86
111 56 79
237 182 118
92 79 21
100 70 56
240 182 38
45 202 111
134 132 55
95 237 23
202 119 42
68 220 92
234 37 151
249 126 68
152 213 162
122 150 33
135 24 228
83 214 226
53 223 96
155 231 190
229 36 12
226 75 48
17 114 105
224 168 93
243 88 134
198 152 129
141 185 10
39 89 194
136 219 108
8 79 110
131 176 138
172 190 6
0 73 217
49 176 149
253 40 203
124 168 103
141 77 111
90 251 113
12 34 143
91 131 132
190 231 87
201 52 214
150 96 75
15 13 62
100 90 45
86 251 35
144 90 195
99 198 11
73 78 181
255 59 78
144 67 123
218 45 172
59 54 48
94 98 100
89 230 97
108 248 6
185 153 41
162 122 224
252 206 223
210 218 251
1 71 178
109 20 153
153 194 135
117 220 255
80 200 2
194 150 32
15 48 144
123 31 244
17 202 199
88 159 33
126 174 95
159 67 70
58 169 179
59 215 162
247 173 70
79 205 240
55 123 185
158 69 228
41 29 31
226 119 145
223 55 51
47 39 248
209 148 199
59 128 251
109 201 129
242 20 100
170 220 206
170 10 33
120 45 188
44 22 35
90 63 124
142 253 105
164 184 59
101 119 178
117 115 213
31 31 59
69 209 10
241 10 98
11 12 229
45 131 238
152 42 139
169 55 106
119 88 95
134 126 11
33 250 206
46 16 120
97 98 235
181 70 38
119 54 169
223 218 46
184 71 76
171 143 133
210 211 100
198 183 141
156 150 2
227 128 166
42 168 32
52 200 77
186 251 192
184 193 135
8 243 125
35 221 35
150 185 98
237 194 235
175 226 66
67 70 133
73 211 141
37 108 160
196 223 174
8 121 255
255 149 8
94 59 81
114 24 138
220 213 109
109 79 65
211 35 130
5 104 109
20 40 15
110 95 66
203 87 155
113 201 6
30 13 173
205 167 112
122 218 143
169 41 100
254 65 30
235 25 47
200 161 203
236 135 155
16 240 115
119 79 100
55 188 170
55 92 61
184 29 132
66 102 17
118 21 123
37 5 195
64 106 134
75 206 79
128 73 48
191 187 121
151 26 57
217 83 148
161 14 64
215 40 63
108 3 206
49 70 69
80 136 99
76 94 102
201 225 58
33 133 92
165 210 27
117 255 103
85 185 216
95 248 101
37 158 184
190 191 158
162 77 143
48 134 130
22 245 154
111 124 121
70 146 131
184 164 209
15 132 123
213 110 69
203 69 205
90 182 150
225 130 51
89 211 177
67 194 116
168 50 121
234 128 37
128 178 42
48 217 38
69 188 47
170 61 108
125 231 19
64 168 85
21 17 211
242 40 78
29 31 242
121 144 108
207 26 164
26 5 16
49 177 102
56 76 114
33 124 106
179 113 243
145 41 205
84 126 14
51 63 103
147 128 155
254 185 4
88 231 177
2 190 153
149 216 139
105 235 146
79 87 10
199 85 3
66 128 48
69 4 117
95 226 150
244 178 117
102 63 140
250 119 3
152 160 90
103 167 243
77 222 190
250 96 93
116 101 123
207 127 188
162 127 149
179 93 56
74 153 211
206 95 203
24 84 8
123 236 56
212 175 37
83 199 112
217 3 115
9 226 158
174 83 222
107 2 165
28 40 129
4 111 123
239 16 50
222 197 133
118 63 18
46 201 210
171 124 211
14 99 101
126 219 234
199 255 251
95 193 126
134 26 33
23 188 171
77 169 240
49 190 211
242 245 229
110 121 121
207 224 130
37 83 207
148 116 38
103 180 97
181 193 241
142 14 113
228 173 122
9 30 14
4 73 185
248 225 155
37 87 3
172 53 170
211 121 215
101 143 186
153 130 125
106 243 226
45 159 200
191 67 129
51 3 240
198 92 89
50 160 113
120 176 199
66 92 178
188 107 32
84 179 13
46 75 239
146 186 187
57 176 157
204 223 17
132 17 190
70 36 113
132 249 12
26 168 216
158 144 138
156 18 73
85 103 82
4 40 65
192 248 110
128 158 56
83 143 114
54 138 130
54 181 184
72 143 102
54 237 245
125 197 52
136 77 200
208 224 227
30 246 124
43 209 151
129 62 99
216 56 5
239 137 132
78 17 102
84 242 32
105 29 187
228 61 17
17 220 136
216 204 73
2 52 0
90 245 184
149 48 80
149 44 206
2 9 6
197 242 59
122 204 225
253 214 39
45 121 188
173 13 126
250 54 74
43 69 30
213 241 167
207 183 248
158 167 165
154 96 167
29 214 99
231 102 118
24 89 46
233 3 243
72 192 182
216 233 191
82 205 221
87 30 63
217 27 41
219 98 4
174 250 112
135 97 64
45 215 30
137 123 59
56 82 204
128 100 183
113 149 115
129 248 69
195 201 36
36 7 65
147 76 183
213 212 164
82 138 47
190 243 34
19 75 195
42 102 89
18 93 126
116 226 81
139 49 4
214 24 94
90 216 48
249 154 8
44 2 253
244 189 247
47 21 73
66 248 171
230 149 219
253 47 85
144 157 235
143 155 59
184 100 143
239 235 84
20 168 210
116 175 18
142 30 148
199 129 122
192 94 36
94 114 184
38 4 255
87 232 80
223 23 253
40 237 7
225 46 241
213 167 69
75 109 119
13 192 193
103 96 253
3 119 156
176 204 221
154 196 54
162 36 213
214 52 19
198 231 140
175 254 14
208 128 230
208 53 28
17 251 61
129 32 170
255 21 231
251 246 241
33 196 155
182 14 196
171 35 214
226 40 105
103 224 179
196 161 95
105 2 189
183 155 132
79 215 27
46 232 21
254 218 101
94 82 78
100 255 97
222 168 118
84 153 225
82 33 228
68 71 95
108 237 207
48 193 146
18 61 189
98 125 76
186 196 115
206 110 253
234 112 54
101 161 237
72 98 175
107 51 246
243 70 53
14 202 82
4 64 206
168 234 172
28 0 98
123 42 52
11 169 70
248 159 255
216 161 187
66 104 27
82 110 163
181 111 166
208 223 63
67 213 150
66 37 54
106 108 136
102 6 254
48 170 45
145 168 111
221 70 107
125 52 45
115 245 206
130 177 175
40 158 215
57 159 138
119 252 217
199 194 113
122 232 107
223 60 158
169 84 133
185 3 108
74 170 3
185 187 222
137 159 22
52 49 118
20 89 140
37 4 88
53 71 139
157 125 113
6 96 228
67 152 85
192 59 196
172 197 30
94 21 25
174 234 190
108 233 25
216 114 240
183 99 94
153 252 173
61 116 134
88 163 246
172 199 41
136 164 60
215 57 48
202 207 66
119 194 224
212 193 170
245 56 109
189 243 75
244 92 72
96 96 178
146 197 234
232 115 77
11 47 101
151 98 154
21 170 220
107 26 15
86 228 145
167 63 245
51 23 133
81 17 187
237 88 4
112 162 152
96 108 192
238 232 219
137 228 4
154 218 5
191 121 159
185 48 182
173 74 52
104 117 71
253 64 147
84 204 210
218 29 77
107 141 240
220 11 255
41 150 42
94 66 33
76 239 33
136 185 33
175 7 65
19 244 103
158 128 42
224 6 145
80 205 78
146 172 42
100 36 59
207 239 42
152 203 143
89 158 46
34 113 70
73 246 32
14 73 60
145 5 28
236 122 252
20 246 147
110 82 27
63 162 253
173 137 195
109 62 3
17 95 53
135 239 246
112 19 109
34 142 12
54 124 192
67 64 29
115 87 182
35 177 57
82 29 164
195 18 82
244 157 33
85 67 153
13 152 138
252 216 232
230 168 186
220 237 111
240 70 192
38 33 246
128 119 224
5 184 22
50 150 15
45 246 3
157 43 235
60 193 141
104 239 253
8 248 146
18 251 162
112 23 166
163 220 155
83 13 72
214 138 116
100 251 189
85 72 61
107 0 152
136 99 27
106 194 85
145 197 21
180 87 234
152 234 93
211 162 99
157 31 77
163 21 177
152 126 79
43 111 167
232 61 70
152 46 241
113 89 250
168 107 170
88 121 45
103 223 172
190 28 133
111 193 154
202 67 227
189 35 134
147 111 252
165 132 118
219 154 38
39 218 218
92 236 172
101 80 128
117 148 203
241 205 5
204 202 15
198 174 121
98 52 169
29 213 128
92 28 70
193 38 164
70 69 123
71 74 45
112 1 39
208 119 76
146 132 174
159 29 34
92 36 175
109 73 1
197 188 139
174 184 210
120 178 78
233 233 135
22 179 26
107 93 113
12 16 160
181 45 99
123 180 226
24 111 215
193 85 56
90 177 242
68 226 39
227 150 202
63 68 51
122 136 152
254 141 60
174 191 116
60 14 170
162 44 102
116 200 229
31 66 163
159 41 207
99 128 119
228 157 18
243 91 254
68 114 48
158 5 67
227 245 53
187 127 134
74 96 26
218 138 176
39 78 230
103 139 124
39 158 254
146 32 129
192 112 192
103 77 182
117 132 232
203 132 1
142 33 65
22 180 188
37 10 199
197 128 109
108 161 125
224 5 52
150 141 79
124 97 34
78 129 233
251 184 183
119 124 45
246 19 180
30 152 60
149 173 149
22 159 106
208 3 41
96 229 237
160 97 129
44 171 218
5 8 183
168 108 46
48 174 45
215 238 44
71 25 28
9 99 19
133 79 90
159 234 39
129 252 125
50 161 179
200 175 15
17 221 206
183 209 243
228 62 61
64 152 149
177 115 161
11 64 174
212 56 31
154 121 179
183 131 228
17 16 177
80 84 22
120 18 194
241 87 221
149 147 101
188 37 58
115 64 23
97 100 138
112 143 56
223 116 252
139 149 1
22 26 145
138 128 237
79 255 126
112 87 137
215 85 99
174 112 138
101 179 100
8 149 67
66 4 232
115 30 6
51 88 127
64 220 68
12 91 76
232 78 243
14 195 67
255 227 105
39 134 149
169 86 224
216 245 65
219 74 237
138 167 111
180 241 176
46 64 71
146 116 248
122 99 113
218 199 135
154 11 93
126 246 206
4 188 226
63 200 71
167 230 124
134 111 186
125 19 94
64 149 81
209 229 226
196 9 29
134 120 217
242 62 153
102 226 86
5 178 109
14 108 22
131 184 147
87 216 98
220 215 56
14 145 166
216 18 30
16 145 127
231 81 220
169 141 140
52 180 10
149 195 175
169 140 98
37 139 144
15 252 9
83 32 199
192 92 41
31 89 209
184 191 139
193 120 224
86 86 80
54 186 42
195 183 165
97 219 74
65 190 184
135 158 11
8 71 130
62 4 8
250 201 102
91 42 129
10 81 74
51 58 145
95 98 164
157 185 39
229 202 48
204 92 252
51 53 106
124 138 241
205 248 62
17 86 212
101 7 68
87 11 94
76 121 175
227 92 72
101 198 12
107 60 197
110 164 207
84 48 37
27 180 120
124 9 154
44 61 137
22 42 232
7 31 243
214 165 42
111 2 204
136 58 27
154 236 213
233 72 27
155 85 111
229 22 39
106 115 46
140 69 181
140 114 53
229 104 117
24 95 136
192 164 243
5 134 170
26 178 138
10 109 73
255 8 176
9 221 152
107 136 86
224 63 3
46 178 72
112 150 179
73 148 221
11 167 48
30 122 164
67 18 177
149 16 31
69 138 12
142 146 251
67 63 80
67 249 213
59 161 187
13 216 141
83 192 98
26 101 170
226 17 25
36 179 194
106 112 57
24 237 91
129 59 198
52 43 173
100 31 85
55 188 5
185 129 179
57 160 67
198 169 129
177 98 158
207 124 37
251 229 52
114 37 44
131 121 100
102 144 230
176 1 102
56 147 44
167 247 71
222 178 205
144 63 120
88 46 163
162 27 43
191 185 38
209 15 123
160 30 182
78 117 71
116 64 246
194 117 94
160 81 131
228 114 71
224 91 211
94 241 82
10 11 235
177 230 237
114 30 173
82 55 13
5 151 152
68 104 85
189 169 149
64 68 192
104 141 216
109 48 255
174 234 51
135 75 207
225 90 4
230 223 55
247 180 33
51 189 91
168 223 97
216 169 242
51 96 252
147 122 112
89 205 251
47 16 213
5 239 165
173 86 49
36 36 42
34 246 75
140 145 108
7 212 89
179 192 202
166 77 29
127 91 24
169 128 236
19 198 238
66 69 192
195 26 96
1 235 155
87 62 66
3 5 2
145 212 233
105 55 244
85 175 142
209 75 247
98 39 240
111 205 98
120 255 28
75 178 154
161 23 68
200 250 243
133 67 111
76 25 111
210 17 26
252 97 25
123 101 215
126 149 231
182 104 113
242 141 101
205 37 177
80 221 51
54 44 29
97 63 35
212 195 200
93 6 90
176 35 209
220 193 57
72 229 102
71 142 126
113 57 10
115 229 13
169 35 151
105 199 19
165 62 14
237 115 86
150 28 173
63 180 49
101 250 101
106 248 25
104 82 80
160 159 247
232 52 236
67 162 141
210 95 25
119 104 72
188 100 217
254 3 5
7 42 28
130 192 222
83 201 47
160 163 35
134 94 30
217 213 224
182 207 133
132 154 11
40 55 128
116 147 121
238 86 210
150 134 135
160 48 16
227 95 53
98 81 32
143 125 38
129 101 96
177 117 224
182 252 96
164 245 214
4 100 110
249 65 112
11 90 127
225 85 217
68 113 171
246 76 15
118 249 220
249 193 4
126 231 89
90 92 99
186 154 94
233 199 8
38 22 30
60 219 5
226 10 249
19 143 31
174 248 134
133 33 213
17 177 108
37 105 248
152 129 45
115 112 69
239 210 167
118 118 100
63 10 216
25 231 135
138 54 125
216 224 200
232 120 99
11 130 19
241 18 96
146 156 251
234 26 118
221 93 65
138 143 71
97 10 208
164 125 20
109 97 158
51 14 90
96 207 220
22 95 68
169 241 10
197 106 178
154 254 24
178 175 127
195 226 147
66 232 246
75 51 214
112 8 185
249 39 152
52 181 243
147 226 41
76 4 172
49 168 90
107 81 76
152 217 195
73 233 237
3 235 145
87 127 55
146 19 67
249 175 214
149 106 152
148 253 238
11 95 76
158 175 56
170 101 113
123 236 147
161 166 230
216 14 242
226 102 163
237 144 113
186 170 247
223 35 18
45 160 80
96 125 248
183 131 118
2 111 192
134 213 17
53 64 108
193 203 221
87 107 102
76 128 12
2 227 98
185 44 118
1 208 122
52 85 165
108 154 22
41 139 249
200 247 213
5 216 180
241 23 77
20 100 24
244 26 209
177 168 9
25 94 205
132 136 139
82 73 29
236 44 244
195 214 71
245 184 191
109 161 249
193 171 118
218 141 174
68 36 126
71 77 147
40 96 21
53 208 33
163 84 73
244 126 42
244 23 24
215 97 223
181 170 189
181 156 68
175 94 189
85 49 152
75 76 141
0 156 115
129 146 111
30 219 93
209 68 201
21 169 76
190 0 204
51 196 26
172 238 15
76 196 152
170 140 114
92 67 255
32 128 68
209 3 51
241 140 82
151 181 203
233 248 20
37 102 90
115 33 152
35 167 61
53 14 238
140 37 252
59 170 227
162 109 232
165 137 115
176 51 64
2 168 58
171 49 131
168 41 27
17 209 172
174 189 165
178 77 254
254 107 239
167 22 164
126 174 23
30 41 129
74 41 30
143 35 69
74 117 224
58 11 224
210 226 51
24 203 71
34 195 109
151 181 23
191 14 203
81 229 241
160 111 3
153 70 19
17 5 82
50 127 194
103 111 185
211 12 172
135 50 83
130 230 210
213 16 36
51 204 108
27 226 245
219 23 102
57 9 167
190 138 178
55 224 57
9 21 86
186 47 251
37 36 90
37 150 32
117 237 9
188 114 205
79 168 21
86 92 114
31 122 187
206 124 207
179 234 48
1 101 208
181 187 240
241 120 219
25 1 245
29 242 108
144 21 101
93 186 176
162 49 138
152 57 30
122 251 182
150 47 61
71 187 184
43 122 248
158 190 143
165 98 170
138 208 138
73 25 74
220 249 14
63 252 11
170 118 177
149 233 66
200 44 219
167 122 129
82 230 98
8 79 110
138 89 9
97 104 226
205 30 39
98 88 122
28 233 169
226 171 110
228 23 151
138 126 84
91 78 75
23 33 47
137 48 162
34 221 53
110 243 190
226 2 38
234 243 18
121 66 141
246 141 195
105 21 229
61 236 212
105 150 149
68 220 245
17 235 57
33 224 166
45 19 175
222 217 213
49 47 87
63 144 21
40 194 86
74 153 24
164 237 137
94 106 77
60 224 107
80 73 205
37 140 254
129 215 194
110 205 251
8 171 180
3 113 188
241 217 129
102 196 249
137 254 105
137 214 72
192 227 156
111 211 181
130 147 192
211 77 141
79 247 189
151 216 176
180 65 99
183 148 51
250 40 22
19 6 10
138 20 100
44 29 126
152 136 92
99 117 109
90 39 167
70 171 161
224 141 129
78 46 186
149 141 197
240 250 44
195 135 153
143 114 177
185 150 67
101 169 101
4 208 239
80 25 68
165 48 166
23 235 117
227 89 201
119 29 94
244 236 63
88 95 132
180 15 50
146 251 154
2 53 229
58 22 142
200 120 16
160 205 160
118 0 3
102 88 98
124 104 116
63 165 179
116 11 141
140 143 170
190 63 71
143 156 231
104 49 185
62 83 216
193 81 58
156 118 196
94 127 111
119 179 91
225 4 206
195 198 71
84 213 17
165 68 40
82 124 34
173 167 162
7 44 124
196 158 71
249 151 12
158 223 104
166 128 240
3 12 3
205 188 32
82 78 21
98 34 180
16 165 48
245 129 72
129 69 120
140 144 93
84 244 29
11 31 45
185 59 70
72 146 122
215 33 75
8 167 76
172 99 50
221 85 238
93 220 250
156 250 38
246 118 248
228 59 184
167 68 164
83 121 53
85 8 132
158 71 218
186 164 71
172 14 143
191 140 88
243 221 135
72 235 157
209 105 140
121 254 188
37 141 9
59 219 25
240 151 62
154 70 37
210 49 184
56 50 162
184 43 177
35 180 176
91 196 6
151 12 144
195 20 33
191 85 15
202 184 79
31 235 236
198 198 213
19 38 195
254 162 27
132 56 127
176 177 75
31 67 86
180 148 32
197 194 204
119 77 79
73 194 143
146 168 79
189 7 107
125 236 108
76 232 242
47 77 57
133 249 28
222 205 252
44 17 178
186 11 137
15 102 94
105 158 239
150 39 89
131 207 185
237 203 19
239 160 180
96 17 87
45 36 35
208 87 42
28 110 15
88 141 57
100 149 4
117 227 53
45 90 43
205 204 121
238 76 83
101 128 219
146 71 120
186 8 158
188 233 156
16 36 3
216 130 78
130 85 159
168 202 56
39 136 175
180 60 45
87 130 170
60 108 214
81 84 98
176 234 216
6 46 245
29 217 182
28 132 160
217 160 111
92 76 175
44 60 175
46 216 109
156 78 233
55 51 148
219 34 103
51 219 176
163 137 5
100 33 22
182 219 119
54 55 67
250 161 149
105 16 63
172 194 149
150 147 95
124 85 21
201 209 193
216 33 150
184 39 125
132 248 74
211 61 67
209 171 76
36 226 131
75 44 188
195 68 143
97 60 133
188 168 144
178 9 99
152 193 56
95 217 219
224 76 137
72 106 109
149 46 22
142 3 244
24 97 161
184 78 131
103 238 110
121 153 197
65 212 106
115 103 47
66 187 67
32 209 71
33 186 142
94 212 143
133 150 201
188 29 43
87 195 160
159 114 111
10 213 160
205 126 20
196 84 64
209 195 108
24 104 58
1 163 249
57 113 95
249 254 12
106 136 135
215 117 178
240 57 53
25 246 249
83 20 229
52 105 120
186 89 75
184 236 174
127 220 122
180 87 27
155 167 1
127 230 232
139 21 250
217 180 92
84 209 214
172 135 229
15 180 97
24 114 110
70 185 19
181 180 35
112 244 174
3 44 111
205 32 188
112 84 201
192 178 66
188 254 33
90 17 48
56 19 103
167 62 168
231 135 81
18 205 207
19 0 8
232 104 174
62 253 95
32 72 30
99 70 175
27 90 231
130 131 211
88 181 170
153 79 129
222 140 64
49 115 184
150 207 141
88 51 120
234 6 62
50 121 172
78 129 199
227 50 2
37 66 198
72 195 200
77 24 67
177 75 142
150 189 23
145 148 66
121 146 220
129 181 142
10 108 202
166 13 46
239 142 120
188 241 240
88 11 211
150 231 215
8 148 116
38 89 163
123 76 34
24 124 82
86 100 182
171 135 38
239 91 124
95 61 251
89 181 176
24 242 63
123 74 100
66 115 170
202 185 2
175 47 67
162 187 104
100 151 157
189 106 148
206 56 25
59 180 106
106 183 176
76 212 36
44 125 2
191 109 3
218 107 152
128 76 60
164 80 103
94 109 174
81 78 49
212 27 71
137 68 33
206 215 134
190 75 11
117 221 204
112 139 43
236 171 193
181 5 42
105 28 191
237 176 15
52 140 75
48 108 123
130 207 107
90 249 86
55 193 183
47 231 171
37 200 202
184 3 145
222 249 223
150 15 125
105 184 232
174 62 252
246 186 108
8 205 8
142 202 246
191 206 153
224 65 125
244 248 114
82 57 126
73 51 112
6 43 116
104 33 22
225 198 241
97 57 204
155 66 66
176 146 232
244 242 193
109 228 183
109 255 138
178 67 200
194 70 53
221 163 60
241 183 75
78 33 27
214 153 11
234 198 212
144 129 41
52 147 154
201 19 16
79 200 157
116 200 146
196 217 107
174 21 3
129 67 127
232 106 193
199 55 181
46 193 93
196 227 76
167 65 142
140 15 86
185 250 99
155 127 83
152 19 54
227 55 85
190 193 192
239 119 211
118 39 150
21 209 33
164 59 73
7 197 191
139 82 5
1 43 47
27 191 23
68 186 3
61 11 184
199 216 88
38 48 6
11 195 121
253 241 204
9 131 190
251 55 21
253 61 91
61 245 87
221 142 136
167 197 163
5 225 17
115 108 169
83 211 238
222 206 221
166 130 32
226 234 208
109 144 62
208 42 218
62 129 94
240 186 227
112 36 160
20 203 111
21 153 130
115 6 121
72 120 98
253 241 190
183 206 107
120 116 157
10 109 60
86 6 151
67 108 231
181 155 181
86 85 42
203 183 141
0 9 105
26 45 195
30 209 18
168 76 0
72 119 19
29 58 26
153 183 247
46 141 176
93 223 97
233 61 0
182 39 208
57 145 170
177 70 159
79 175 40
158 3 167
52 44 28
28 215 243
168 72 121
143 37 216
106 233 11
239 68 58
92 193 162
122 82 28
215 105 73
232 190 198
122 205 24
137 72 179
149 240 162
195 55 61
179 116 98
227 227 147
206 162 10
34 162 12
69 64 122
59 157 61
209 200 240
74 120 81
69 100 212
227 59 211
180 124 101
231 32 136
141 65 55
60 127 189
12 153 172
208 173 139
197 50 18
251 40 64
221 69 66
40 100 3
212 226 161
149 113 73
21 198 21
35 27 155
189 148 185
159 58 97
108 128 253
255 3 3
172 10 61
74 145 33
185 130 88
40 228 128
56 51 202
235 3 20
142 55 152
124 6 36
199 131 146
141 42 127
252 112 104
87 205 154
139 8 66
160 138 88
82 230 123
159 244 22
200 249 215
222 155 224
232 210 70
236 82 110
185 0 107
48 247 231
253 144 202
108 2 150
161 104 214
34 70 168
115 250 35
237 245 116
160 161 53
250 19 31
198 18 42
229 228 41
124 77 208
250 186 182
197 57 153
78 53 140
160 7 158
150 161 181
147 211 61
178 122 195
149 35 73
254 100 173
194 155 210
176 132 159
206 61 180
140 60 78
66 216 108
155 221 116
206 127 227
255 147 55
255 161 16
56 30 241
190 117 216
228 242 114
249 215 214
198 23 89
203 86 5
219 49 82
157 241 18
14 207 140
139 249 82
157 74 88
43 164 136
169 178 175
53 188 63
81 103 131
232 76 226
64 44 72
108 233 131
8 224 116
110 20 238
56 201 41
160 226 76
45 7 254
112 181 250
120 122 185
144 171 193
15 187 246
203 184 220
214 107 94
122 41 43
18 127 175
186 194 44
16 99 116
137 64 22
39 190 176
226 132 16
212 177 97
93 77 117
104 168 134
111 17 233
161 145 120
10 120 45
99 190 173
191 99 23
144 36 120
204 175 129
245 195 253
124 47 231
55 46 63
166 178 52
205 20 162
198 143 15
117 6 0
67 131 94
154 156 115
104 250 205
213 99 247
101 146 119
163 89 29
126 5 144
249 229 196
180 187 136
104 76 220
217 18 50
104 90 123
80 81 209
210 138 180
179 184 216
235 158 236
176 73 140
223 127 151
37 18 154
115 50 213
224 114 40
37 129 99
75 218 210
210 179 158
216 196 71
171 120 28
207 148 162
106 48 56
19 208 31
248 25 197
224 17 238
254 197 25
122 169 42
18 204 211
166 89 197
21 141 57
245 189 65
172 168 44
240 176 36
160 12 124
89 16 178
236 57 220
187 225 44
93 96 211
127 79 40
58 177 45
139 220 197
228 46 136
182 98 104
173 171 56
55 91 37
73 26 166
69 17 236
253 216 180
225 167 216
97 96 103
128 31 250
190 61 22
203 66 85
150 56 6
104 194 74
243 138 83
68 139 145
246 233 171
52 16 223
66 166 38
2 141 101
159 113 98
139 11 86
207 228 101
194 174 24
151 183 176
164 49 245
237 101 154
65 131 185
204 237 100
41 221 66
247 63 184
183 29 39
180 111 245
44 149 238
119 187 159
152 248 0
180 104 71
6 65 52
145 150 56
239 85 165
199 139 205
111 68 208
163 195 90
165 164 186
55 156 197
54 166 39
101 171 0
157 233 84
97 167 40
244 121 119
161 127 234
159 126 170
9 165 227
209 227 207
216 161 234
49 237 71
105 170 184
41 116 56
18 76 141
119 100 171
95 100 126
205 231 97
240 243 249
95 30 217
50 247 160
226 159 80
97 156 213
193 116 79
156 118 129
28 40 159
159 117 164
58 211 107
94 169 232
150 173 65
192 184 3
32 238 134
72 244 150
85 246 38
210 92 253
88 41 166
78 189 79
175 158 4
127 107 165
252 148 153
180 53 151
241 70 204
166 128 171
155 66 12
176 246 212
189 188 57
104 25 122
173 242 160
81 37 253
139 68 96
115 28 248
209 15 179
65 124 64
240 176 250
80 1 135
20 254 48
53 232 22
4 66 179
138 35 53
153 9 54
131 248 190
106 145 7
44 17 77
68 145 211
235 199 26
94 138 121
125 166 241
189 100 153
248 137 206
51 227 206
170 74 54
151 232 5
142 216 108
5 236 255
115 239 201
45 206 100
46 206 12
203 28 94
134 102 155
252 137 168
180 130 146
143 8 232
151 133 171
44 163 234
203 46 73
207 151 167
69 30 120
111 248 199
135 160 7
31 199 225
24 226 157
142 56 224
85 223 100
119 157 209
202 176 172
80 168 23
72 132 167
100 211 139
48 48 220
165 250 53
224 46 222
82 46 240
100 198 172
147 12 238
16 182 126
46 140 50
211 121 159
14 197 57
245 184 149
23 172 48
149 125 33
209 4 195
185 180 206
72 103 171
122 79 148
154 246 182
44 58 245
14 174 111
172 222 244
79 3 252
163 184 53
206 242 72
84 86 18
67 57 179
7 142 201
201 127 232
58 224 61
141 42 246
170 235 238
135 134 90
212 93 71
48 240 188
193 47 222
129 42 129
146 87 64
69 49 161
98 44 82
139 157 49
206 110 19
105 120 229
198 132 38
188 164 151
155 21 220
103 97 95
240 51 37
204 22 54
178 12 248
131 179 242
195 48 45
135 69 61
52 1 218
46 209 164
216 48 87
155 240 112
61 146 96
2 150 0
209 170 7
91 55 67
102 10 212
164 190 67
203 175 116
158 29 241
235 104 230
68 188 198
115 78 243
3 132 76
137 229 136
122 222 84
230 206 45
197 71 108
135 35 187
93 45 49
246 191 87
249 134 18
29 197 119
101 68 119
54 74 192
208 128 203
79 212 164
3 15 49
138 56 80
119 45 139
46 233 148
193 150 245
81 244 129
191 27 98
207 36 255
125 127 15
225 5 107
60 90 191
253 54 39
43 23 125
176 118 108
126 92 189
85 227 60
86 87 23
92 172 243
52 39 98
34 22 132
21 66 17
167 45 161
168 98 148
26 84 140
81 200 39
183 167 53
254 114 194
17 88 22
143 79 46
121 253 29
30 146 243
153 137 126
135 200 254
33 156 176
94 200 64
14 70 47
73 242 63
196 189 59
66 143 222
172 44 125
122 109 223
205 213 39
97 50 26
238 217 97
80 92 6
117 58 115
104 13 130
19 52 115
218 129 57
255 136 37
158 7 202
117 244 62
193 110 6
151 13 220
14 171 254
23 132 94
241 44 145
22 128 56
141 160 195
219 239 108
63 201 3
8 68 246
148 125 249
148 148 220
242 161 38
151 111 251
27 18 163
86 166 42
112 162 42
23 157 10
45 34 20
160 232 227
52 148 33
139 253 10
113 252 22
159 20 224
13 210 85
199 72 87
15 24 27
183 165 93
66 110 85
86 38 240
23 246 33
213 51 19
184 113 212
152 33 6
50 119 44
60 127 235
130 58 132
237 123 142
124 86 255
16 35 140
65 201 13
47 234 127
200 92 163
133 63 16
140 91 168
122 80 73
88 91 237
120 214 65
103 113 210
71 73 118
148 13 158
67 162 244
141 91 5
162 238 198
241 91 124
160 250 59
120 33 55
49 155 231
92 83 54
38 209 230
193 105 113
25 79 122
1 10 25
50 59 116
231 187 48
12 22 255
230 235 101
63 103 26
1 71 123
221 123 96
154 180 50
191 69 194
17 4 95
67 12 174
74 67 22
217 7 43
42 150 149
212 216 164
189 151 117
218 181 13
140 173 179
95 34 136
109 206 71
23 44 78
77 236 129
167 108 145
100 198 245
239 202 254
173 1 9
238 41 4
226 215 167
15 254 66
109 239 48
177 210 112
183 125 103
237 57 171
125 132 194
152 243 151
177 199 176
80 73 221
171 198 98
8 148 237
35 201 234
22 29 73
155 109 176
251 154 38
139 36 88
0 193 153
245 208 113
117 53 239
40 169 139
240 130 55
128 103 145
115 226 234
54 239 53
254 252 98
197 170 192
144 191 144
16 148 25
100 37 29
122 123 13
36 210 167
67 165 12
159 158 178
90 29 47
24 124 213
62 168 200
187 44 128
64 14 67
5 32 224
61 212 42
254 126 24
9 54 214
1 91 180
96 168 252
137 92 27
59 169 191
205 166 72
161 154 94
48 45 67
223 215 191
19 165 65
78 120 92
127 1 18
154 188 238
248 137 180
104 189 90
253 45 226
240 230 219
119 208 134
220 116 169
33 254 117
75 217 102
35 236 42
239 176 112
111 61 148
84 21 0
68 151 227
220 45 188
8 163 116
196 184 195
127 224 49
125 163 196
65 91 187
171 227 231
249 151 87
74 52 90
224 40 204
220 136 161
165 68 250
10 218 96
44 199 137
200 242 2
121 129 239
49 119 178
21 37 89
18 113 236
233 158 75
164 3 35
64 8 160
100 14 38
89 192 216
183 149 254
246 6 108
132 126 195
236 51 13
172 225 62
42 63 185
197 203 48
49 170 10
234 7 13
182 207 106
38 111 61
181 30 40
107 241 138
83 141 169
231 64 122
51 9 135
211 151 165
44 91 239
26 112 141
211 181 220
11 14 220
131 118 114
65 26 47
173 10 202
115 235 238
52 53 47
71 81 238
0 61 0
84 228 18
104 26 216
247 107 60
186 56 140
208 22 231
10 6 52
96 167 159
8 186 189
98 197 176
253 106 4
165 249 77
229 48 85
58 226 77
144 79 237
195 51 249
56 131 48
200 190 210
200 70 69
164 148 9
232 222 243
220 216 197
245 255 43
101 136 133
211 109 45
28 237 161
97 235 20
61 223 84
60 190 140
79 216 119
198 86 93
91 225 5
113 19 178
31 128 243
168 109 75
166 250 82
28 132 174
6 126 125
28 164 201
105 218 60
158 177 205
228 103 189
187 23 202
145 253 209
2 64 170
247 152 197
48 174 13
141 63 45
109 107 188
55 125 228
33 111 74
27 12 169
67 190 231
106 213 128
243 20 174
185 251 74
255 133 35
173 204 244
118 124 29
35 158 94
46 172 130
32 128 63
4 84 224
107 192 185
159 29 232
204 92 71
241 10 67
162 158 141
5 70 1
236 220 71
119 86 85
252 109 123
59 75 2
224 224 26
168 253 186
234 238 216
29 145 55
185 117 216
203 227 156
225 252 168
166 148 62
141 90 182
156 29 248
76 8 21
132 206 236
89 220 70
76 208 93
34 229 170
140 221 172
242 111 183
81 241 241
21 198 194
73 219 118
19 154 123
242 208 157
127 93 44
185 37 124
219 194 112
82 13 102
50 200 172
20 250 240
155 207 181
0 237 103
186 78 215
102 47 253
205 167 83
151 34 189
147 193 138
99 141 87
151 29 215
48 118 197
19 14 162
184 36 231
222 150 63
171 136 39
159 84 97
200 202 169
124 228 208
190 174 19
229 231 77
58 122 39
158 161 0
120 203 211
224 127 147
42 113 74
132 137 204
74 236 175
158 147 54
232 123 158
135 143 83
183 165 92
26 124 166
251 73 173
57 85 32
229 96 124
12 0 46
0 95 79
223 36 55
33 209 32
251 108 80
156 117 118
6 54 159
229 110 55
2 139 93
247 152 90
13 207 162
228 246 147
220 202 121
54 237 161
248 46 67
93 57 14
59 220 234
3 39 196
30 76 103
104 192 51
69 227 121
12 4 192
165 248 218
133 58 230
1 134 43
77 32 196
112 146 244
157 133 89
19 135 88
7 61 239
215 251 175
130 2 11
137 2 84
107 1 156
58 137 23
34 5 3
66 88 62
21 156 65
72 6 149
174 37 129
197 142 214
156 169 51
114 146 145
89 107 11
220 240 100
174 152 254
135 207 200
234 229 23
121 110 124
243 74 142
36 47 99
86 30 5
107 144 2
140 150 76
67 159 134
243 254 5
17 63 37
44 213 98
28 234 240
67 235 173
162 143 77
154 80 124
255 104 232
173 74 39
188 253 133
167 177 109
160 99 206
47 185 57
94 226 92
200 48 248
151 219 17
118 114 206
241 104 166
28 21 50
25 175 209
224 105 176
210 249 30
206 204 190
5 149 105
204 7 63
114 183 219
39 111 235
120 0 52
179 224 37
202 67 59
112 39 188
82 133 48
8 33 113
132 148 79
102 203 160
170 214 68
137 227 195
130 87 15
38 176 30
102 117 78
181 92 161
243 244 10
162 157 185
11 103 156
215 194 54
208 184 105
209 96 79
229 243 202
169 184 211
149 221 153
39 189 180
222 47 124
71 202 140
199 181 72
186 69 248
22 212 155
238 151 245
71 108 39
175 198 54
102 24 64
248 40 16
115 180 172
92 107 176
200 230 37
1 229 244
38 119 176
228 75 36
57 136 64
135 114 47
103 20 28
123 19 110
208 94 222
113 31 198
9 226 234
60 242 209
5 137 118
149 168 236
122 168 196
218 168 74
204 92 255
76 211 111
140 119 236
227 96 37
195 244 152
249 255 15
92 158 44
156 122 101
235 48 211
35 79 190
181 5 48
51 203 94
31 225 72
208 17 153
210 146 21
135 57 104
0 26 190
1 81 55
155 95 171
177 225 28
17 235 81
71 253 248
217 152 179
96 222 196
254 86 94
63 171 175
54 96 149
234 22 30
66 160 140
75 100 29
188 138 148
37 224 205
36 189 153
199 3 24
156 67 237
8 48 243
24 155 90
12 13 141
187 51 112
62 210 126
51 12 141
173 210 64
227 203 64
45 82 51
213 5 119
8 125 90
53 67 253
126 124 206
91 227 250
88 69 234
191 196 134
153 160 42
215 41 231
89 8 9
94 178 167
141 25 249
83 20 12
27 38 208
184 127 87
219 228 210
140 75 222
7 220 23
28 106 32
193 11 68
54 161 209
139 95 82
29 48 253
102 132 76
176 245 198
243 182 6
204 250 20
49 28 252
222 3 143
85 22 9
119 49 36
69 186 226
180 144 20
192 79 158
68 238 80
248 229 69
8 32 154
154 184 216
60 105 178
111 59 202
7 205 48
33 155 208
101 221 221
103 249 20
117 76 217
136 1 145
248 144 88
89 190 95
205 106 253
108 161 53
233 70 221
21 153 105
180 73 108
139 212 37
15 223 55
217 181 44
8 243 213
198 103 67
246 182 56
128 89 177
67 223 46
205 79 177
205 86 182
251 76 227
158 147 165
13 218 99
98 149 229
28 90 124
60 28 158
46 202 188
112 41 80
89 177 54
210 136 37
198 132 91
225 133 37
191 226 235
7 173 242
192 95 216
191 142 32
190 177 112
50 110 117
237 164 76
227 223 127
99 88 192
214 95 147
182 91 64
111 42 161
132 83 138
73 249 2
92 221 121
116 120 145
226 212 192
84 183 25
170 62 111
230 35 57
91 217 207
5 55 80
99 15 140
25 131 50
94 247 169
100 216 32
247 2 189
217 176 66
21 63 81
0 97 219
87 75 128
200 67 152
16 79 69
231 17 210
85 187 243
131 52 162
192 206 189
127 12 66
79 142 177
70 41 82
42 111 143
168 233 61
151 37 146
186 62 26
217 114 105
50 249 161
96 52 103
184 25 79
59 134 161
154 232 99
254 122 20
112 21 69
113 238 200
148 39 231
60 184 157
126 253 145
127 59 65
170 64 89
122 183 218
17 250 63
175 170 232
233 70 100
60 36 231
13 204 239
55 38 70
111 200 248
80 34 3
71 6 248
198 177 226
85 176 165
37 145 215
25 25 184
168 90 162
65 199 98
21 154 42
163 27 146
241 63 139
69 115 125
14 22 45
129 206 237
221 179 1
56 253 158
237 172 18
27 99 208
143 204 11
49 245 48
61 40 125
45 128 243
205 150 213
117 11 137
145 172 251
113 29 100
99 157 94
78 11 78
31 17 86
114 7 185
159 174 162
181 166 211
38 73 164
168 233 250
129 183 155
100 181 114
187 37 94
88 111 210
228 94 65
93 104 142
6 71 121
163 26 49
209 246 40
246 173 87
84 207 42
55 172 24
186 164 75
33 59 181
47 213 48
27 190 222
89 54 217
146 135 66
76 99 209
68 207 29
179 3 96
43 12 196
69 39 51
200 30 151
246 241 194
8 210 122
219 3 183
75 233 174
142 21 166
107 253 46
59 2 92
168 199 119
201 21 57
78 133 163
159 138 71
139 194 121
52 207 0
129 146 215
168 175 12
196 64 189
192 53 144
124 19 166
103 51 216
118 248 65
33 226 114
0 216 153
216 192 116
189 178 205
143 82 5
1 4 8
59 83 131
54 66 133
169 36 155
227 182 178
213 1 109
197 162 125
234 248 140
78 209 137
157 49 18
33 3 253
12 218 138
132 130 52
208 229 232
115 26 86
55 199 34
214 72 222
254 188 19
96 173 59
14 26 173
239 16 4
8 162 213
188 121 142
151 240 69
174 174 45
43 106 173
138 180 43
145 254 35
24 240 89
99 24 135
151 23 64
252 248 124
149 136 33
242 139 213
237 205 129
151 181 95
88 6 183
138 46 210
172 164 247
244 91 119
148 28 201
242 77 209
79 250 157
192 196 198
185 221 150
19 244 156
56 25 218
222 215 239
175 248 146
39 14 213
18 101 111
4 49 133
180 110 252
228 101 197
154 18 68
118 204 103
33 39 68
14 218 131
158 81 20
95 229 85
141 205 154
220 133 12
100 114 200
203 161 124
39 252 240
54 79 185
124 61 156
200 45 65
50 117 116
207 130 196
100 169 240
155 10 187
120 98 98
63 54 29
65 1 18
254 202 144
125 104 123
42 200 220
71 103 46
77 77 140
22 238 149
166 146 196
12 109 140
116 249 98
104 227 160
153 158 15
167 54 246
206 185 106
102 136 76
82 93 210
135 221 96
132 233 0
63 202 9
204 131 102
169 140 83
153 181 9
148 133 112
8 212 196
45 30 21
51 44 201
242 9 237
203 62 60
11 15 164
142 19 202
150 12 67
162 109 43
126 151 152
243 220 28
167 148 177
171 126 66
151 32 239
244 36 189
81 12 5
142 240 162
66 255 69
220 94 179
52 33 42
22 183 187
158 146 162
90 203 195
177 119 211
167 28 10
188 200 249
209 144 98
134 247 19
232 157 243
153 32 128
250 148 233
54 145 80
78 238 28
204 198 245
45 171 192
28 44 153
234 0 197
153 81 150
170 106 219
48 194 182
90 224 150
4 169 84
23 34 13
236 3 28
31 220 187
49 7 134
123 138 56
110 196 94
150 222 198
152 189 125
233 88 54
120 18 109
195 208 89
10 106 53
110 184 9
203 106 79
211 194 55
187 69 37
50 109 175
12 62 38
45 107 192
132 5 88
60 235 187
217 243 182
99 162 55
138 32 11
43 203 137
3 26 144
52 141 183
201 19 58
85 228 212
197 51 118
190 15 182
209 87 78
87 102 210
106 100 86
83 178 195
49 158 178
244 136 237
224 222 184
161 83 49
137 182 61
194 108 103
46 21 208
63 6 124
11 150 137
205 212 39
160 254 142
230 95 165
3 192 248
210 245 240
213 123 30
147 207 247
127 75 101
112 244 212
230 191 221
109 218 175
153 54 176
81 187 104
127 46 176
205 243 160
199 167 165
253 236 60
31 106 73
251 138 86
146 42 45
45 149 191
8 203 28
223 128 187
105 205 139
148 176 54
71 234 72
124 233 247
130 191 228
84 242 178
198 128 166
239 17 211
224 164 125
197 19 29
207 125 114
52 28 200
93 113 26
0 164 96
224 42 8
9 30 174
86 248 225
118 29 253
55 141 135
20 171 133
116 84 61
245 50 0
122 131 4
57 74 153
142 159 93
40 129 163
2 25 255
207 76 141
61 180 131
34 211 248
179 236 229
201 83 184
93 201 9
225 230 14
7 126 212
87 233 216
103 188 64
235 61 161
88 106 244
59 110 140
252 41 253
51 240 88
82 47 191
228 96 165
203 182 85
224 146 140
178 140 202
14 125 134
77 233 82
157 118 119
45 238 50
152 101 110
2 211 198
50 87 103
132 53 41
211 114 26
67 130 245
121 111 212
198 84 244
135 124 33
119 129 225
114 127 174
95 85 173
125 223 14
148 224 185
34 230 173
186 18 54
206 126 160
49 222 100
7 221 42
75 161 195
203 17 248
236 232 104
90 86 53
38 155 251
135 42 15
255 80 202
180 224 251
248 250 90
98 229 223
146 102 224
77 15 168
243 73 189
120 208 143
247 226 106
136 31 109
122 114 209
95 3 250
230 63 120
1 141 71
179 122 7
66 146 218
54 227 33
105 186 237
28 206 185
152 171 121
222 19 94
68 108 160
67 233 56
135 134 0
100 208 68
205 155 31
204 51 88
20 123 197
200 224 72
168 107 203
29 171 117
186 245 72
143 102 159
209 18 242
113 129 119
24 0 109
153 3 223
198 233 54
234 175 23
236 80 49
182 206 136
117 185 4
20 179 102
37 199 201
162 211 228
110 190 109
80 60 148
130 13 173
151 132 164
243 181 71
47 77 148
215 79 252
145 28 47
123 130 70
174 199 156
128 248 190
107 66 139
108 112 59
212 200 233
219 173 230
164 26 138
247 166 229
156 155 134
58 115 246
82 66 98
213 97 73
41 165 3
145 13 234
28 244 245
252 86 166
169 143 214
59 23 224
84 118 158
30 0 233
55 238 0
72 197 135
201 7 224
9 104 199
63 110 133
129 162 86
243 145 221
70 191 3
136 91 230
81 191 18
223 216 165
33 75 161
36 226 219
159 174 160
94 86 238
234 20 211
133 250 6
252 183 89
2 52 171
22 7 229
69 76 37
119 101 119
129 157 42
128 8 21
61 237 8
102 77 82
103 139 69
182 216 169
76 247 41
122 217 116
34 208 39
18 126 164
152 143 123
221 56 234
157 104 194
128 137 178
187 75 58
79 194 109
136 102 85
116 47 0
118 34 60
61 69 117
229 120 208
70 211 170
106 10 130
254 201 226
102 6 178
58 200 15
146 72 26
151 186 225
74 233 64
118 178 67
24 11 241
20 151 241
176 76 52
127 238 238
26 45 54
21 206 100
85 195 186
142 224 218
106 239 217
22 225 176
225 107 22
177 128 67
170 158 113
166 181 132
44 153 142
123 155 203
100 27 3
130 8 106
117 110 237
25 53 107
37 221 58
194 206 177
240 126 245
89 85 107
116 66 197
177 150 56
30 191 55
86 247 179
10 207 92
245 224 25
245 10 31
120 204 80
47 228 127
197 104 207
78 170 0
80 53 126
235 6 237
120 187 102
2 164 200
11 227 239
193 243 122
126 32 52
9 249 235
72 208 52
145 157 205
243 151 68
214 106 167
22 119 183
243 59 181
242 30 114
224 159 217
135 52 4
143 79 110
70 93 56
144 64 164
91 156 109
195 51 83
168 128 183
122 9 207
237 109 235
110 215 205
77 218 160
130 169 41
220 150 234
47 40 36
9 186 232
230 39 49
234 84 32
97 249 26
141 232 89
232 159 141
119 137 71
92 30 197
233 144 88
136 241 98
159 129 128
120 96 196
25 207 136
218 149 63
85 206 141
29 204 121
210 113 7
66 53 238
47 92 204
160 66 89
154 250 70
49 109 95
178 197 103
219 122 249
23 4 234
164 65 121
202 91 189
255 116 29
236 221 245
215 112 6
89 3 143
143 178 76
28 135 156
77 63 168
66 63 200
183 228 74
56 174 22
143 187 173
235 63 43
83 138 136
219 15 201
237 156 2
7 0 14
101 148 73
182 27 16
98 177 136
96 86 228
81 112 166
225 127 69
220 244 7
168 206 197
77 188 14
7 230 179
33 67 144
79 71 212
27 22 136
80 199 148
13 46 226
109 91 121
148 245 120
187 84 53
52 87 94
22 100 100
119 217 199
127 162 244
25 161 55
1 108 232
45 152 251
75 56 201
82 141 102
173 127 5
129 12 252
203 45 203
197 143 140
186 95 154
63 0 113
102 30 156
145 166 100
193 111 119
251 84 16
42 107 157
49 249 149
19 222 77
183 144 194
36 255 111
184 194 155
227 15 219
231 85 92
14 123 163
117 74 70
31 176 80
249 47 90
111 101 200
41 12 132
160 164 198
28 39 99
220 95 154
229 20 119
239 41 233
43 93 130
215 34 57
241 39 109
67 121 8
250 248 23
152 222 160
247 15 216
101 245 240
249 141 145
42 26 250
70 99 172
228 57 20
65 53 149
106 13 203
2 204 236
129 58 65
27 38 56
142 198 197
254 9 4
122 39 244
230 238 126
144 62 93
234 87 242
67 5 43
44 120 91
213 194 169
0 75 85
242 114 1
94 153 172
22 2 27
210 216 7
137 219 124
171 148 223
218 205 13
90 36 118
78 255 146
48 216 141
108 185 207
142 183 242
35 33 189
153 145 59
56 84 60
26 241 1
155 161 22
74 31 212
113 159 40
50 227 77
185 155 179
185 168 82
31 23 64
180 72 53
129 63 160
11 183 201
98 184 123
221 100 76
165 110 138
206 218 11
142 128 226
112 12 194
208 185 199
99 6 123
197 103 60
220 212 106
252 84 126
3 225 92
149 187 127
98 200 227
4 182 81
179 19 87
189 230 250
105 66 23
111 41 189
181 168 4
8 81 142
141 19 127
208 20 43
5 254 160
23 23 154
27 18 1
126 223 160
92 208 12
231 243 176
91 240 63
24 110 249
236 44 173
213 43 161
77 169 214
141 224 7
132 50 178
181 127 20
217 251 50
126 142 12
180 64 125
85 41 181
190 88 227
236 79 174
102 200 142
172 151 126
187 254 17
224 91 117
82 250 204
94 74 117
24 168 217
147 70 56
228 244 55
141 167 159
228 102 178
139 27 218
17 172 82
75 183 157
5 38 48
224 8 224
224 72 198
83 215 248
38 80 238
46 145 8
17 22 239
110 244 88
252 136 194
110 117 31
79 158 40
222 177 190
243 245 223
213 28 180
24 0 86
165 231 117
141 126 75
162 138 5
170 22 0
48 86 229
123 178 6
68 194 38
72 38 116
89 40 75
21 245 60
43 201 250
216 14 89
134 67 31
133 37 106
54 163 227
233 49 15
30 97 240
23 195 224
112 51 190
186 204 160
132 31 98
122 62 5
105 100 111
104 169 218
199 236 189
168 37 171
62 103 97
69 21 192
54 248 7
144 240 246
48 78 58
38 32 53
128 210 101
122 52 61
146 86 200
123 118 255
159 139 229
0 255 219
239 7 20
146 101 157
93 182 163
5 117 168
7 201 4
33 219 157
165 173 92
209 116 124
212 24 183
75 47 166
126 190 96
114 71 181
199 248 124
138 83 105
26 29 209
210 188 9
16 71 199
33 2 196
110 200 67
137 102 121
96 255 81
240 245 184
88 210 144
27 249 254
163 87 31
127 17 107
49 30 101
238 241 156
186 78 182
149 66 73
244 29 176
212 183 48
216 14 69
132 182 144
34 150 194
246 205 221
73 60 102
54 54 218
224 92 213
66 152 253
237 30 199
82 220 51
144 168 145
51 180 250
62 168 51
191 12 168
182 69 167
109 49 113
133 134 129
209 190 27
135 171 144
207 220 48
109 221 190
245 70 213
155 8 88
34 150 169
110 179 235
255 13 188
68 98 129
23 250 210
234 28 170
11 232 103
103 120 61
72 166 68
7 105 14
75 72 227
84 90 146
192 179 232
20 186 118
163 221 23
58 224 183
225 240 113
38 145 216
82 9 177
199 91 251
120 80 158
166 125 250
199 208 10
232 4 199
205 127 192
112 7 198
122 23 144
97 220 104
130 28 211
6 16 57
147 194 164
124 148 220
115 224 39
208 229 248
78 8 53
195 32 209
60 28 153
1 56 46
167 91 220
184 75 205
50 128 9
204 37 107
58 208 156
194 81 202
4 189 3
204 61 124
137 237 23
119 77 70
99 234 184
149 209 100
204 242 81
86 20 201
144 123 12
85 14 241
226 175 177
194 77 0
130 254 145
47 218 143
40 253 56
120 63 206
197 241 31
140 139 166
94 66 178
145 47 131
135 67 58
52 181 242
174 135 210
175 58 98
217 19 126
7 154 90
128 191 2
3 105 92
96 198 117
229 188 133
143 119 135
18 186 108
136 127 101
242 211 91
153 192 210
42 104 77
18 70 194
30 130 20
190 232 8
200 112 28
198 249 228
199 93 225
150 139 116
174 158 8
67 25 180
241 72 122
77 249 20
162 4 127
80 253 147
233 207 204
98 158 192
172 224 68
125 126 202
66 185 231
48 30 193
149 116 13
173 187 78
70 123 16
190 236 72
47 150 191
247 194 176
127 142 213
125 57 199
52 235 207
78 141 184
232 43 141
85 113 96
58 172 24
178 86 252
122 151 187
205 231 82
123 39 193
127 71 115
237 46 146
8 63 171
239 248 71
249 134 247
157 171 168
179 162 77
23 52 179
104 171 14
56 183 154
242 80 107
37 177 100
186 208 125
176 155 248
94 132 176
214 183 133
207 143 24
143 133 63
220 168 218
147 187 171
32 233 112
238 132 38
230 183 206
201 183 159
192 109 70
6 108 225
130 131 224
16 78 180
145 139 175
163 216 98
36 209 50
162 44 79
99 162 197
112 243 22
63 35 245
225 159 199
40 218 236
85 118 137
182 152 94
61 162 253
35 237 219
110 144 205
138 239 66
44 31 42
18 192 202
8 218 76
253 109 183
117 196 86
67 4 163
200 74 115
26 132 124
56 145 95
114 96 222
61 191 254
105 189 6
233 25 220
162 18 228
5 74 165
96 2 200
177 74 29
205 185 23
89 100 113
204 169 98
45 246 214
41 233 172
177 243 108
254 207 69
222 241 38
104 240 18
236 102 142
121 105 9
145 16 204
46 228 18
88 206 76
223 221 164
95 223 150
253 36 187
104 201 215
106 155 245
182 123 172
67 101 185
10 161 76
140 251 240
205 203 23
52 123 238
218 128 90
95 190 49
155 229 171
152 63 39
183 96 134
173 210 49
120 89 53
11 222 135
173 173 250
106 2 191
103 36 48
208 132 208
138 47 69
203 149 93
139 149 219
110 46 208
118 39 57
169 149 129
58 236 13
204 54 131
146 45 73
3 139 75
161 219 152
163 122 233
33 208 7
27 109 199
37 98 65
157 12 67
135 129 235
22 81 142
194 108 229
168 40 201
66 4 193
86 239 143
231 64 208
44 202 236
176 95 158
81 207 227
7 25 210
52 219 94
220 252 48
182 58 108
63 44 205
192 226 245
249 172 172
193 38 110
158 76 212
65 50 155
61 105 103
138 104 193
196 153 106
161 51 68
117 210 245
74 205 239
212 60 10
242 11 187
62 21 98
242 205 101
211 124 146
72 160 44
162 108 88
164 113 140
24 33 36
93 15 35
151 32 192
230 49 109
112 243 67
208 205 69
70 214 5
8 23 168
4 240 218
250 186 46
136 31 31
176 1 20
80 224 22
76 97 112
24 236 211
238 163 165
20 232 70
180 238 64
102 46 239
11 71 24
116 162 150
225 75 248
189 109 207
64 25 35
126 30 246
207 214 83
93 146 172
19 81 74
136 111 116
24 63 110
96 13 77
9 17 153
63 10 204
219 63 143
139 18 251
15 151 134
137 200 218
132 206 138
98 225 241
160 197 31
102 245 89
181 60 3
100 74 39
241 4 172
137 36 23
213 33 117
169 74 233
68 160 170
106 146 34
211 102 228
237 90 106
220 155 244
118 21 112
56 195 62
31 180 36
169 24 207
3 1 206
163 85 157
18 161 166
59 171 83
27 252 188
11 3 88
91 125 153
164 160 50
1 118 59
37 194 68
77 140 203
71 101 43
168 101 186
174 119 35
132 46 212
10 74 138
183 16 156
2 132 56
59 244 226
72 95 235
77 186 72
178 89 75
83 149 111
102 232 4
76 154 56
192 56 6
206 243 216
110 74 210
39 11 25
74 131 22
58 73 199
45 204 112
101 165 242
146 59 149
200 235 66
92 111 104
94 96 68
45 253 176
171 179 26
19 169 88
168 88 56
202 127 190
90 142 84
225 107 138
98 162 56
6 144 213
60 186 162
235 138 217
214 183 154
56 72 151
158 187 176
239 81 107
71 231 225
191 77 129
106 32 169
218 154 131
160 42 192
162 69 168
239 227 9
64 157 82
125 105 87
197 201 57
217 211 3
123 202 11
174 134 24
40 152 62
191 240 245
125 243 171
15 34 0
134 224 91
167 17 24
160 89 208
142 104 155
66 109 163
244 174 216
77 194 119
185 60 43
143 108 40
251 88 253
218 147 46
11 175 116
0 21 205
232 176 84
150 43 56
115 54 69
3 218 203
118 215 232
121 85 58
192 201 50
21 238 137
123 146 97
246 232 118
173 96 210
47 131 173
29 125 80
255 54 135
227 242 85
241 64 174
250 251 59
216 12 21
129 4 122
0 173 240
132 157 25
213 33 225
100 90 41
44 209 81
65 195 92
92 32 12
247 147 91
128 152 65
38 190 136
19 222 193
122 87 252
116 21 91
23 62 75
61 157 239
211 245 185
197 110 162
185 41 55
87 239 174
179 78 76
8 210 252
94 197 153
37 114 72
13 61 132
173 107 216
106 68 89
55 207 147
78 98 150
14 246 122
88 84 119
10 76 174
204 173 146
230 173 125
198 210 84
172 165 250
160 77 194
115 12 61
124 40 214
37 222 76
159 71 39
49 159 115
220 171 140
74 144 39
224 100 126
92 34 175
58 154 203
49 163 13
247 50 86
200 194 180
232 189 111
47 206 144
95 112 11
189 118 107
178 110 144
134 76 207
187 143 207
164 250 134
226 76 139
187 150 92
57 77 157
252 225 231
41 150 40
60 197 202
83 103 113
61 129 226
241 124 67
235 15 205
79 131 113
130 179 48
11 197 103
230 239 243
155 167 11
232 138 253
238 218 251
82 114 136
186 76 109
32 114 129
8 123 108
132 245 195
55 112 157
132 184 16
16 146 28
68 186 18
180 75 49
20 107 248
191 157 115
110 241 30
148 172 9
90 166 113
155 227 225
12 110 150
70 143 164
149 192 65
152 193 82
95 190 31
76 70 139
48 54 67
72 247 112
165 93 163
242 217 90
142 98 218
20 97 238
67 120 166
165 212 116
105 15 36
194 164 95
49 230 75
81 163 233
254 146 169
184 11 195
44 96 59
26 106 252
173 74 125
190 251 119
58 191 140
121 34 245
103 197 26
197 75 188
35 15 243
170 72 149
154 45 207
14 111 230
74 181 168
188 212 20
117 243 212
10 194 208
73 136 254
16 68 193
40 116 93
97 206 27
132 206 219
94 112 195
59 118 110
149 81 209
124 45 205
194 149 112
170 203 53
34 76 63
167 177 85
209 49 212
189 92 244
90 191 223
56 246 233
1 115 49
230 67 245
128 145 51
206 103 215
98 181 168
255 57 190
200 35 120
207 57 105
51 149 162
182 110 90
210 134 108
150 54 131
120 223 191
5 231 149
249 119 55
253 92 91
64 14 92
91 92 192
244 166 161
143 17 169
123 190 133
249 185 219
220 51 210
56 113 44
191 64 229
175 185 241
93 126 119
4 62 32
62 1 162
138 126 40
170 134 171
243 35 48
133 80 116
54 35 54
134 115 65
89 255 35
115 125 238
155 111 223
2 112 29
95 56 106
111 200 109
182 112 97
242 214 222
240 63 69
199 198 34
138 4 106
126 0 232
46 40 11
61 21 91
209 224 9
148 214 26
211 46 176
136 196 141
82 145 58
55 127 70
106 5 139
232 102 176
73 33 191
224 230 246
87 176 174
166 25 18
115 158 18
212 227 184
243 212 62
125 26 23
108 86 68
166 97 46
75 85 124
156 245 255
111 63 212
133 2 37
167 127 177
222 180 133
156 61 188
170 74 96
68 134 188
191 160 157
14 127 140
58 254 225
244 9 121
106 29 219
135 89 88
149 8 84
151 143 14
134 207 206
168 177 24
70 209 12
36 166 145
189 140 7
40 208 24
90 14 68
207 122 134
27 44 143
247 108 109
162 99 29
208 255 242
134 199 214
105 120 11
113 70 208
100 52 193
13 101 240
225 31 169
170 36 181
89 9 35
13 45 56
244 45 29
86 83 168
4 84 117
82 247 34
122 203 196
133 183 237
173 236 114
39 227 220
29 14 105
179 241 64
207 99 55
54 179 113
214 74 171
35 112 12
180 121 198
220 189 139
67 25 10
101 64 156
123 12 213
172 211 73
231 198 164
96 222 255
172 194 43
225 84 57
106 29 220
247 9 39
142 45 78
85 74 150
151 241 244
157 185 95
217 70 164
218 192 70
172 73 179
29 84 118
99 178 207
190 175 212
107 17 48
100 196 10
182 23 87
142 161 88
125 112 107
205 113 53
140 109 6
232 119 47
8 242 125
74 140 111
226 33 135
106 156 240
11 22 129
200 183 141
137 226 251
196 63 119
94 220 228
176 204 250
129 186 105
20 67 43
42 104 236
49 105 119
162 49 148
248 4 22
230 74 38
52 211 70
35 206 151
35 163 2
227 183 239
67 201 139
6 121 51
140 244 24
186 208 64
184 224 85
238 216 79
5 140 105
41 164 237
64 21 222
238 104 54
42 122 123
87 131 147
39 28 34
54 48 213
237 122 7
106 78 65
87 232 93
246 167 105
26 55 6
94 41 53
115 107 51
68 171 184
89 23 24
160 153 38
139 152 245
84 44 84
155 167 178
82 179 31
202 41 249
138 144 194
37 104 186
50 112 234
211 8 20
232 250 107
194 89 220
10 212 175
202 22 114
52 205 118
109 113 42
29 138 251
218 234 108
16 213 175
145 212 240
120 54 127
101 226 185
124 200 235
73 1 84
210 159 198
23 73 58
115 57 184
140 166 194
127 165 19
25 23 223
10 120 89
132 86 241
136 100 23
52 39 129
62 90 15
213 171 182
185 107 187
70 175 180
201 21 160
135 157 194
2 38 238
35 195 133
108 106 149
186 206 175
166 150 42
231 225 159
64 149 157
153 199 181
18 184 17
79 16 14
251 8 160
64 112 251
120 76 48
18 78 57
233 65 174
108 100 250
54 48 54
126 38 148
223 18 25
5 96 147
127 38 113
173 250 86
234 23 249
11 54 34
125 78 233
63 252 17
70 208 137
59 101 0
8 171 156
230 210 29
95 19 61
108 46 36
42 210 3
119 20 115
27 47 234
172 114 57
1 21 4
52 3 209
166 205 6
148 103 233
105 25 139
114 249 222
166 5 215
212 66 231
28 65 173
158 186 145
157 49 202
94 210 123
6 253 213
131 148 178
19 247 146
212 15 218
19 177 255
11 15 246
162 143 76
240 253 137
112 53 6
203 192 198
250 222 57
203 132 234
13 7 192
183 181 18
53 28 32
29 124 6
54 17 4
6 35 13
146 213 67
27 143 78
68 146 117
128 170 184
114 176 159
82 134 226
142 224 31
191 145 105
183 189 29
2 75 190
129 183 118
132 218 130
34 5 237
211 208 186
151 98 225
226 216 239
88 6 181
95 146 102
4 100 18
73 94 177
41 175 44
191 47 47
250 145 53
61 28 60
96 136 151
52 246 28
193 131 233
134 213 193
80 244 207
104 241 255
101 48 162
37 115 64
12 46 226
208 197 82
192 137 241
215 158 146
146 109 17
92 238 251
39 2 255
91 8 5
152 104 239
228 214 3
115 1 185
3 51 144
255 35 216
159 139 212
209 214 109
155 120 162
5 93 252
112 48 69
82 29 14
17 145 71
118 51 123
43 137 65
6 246 125
62 124 159
36 195 65
137 249 30
21 85 125
242 168 125
214 109 157
240 95 125
27 54 209
252 127 118
169 65 163
71 71 121
211 98 205
110 175 172
50 30 165
29 110 52
243 124 8
166 203 108
115 40 8
53 123 137
171 59 217
100 223 202
31 172 194
29 248 102
195 98 234
6 192 185
27 76 190
196 86 250
59 207 33
113 127 142
63 239 24
110 245 157
42 167 203
112 180 126
243 179 1
143 114 179
69 8 170
247 94 46
227 68 240
69 90 107
253 28 170
87 36 163
171 206 61
164 1 63
199 51 21
225 75 51
210 150 155
175 103 69
102 132 18
212 125 45
184 63 159
53 54 163
40 123 49
143 151 47
247 111 229
39 79 250
43 184 125
93 136 203
107 76 105
110 205 93
159 249 95
46 85 35
201 27 5
151 97 88
208 65 209
23 249 184
49 180 80
160 59 191
170 235 99
62 150 186
178 190 7
96 35 105
233 204 91
180 16 206
226 232 194
120 0 1
85 199 195
188 86 203
234 130 165
70 181 142
29 33 220
99 127 161
70 49 170
5 85 177
220 86 253
209 81 243
100 93 81
114 40 48
93 24 134
169 60 139
182 55 224
95 207 127
128 163 50
94 211 186
68 52 90
6 21 147
211 35 179
240 27 175
213 236 32
209 102 137
172 204 1
71 61 157
177 209 147
118 253 160
129 250 254
86 200 117
0 182 169
159 156 158
179 82 26
92 136 179
211 113 11
168 15 244
223 180 14
35 171 6
36 75 198
199 54 173
179 63 184
120 110 219
12 145 215
169 187 237
45 202 110
209 68 15
87 108 150
70 187 251
210 240 179
167 224 212
75 168 219
240 116 147
172 46 214
223 165 147
20 31 187
148 218 132
214 139 44
99 213 190
176 240 179
136 164 251
33 156 214
19 150 140
78 222 65
190 78 55
94 190 66
58 75 168
105 189 39
222 232 204
215 203 77
41 116 177
168 182 232
189 142 210
144 225 14
181 74 254
236 96 152
240 137 31
3 156 160
7 143 4
175 222 245
20 186 190
225 204 168
224 219 16
63 185 57
15 94 80
210 101 231
4 61 156
149 194 246
42 76 32
253 222 62
164 61 235
147 89 111
139 253 139
127 213 250
140 226 37
219 158 98
145 241 80
62 71 120
45 133 164
160 81 102
105 35 212
177 1 163
102 249 96
158 69 237
75 84 185
41 114 104
40 103 157
195 68 252
169 84 137
117 51 105
69 11 123
64 162 40
70 112 245
32 78 67
7 244 69
207 47 56
104 80 109
6 136 31
125 8 150
248 239 106
155 58 183
253 33 116
14 164 222
219 145 11
219 245 143
221 79 78
141 88 220
142 163 176
10 85 127
46 102 82
167 174 125
23 246 131
137 130 135
129 40 29
198 12 205
169 131 54
149 45 180
36 215 48
57 41 75
87 26 182
66 15 43
9 216 53
251 141 56
64 121 46
9 101 202
74 232 74
68 141 2
133 80 171
133 254 15
107 182 59
130 149 113
106 111 243
246 240 1
244 160 231
206 33 123
221 93 247
172 28 14
177 22 232
98 253 94
94 16 224
223 102 67
136 160 88
128 160 240
11 250 126
161 157 75
115 57 214
74 54 71
157 242 40
86 169 121
155 96 37
99 15 6
77 151 83
127 179 200
239 173 239
184 22 5
50 251 145
66 212 131
66 141 87
224 93 252
82 240 32
223 0 160
106 171 158
219 254 104
222 167 174
195 124 136
82 3 0
134 232 124
145 22 98
136 12 237
32 175 105
218 5 187
246 100 255
94 11 195
147 89 97
8 60 52
17 20 42
160 27 203
222 72 10
168 162 109
251 228 63
2 127 49
247 17 191
187 21 139
124 66 89
183 16 14
186 181 142
212 235 186
77 195 100
43 188 175
75 229 33
227 182 181
203 141 1
4 94 124
164 27 35
107 54 126
208 212 222
21 31 28
239 50 255
116 181 186
92 202 104
131 221 244
208 220 2
216 49 36
40 144 13
12 210 246
125 243 72
199 180 63
173 244 145
46 97 112
199 148 222
176 130 90
100 207 46
56 219 28
44 240 145
61 244 19
23 243 208
13 119 92
173 51 77
83 32 101
203 84 218
173 158 248
39 136 187
61 74 144
129 248 19
216 163 56
214 5 67
89 95 163
69 181 115
244 95 138
236 176 251
47 148 130
97 202 134
226 130 184
218 65 122
97 233 12
229 106 223
19 17 69
152 139 77
205 63 72
252 160 209
130 189 24
184 177 249
252 229 141
232 137 165
155 61 215
73 219 163
134 182 236
219 169 82
132 228 222
103 188 38
23 157 113
90 16 20
112 155 121
18 22 17
10 244 63
179 211 62
34 164 146
108 253 179
199 115 21
122 122 26
31 21 213
94 151 185
38 242 30
42 224 180
159 238 70
68 131 209
95 94 191
191 89 64
182 234 203
170 106 76
193 85 109
229 224 208
143 107 238
223 177 99
248 68 128
9 59 237
176 249 8
217 98 74
235 61 63
149 32 177
75 234 181
236 159 173
47 44 118
154 176 129
105 148 108
218 231 110
171 121 242
140 99 94
247 10 239
110 113 174
105 183 223
238 206 203
196 46 52
47 216 54
106 89 173
37 26 96
74 239 65
229 230 177
173 166 96
154 187 77
74 242 70
225 219 25
54 211 143
188 162 13
37 174 110
113 46 94
201 20 194
118 41 79
205 186 96
205 143 132
244 154 2
202 58 38
96 29 189
186 144 193
126 5 13
143 93 18
33 33 79
227 11 92
172 37 130
168 97 246
192 142 90
41 248 19
18 54 228
85 66 69
252 128 176
82 156 84
19 127 42
35 209 129
168 66 20
15 172 2
215 211 53
225 199 49
50 247 244
160 108 29
234 196 181
132 149 228
58 129 125
203 83 11
70 6 150
30 125 201
11 184 253
235 98 22
115 79 164
164 19 150
235 44 38
21 48 117
28 187 80
236 168 16
11 68 99
154 152 9
7 208 213
47 213 170
150 157 115
160 65 85
209 124 103
187 146 220
86 160 70
73 216 114
93 172 85
245 16 80
136 44 159
102 98 13
65 19 63
226 148 166
149 161 67
72 180 169
124 68 131
105 179 105
220 210 139
190 112 141
158 87 144
125 185 212
53 102 109
85 236 119
229 8 38
115 117 122
121 114 29
219 215 83
186 99 87
9 58 29
191 88 47
162 8 232
209 171 167
18 115 203
228 200 138
152 92 45
110 52 242
234 224 229
212 0 241
149 154 205
63 252 26
3 135 66
53 180 115
170 83 254
227 123 114
147 93 124
40 46 204
64 50 179
129 46 241
202 144 115
79 21 171
102 211 172
111 250 187
127 58 37
107 112 141
57 222 194
243 177 148
236 60 10
73 217 88
123 221 211
236 253 126
113 190 59
111 232 137
51 171 154
149 41 215
141 143 239
220 222 5
9 122 127
34 60 90
68 167 99
251 72 35
44 72 237
39 193 184
160 145 156
3 117 188
75 199 247
113 245 175
155 207 216
81 152 13
169 245 204
180 55 206
246 124 185
179 176 175
156 167 148
197 122 233
100 42 242
249 211 79
83 181 242
231 254 135
194 250 225
134 76 10
18 80 144
120 12 166
209 158 79
239 101 23
43 218 247
132 219 125
137 157 217
134 10 191
233 148 59
43 154 130
69 144 244
98 115 157
83 141 17
24 104 233
12 142 177
187 131 164
180 107 161
237 59 162
97 152 73
43 200 42
172 203 25
240 81 0
42 180 149
64 108 208
74 11 98
26 176 240
194 34 133
113 97 224
56 37 143
42 33 158
228 176 117
115 106 208
66 168 47
161 101 6
29 132 8
83 120 153
155 87 175
9 183 123
131 58 23
156 67 213
160 145 35
39 125 84
190 130 180
194 236 215
188 154 204
249 231 100
91 206 22
77 27 29
30 112 250
126 138 70
11 172 204
102 119 232
219 153 167
73 75 25
151 77 100
28 239 18
196 196 182
16 237 40
121 66 124
53 255 139
191 143 94
60 106 239
19 196 51
48 137 235
155 115 82
224 47 54
247 85 4
229 122 94
100 188 26
133 83 5
205 66 241
83 147 126
222 23 29
165 84 175
200 117 185
166 197 181
194 20 187
34 178 85
193 185 224
24 163 131
187 148 190
60 72 157
96 4 32
50 183 76
227 251 231
220 27 27
178 118 118
19 86 85
56 77 111
64 45 204
171 38 191
181 218 165
227 218 204
10 103 75
184 50 3
192 102 31
37 116 222
152 154 60
187 9 38
97 122 207
113 4 242
205 44 233
172 79 210
245 46 171
82 13 38
60 127 2
108 251 222
133 13 172
208 182 100
187 209 209
9 151 248
125 187 249
202 111 67
190 85 232
54 88 156
36 210 250
54 15 106
223 134 157
22 205 19
19 232 220
145 69 167
20 63 134
102 192 180
109 186 8
106 16 135
203 217 74
74 184 24
215 63 137
0 223 96
30 191 109
221 8 174
55 171 131
44 176 163
86 61 23
70 215 211
119 62 181
11 51 151
242 59 174
108 253 41
171 166 243
145 19 164
223 184 227
154 229 71
180 211 94
157 244 170
81 222 212
182 203 149
105 56 104
104 148 98
136 99 71
44 98 32
251 5 191
242 110 37
46 208 159
230 46 156
27 17 29
65 105 21
60 251 113
92 162 230
193 68 165
208 137 95
211 60 43
158 73 165
182 106 119
243 32 40
219 210 38
137 54 83
248 40 88
255 113 34
169 221 115
226 217 58
20 254 42
41 193 217
213 208 130
228 94 31
183 3 115
191 111 3
102 153 134
105 90 251
172 220 112
107 96 159
219 107 34
45 220 25
3 246 87
33 10 110
248 106 30
107 253 160
187 210 223
200 69 218
157 106 114
104 215 132
179 35 218
32 161 36
165 37 143
127 166 61
22 247 27
219 196 255
141 73 176
198 118 93
159 76 67
133 198 21
210 12 3
91 54 249
246 243 10
156 125 22
162 130 105
73 45 27
66 32 196
42 117 167
15 73 212
232 60 50
146 36 232
234 159 178
142 49 38
114 114 142
42 212 165
120 116 206
35 138 129
203 3 125
51 162 141
237 216 63
204 7 200
47 243 241
175 132 108
108 28 0
56 142 224
144 172 43
66 83 10
89 38 169
254 26 31
176 22 66
128 38 53
221 99 166
138 146 108
133 32 62
46 255 13
239 127 203
139 114 30
149 224 50
154 116 143
13 93 164
241 86 253
0 213 105
134 237 58
110 118 125
128 164 159
94 37 12
226 142 229
97 187 213
12 48 71
180 38 193
136 213 190
162 242 165
38 184 150
48 183 118
245 207 30
187 171 202
90 248 127
50 59 103
171 214 150
213 54 203
76 56 226
7 48 212
150 192 36
148 26 8
194 9 203
205 203 29
139 177 246
82 69 67
101 129 90
204 118 117
215 124 234
95 206 15
132 254 235
57 170 13
160 120 87
255 163 11
149 252 97
209 99 204
223 35 101
149 240 19
153 246 108
104 90 232
119 146 133
25 54 150
34 137 135
189 214 110
8 232 226
23 62 206
209 188 51
59 228 172
21 61 195
170 176 61
93 134 223
161 41 85
62 232 127
74 80 113
93 165 70
97 0 149
109 181 35
181 133 16
44 227 60
104 141 92
8 184 173
169 70 248
242 242 177
32 180 20
236 92 33
241 172 5
49 131 14
120 107 118
214 44 253
209 74 17
185 140 163
254 86 68
152 214 17
210 255 163
176 136 6
206 93 151
165 132 235
54 160 55
38 84 19
105 109 205
116 230 111
126 226 46
153 224 97
45 250 146
202 120 246
116 47 216
56 140 154
4 168 97
23 23 143
160 167 82
86 230 38
220 98 196
135 79 32
101 84 69
109 14 132
109 245 192
197 6 25
84 166 234
129 46 202
100 179 91
128 161 99
18 178 161
8 138 34
23 155 229
90 122 98
197 18 94
136 228 220
216 94 119
92 27 40
237 136 113
83 60 219
31 51 208
248 53 39
248 250 132
177 129 124
32 73 169
108 189 255
220 254 56
113 193 68
32 106 221
69 100 149
46 91 10
36 21 156
52 219 165
219 28 190
114 100 246
19 102 247
85 244 131
230 250 12
180 55 40
48 178 109
115 42 3
238 5 142
247 237 196
40 213 70
98 60 207
123 38 10
114 158 94
20 212 217
52 145 150
228 101 221
109 119 16
41 166 57
81 125 57
47 23 139
147 219 73
9 74 156
217 94 136
39 173 137
131 214 189
197 215 218
26 207 14
99 122 70
255 32 174
190 155 10
152 118 231
51 27 227
37 63 216
253 47 209
94 93 81
182 172 45
98 255 206
59 228 253
36 204 159
90 224 121
63 248 8
244 90 232
16 187 212
0 140 0
142 10 55
159 93 198
201 65 225
40 189 250
211 109 184
247 218 161
187 138 64
176 232 61
119 86 241
147 4 11
111 223 157
119 168 86
24 212 74
199 210 222
145 20 32
173 214 9
146 245 139
184 67 178
224 136 120
197 238 7
127 234 36
95 64 92
153 137 30
114 204 221
106 250 175
187 158 187
128 116 203
172 118 67
240 239 101
200 57 168
235 165 226
23 252 105
167 254 124
238 49 246
230 131 178
193 132 41
195 8 71
101 139 89
14 228 225
88 249 197
70 75 70
207 78 205
107 118 132
16 250 74
57 124 208
217 113 74
183 42 37
9 45 178
30 218 25
58 135 66
120 218 98
65 99 218
213 142 44
84 145 152
216 223 7
22 222 226
238 170 174
3 251 116
133 95 53
102 44 142
188 223 222
222 111 46
59 23 225
43 105 79
104 239 19
200 110 152
63 223 151
126 85 80
197 198 203
140 2 63
237 118 191
36 174 171
188 238 163
101 253 115
181 208 74
118 120 164
249 43 229
154 177 135
20 108 21
213 112 248
200 28 240
237 213 208
37 173 29
112 58 193
114 56 36
180 79 86
94 169 11
14 41 21
195 26 187
89 144 13
25 127 219
57 204 230
148 121 55
135 28 217
200 78 29
160 254 210
120 145 37
85 211 62
71 193 208
111 0 172
15 123 104
94 33 168
2 53 178
76 249 167
107 200 105
170 72 192
122 20 156
203 217 254
135 92 115
180 239 76
131 220 190
171 7 18
189 206 134
54 17 166
127 209 181
103 107 83
107 136 36
125 96 137
150 55 149
41 21 226
189 237 10
206 42 37
114 150 250
17 124 156
72 151 16
148 42 29
170 41 26
50 101 219
107 50 211
218 3 216
167 69 118
86 186 77
96 203 191
20 239 14
228 27 181
108 162 235
38 2 110
206 67 84
237 33 134
97 127 112
186 189 191
253 229 13
21 231 115
124 192 224
229 179 82
194 234 248
213 136 135
255 176 48
37 209 143
86 216 76
85 8 94
157 230 10
138 165 9
186 153 255
83 150 92
47 170 35
97 220 19
125 140 158
81 6 215
92 194 73
77 90 14
98 115 196
62 105 96
231 241 114
210 150 108
136 179 19
21 108 228
123 224 168
42 237 163
234 175 216
74 220 140
192 174 179
74 1 117
223 141 134
30 74 53
99 70 58
10 74 205
186 87 94
121 144 165
44 177 38
30 245 42
108 198 1
247 59 157
197 177 106
36 187 148
138 132 27
21 163 225
84 24 134
234 196 117
237 175 137
216 114 128
201 205 235
171 230 111
159 134 44
72 54 198
85 31 60
254 235 227
169 212 251
61 65 138
112 78 56
18 203 209
13 180 222
247 25 208
40 175 131
142 125 93
35 220 149
248 50 32
204 110 107
115 235 94
48 83 131
29 217 66
167 43 127
91 231 126
10 177 100
193 112 254
139 85 39
118 59 6
235 108 179
179 188 69
99 137 216
96 157 135
175 163 229
53 4 131
39 180 44
135 208 175
237 128 45
90 42 225
95 53 70
94 139 28
209 111 89
22 90 123
202 113 211
10 204 123
107 34 77
54 66 231
135 42 142
183 178 219
223 87 239
42 4 111
20 225 181
35 92 43
95 224 173
236 131 108
111 44 108
31 156 38
178 246 28
30 176 148
75 87 46
84 60 28
88 84 219
157 27 66
129 52 190
189 33 142
241 57 87
22 16 209
243 241 129
133 180 62
234 71 43
247 123 241
3 16 97
210 200 56
71 22 69
91 169 249
49 174 56
138 91 27
79 66 127
20 129 239
60 53 126
114 70 92
114 232 143
45 9 150
182 252 246
250 252 249
60 131 67
233 8 151
164 55 124
232 46 21
218 150 115
172 69 146
4 91 2
190 190 183
91 186 97
33 242 116
180 111 147
18 132 164
4 65 218
140 23 61
214 175 50
128 218 40
93 252 103
86 19 102
227 236 227
119 158 12
56 181 155
244 44 85
108 143 168
11 35 63
51 26 146
36 110 41
183 124 140
92 225 201
122 130 105
151 221 11
107 81 145
65 45 79
181 133 46
66 88 73
192 42 254
44 95 158
247 144 210
44 229 8
239 107 21
157 76 23
80 77 89
131 66 24
249 230 77
130 37 118
168 199 39
24 67 75
17 111 47
243 150 247
173 194 162
171 226 89
171 235 98
90 19 35
42 67 161
199 242 20
101 213 87
37 209 87
170 127 184
51 211 188
71 10 184
178 205 92
25 156 126
0 211 155
202 125 126
103 90 81
85 124 135
244 205 113
99 138 26
179 96 27
247 122 80
197 108 238
170 156 162
90 171 237
152 177 101
50 165 138
98 97 239
170 227 63
185 25 44
201 8 152
54 195 198
244 103 251
177 67 131
134 201 170
52 197 3
227 199 148
148 188 81
175 171 165
21 133 251
203 6 111
177 240 213
171 148 74
37 147 232
67 56 116
164 19 179
231 128 244
2 156 155
167 98 79
2 114 180
56 32 196
40 233 242
127 81 130
254 226 102
29 109 43
132 96 218
206 162 170
75 31 94
127 91 61
5 252 237
64 190 102
79 115 51
205 32 44
54 145 152
41 213 166
88 118 134
231 138 94
187 205 43
214 191 91
203 184 38
211 157 96
72 61 164
252 187 79
230 105 42
40 65 121
245 18 1
31 179 228
173 74 95
21 69 23
150 199 239
158 247 194
128 94 249
54 10 252
47 209 129
125 141 144
240 157 98
23 58 222
164 223 53
189 96 172
245 170 143
206 29 140
15 21 223
228 161 141
251 241 171
202 191 245
102 26 116
131 83 145
246 177 26
24 209 22
6 139 247
12 80 135
24 191 231
197 90 68
166 229 28
101 119 45
53 59 148
146 84 137
104 37 195
201 112 59
7 255 145
76 91 182
2 225 83
83 135 172
168 39 86
53 175 161
114 45 73
173 137 174
147 121 75
46 138 111
246 193 102
28 244 235
221 198 89
202 55 60
83 181 184
39 0 167
215 123 128
15 193 216
75 92 44
41 158 105
69 248 26
149 145 178
203 117 24
217 116 44
79 1 78
97 97 172
96 144 253
32 236 238
151 52 67
57 92 101
76 113 155
201 96 15
73 223 136
120 244 252
219 184 129
74 218 218
179 48 18
111 75 5
224 78 178
111 212 162
250 231 127
182 185 154
53 68 28
128 165 189
163 245 17
43 151 148
32 111 169
126 67 35
221 65 73
126 104 95
199 48 101
153 141 27
249 176 88
193 114 117
131 60 172
137 234 88
147 237 136
109 14 30
33 226 51
245 110 225
25 226 95
47 104 47
8 155 151
198 239 59
232 64 231
123 127 25
84 152 69
55 70 193
94 184 203
57 60 112
12 60 82
21 195 139
200 161 12
123 191 181
0 6 252
164 16 185
22 49 81
28 64 215
54 216 32
196 9 227
130 83 179
243 103 144
90 119 163
82 105 249
108 49 230
253 95 201
254 60 100
14 169 150
203 117 48
85 21 131
241 158 210
150 223 137
191 34 9
82 130 55
204 220 206
135 16 129
38 7 215
61 230 182
113 114 139
62 101 166
56 238 101
169 224 188
204 91 202
21 30 94
249 225 83
99 181 177
210 236 12
30 2 145
159 89 195
52 24 114
139 252 170
77 205 3
223 134 216
241 49 10
13 66 115
181 235 1
86 99 97
177 118 135
154 84 6
239 93 147
68 2 42
5 76 77
22 7 42
111 118 114
67 243 243
243 76 190
79 230 39
183 126 191
118 0 89
237 226 204
19 42 206
213 231 143
193 32 122
115 174 158
139 71 78
107 169 65
74 43 80
99 57 20
85 155 101
236 111 63
238 224 23
115 218 98
139 145 136
159 123 147
42 253 0
79 199 206
168 49 28
121 203 34
205 255 11
130 244 78
252 161 184
160 193 51
87 238 244
190 125 65
100 77 27
230 133 123
167 230 95
128 91 142
53 200 225
106 206 184
236 92 45
54 137 15
3 7 242
165 13 190
47 240 48
244 80 199
195 61 122
222 79 187
58 29 31
3 42 67
135 199 168
244 190 205
135 206 118
31 201 249
114 62 22
41 115 239
116 19 188
230 92 142
47 147 121
52 13 165
255 122 51
47 219 247
83 93 112
13 161 197
147 188 177
212 80 77
226 3 126
15 48 84
150 118 1
215 207 56
151 101 229
13 242 19
35 23 38
50 12 52
243 22 0
120 229 199
239 178 13
238 231 142
121 109 163
2 207 136
237 244 202
154 170 171
199 33 245
215 144 124
155 68 215
28 139 26
86 138 117
231 90 196
144 80 74
170 22 89
63 194 42
42 154 89
202 200 172
109 24 203
217 118 214
240 178 125
9 137 229
66 113 9
79 142 248
250 137 46
31 120 110
177 231 188
198 99 34
80 168 232
61 61 208
183 57 14
222 137 147
196 8 160
246 178 240
111 172 107
156 211 108
140 118 121
58 206 234
169 141 112
156 199 113
37 67 62
217 71 114
0 55 240
3 125 248
188 41 85
94 30 28
160 63 3
113 241 146
195 158 150
4 250 116
38 205 106
89 210 191
49 5 80
144 85 144
190 139 80
102 56 216
102 110 133
40 52 113
146 28 237
36 179 99
35 0 24
133 241 16
78 227 21
66 223 17
169 104 50
103 198 90
129 251 78
231 192 7
11 102 168
226 109 179
119 210 43
246 183 121
58 204 119
65 112 153
117 207 197
202 119 235
28 70 106
96 11 211
154 250 202
13 141 24
31 180 132
45 242 114
64 211 134
129 71 20
240 11 87
151 169 86
44 33 171
137 128 45
15 243 64
66 26 105
95 16 199
31 120 15
251 106 138
158 11 93
174 117 208
247 223 224
14 249 16
50 123 96
207 178 182
114 252 19
29 173 249
160 253 103
36 70 98
59 108 154
137 43 109
27 130 195
105 5 45
203 214 150
11 5 154
206 147 153
138 1 31
36 215 80
155 187 181
20 11 201
138 26 102
208 215 115
47 102 147
150 52 170
153 123 214
160 233 123
224 111 217
24 2 99
163 98 80
168 76 78
176 120 144
46 33 246
123 214 252
77 147 222
122 122 28
59 253 44
1 56 210
246 29 132
149 169 167
41 169 74
189 149 1
165 101 255
31 53 105
50 14 143
66 12 210
154 118 114
235 21 90
133 247 145
211 145 172
41 167 51
221 225 242
100 101 131
38 87 212
222 184 156
225 20 222
60 173 6
174 219 244
110 115 112
48 184 65
34 191 228
180 226 1
19 160 227
10 35 125
125 48 100
129 7 185
98 123 64
218 255 99
111 87 84
213 105 215
232 157 137
14 61 174
81 78 161
130 195 63
110 184 94
195 129 222
213 156 186
209 232 25
26 84 252
105 118 129
24 25 255
91 185 6
45 157 54
222 227 252
213 190 190
201 210 198
90 53 81
113 61 9
90 161 163
240 137 73
204 176 119
50 0 242
216 230 235
218 184 63
163 75 24
189 134 197
189 202 39
152 233 70
116 8 132
177 89 13
233 33 205
201 214 245
1 72 184
233 242 186
65 196 77
213 105 236
182 12 23
122 74 173
22 245 220
244 62 84
83 166 74
236 186 250
46 37 103
88 181 246
41 86 30
19 5 121
168 45 156
22 64 71
84 193 158
177 209 150
162 225 93
50 26 25
116 244 239
36 55 162
195 174 98
39 93 62
177 110 69
169 67 37
128 204 182
250 95 97
104 97 253
211 151 16
253 27 2
150 252 3
70 3 147
95 241 14
130 112 26
18 39 17
69 231 118
104 167 58
38 240 79
64 236 188
23 84 161
35 119 180
158 10 246
157 88 125
96 220 84
129 190 104
172 17 213
117 22 138
185 63 204
141 225 208
244 51 250
226 92 147
17 94 233
126 99 36
195 5 96
120 235 41
146 169 147
62 154 54
200 88 129
134 124 95
134 168 216
136 216 36
202 159 93
242 37 79
123 194 76
187 186 178
194 201 86
172 105 204
69 80 138
50 122 151
39 2 8
186 129 242
72 209 72
224 227 42
180 85 45
28 177 33
101 76 203
199 77 47
205 175 246
81 43 182
143 201 221
198 66 178
115 88 232
8 85 179
95 224 5
43 118 250
49 242 140
51 101 225
252 21 203
177 238 197
131 215 161
124 12 190
38 92 68
139 254 217
29 233 54
13 228 194
139 34 109
2 124 30
192 233 5
115 86 27
233 170 154
189 229 201
233 58 49
87 120 250
64 87 88
190 194 179
228 24 176
230 150 4
61 127 65
245 53 56
208 249 77
126 101 207
15 228 152
225 104 12
253 144 140
159 240 48
104 222 40
94 110 155
107 91 48
5 113 11
18 253 52
201 179 143
127 16 138
43 226 160
102 83 106
73 201 135
49 179 163
216 214 22
50 77 74
33 244 69
174 99 168
216 205 24
99 5 183
227 35 23
95 235 194
57 247 90
45 144 103
65 155 157
4 141 17
151 97 92
67 216 149
59 21 164
246 207 211
180 163 21
204 187 190
151 243 232
12 14 209
177 145 64
113 179 189
168 153 24
136 88 182
74 209 121
19 143 209
54 207 4
89 80 35
23 182 131
152 58 157
206 194 249
131 12 80
30 117 203
75 254 202
104 62 248
104 228 128
84 100 173
118 175 61
104 81 75
227 122 15
118 121 80
56 199 230
237 177 70
145 158 221
206 109 230
33 61 152
162 23 237
48 126 216
35 27 241
94 154 47
153 173 243
235 114 25
41 236 189
115 232 116
111 97 126
158 42 7
187 96 192
215 152 137
234 148 30
20 6 46
56 4 173
234 202 142
202 200 217
16 51 98
17 199 199
11 231 230
108 219 171
0 129 146
126 154 138
242 101 154
68 204 175
154 239 64
196 197 177
254 47 44
142 227 8
137 255 11
96 172 59
91 29 157
204 164 106
202 231 149
238 9 225
120 187 23
59 215 57
236 100 236
1 152 204
113 224 55
172 170 160
71 111 139
113 79 184
106 92 205
62 220 26
210 35 204
158 10 214
220 154 197
136 12 118
218 7 62
58 33 119
226 83 146
149 11 4
68 150 197
102 243 234
187 79 160
101 203 76
42 75 171
169 222 60
147 243 175
81 241 104
69 179 168
224 143 4
205 167 28
1 64 126
73 248 63
174 10 133
78 145 206
78 27 177
30 167 48
164 217 3
31 132 107
187 16 156
118 49 240
120 222 250
147 202 235
173 52 51
17 31 250
148 119 85
41 181 80
0 251 226
253 1 111
89 48 140
25 201 178
22 73 144
22 150 90
235 91 141
213 76 113
209 120 29
117 104 115
127 65 189
11 239 233
81 75 112
59 118 97
239 70 162
191 237 50
231 6 144
31 130 251
95 177 13
37 141 172
119 4 239
53 207 95
25 165 246
252 170 76
76 14 133
228 3 124
129 158 239
249 197 57
95 201 131
77 67 56
191 115 202
178 162 52
97 5 245
34 178 2
129 254 93
152 117 62
147 13 237
71 189 44
78 182 6
57 51 168
218 98 40
234 216 251
148 14 239
148 182 220
211 209 40
216 31 180
133 181 173
54 31 14
197 152 242
94 39 136
130 8 253
205 79 23
58 37 38
182 212 109
106 61 86
149 26 8
57 223 167
189 201 63
20 251 94
139 42 75
70 57 123
172 197 23
173 35 134
84 105 5
133 56 188
67 217 57
241 114 246
74 146 181
223 44 132
228 103 49
151 93 161
250 168 92
83 162 81
198 9 202
210 27 72
206 253 232
85 98 38
69 11 176
91 245 142
157 176 26
66 171 168
204 40 204
174 43 190
149 227 84
29 111 237
69 234 69
179 47 158
154 21 20
0 116 103
246 78 191
51 140 221
210 132 121
62 229 55
42 115 31
105 115 232
208 22 108
217 18 183
90 173 203
20 46 232
116 122 168
57 201 75
163 128 28
60 193 134
243 16 232
147 20 112
48 232 231
150 150 247
154 216 209
24 235 17
163 237 215
53 157 146
201 219 121
180 234 173
134 230 216
238 14 37
155 253 14
96 204 158
133 200 87
103 96 218
214 42 122
223 171 153
162 143 134
102 30 108
122 175 234
26 222 201
244 129 196
72 113 170
39 69 75
38 26 228
201 93 81
61 3 138
233 135 159
2 54 122
251 251 226
186 29 74
197 190 83
78 202 177
60 96 173
170 173 145
207 16 35
226 129 86
217 189 210
38 29 33
211 24 218
54 198 98
249 157 88
175 36 101
219 250 81
229 161 44
48 207 150
27 206 237
216 213 54
249 247 112
207 61 108
187 226 36
86 84 248
231 236 189
72 215 228
197 92 41
139 41 134
247 3 65
58 160 29
32 108 154
135 247 167
4 31 168
211 108 103
106 137 24
217 212 69
63 80 153
214 41 48
75 239 177
232 11 23
200 180 192
182 241 70
182 235 181
65 253 216
159 117 154
191 250 66
170 109 142
252 197 210
166 10 91
44 248 186
64 93 207
252 62 166
230 186 69
76 197 192
129 220 107
1 182 9
130 161 95
117 180 234
34 150 202
68 181 17
58 147 175
230 55 139
24 121 175
127 57 20
173 54 114
163 178 140
36 62 248
206 106 53
14 161 34
221 179 155
2 130 87
195 171 200
255 140 47
89 164 100
17 211 104
108 84 81
123 143 163
79 64 25
3 72 102
177 234 115
2 237 14
159 3 44
242 141 48
119 9 177
10 154 191
241 111 2
214 213 140
70 253 82
197 126 253
201 66 195
39 30 185
75 202 98
98 128 165
161 117 132
158 51 250
19 207 0
207 43 220
165 11 84
17 104 117
80 32 191
251 217 154
30 74 88
157 108 7
190 89 130
106 176 41
3 222 104
74 18 88
0 156 185
174 51 125
214 234 170
30 142 122
178 252 122
186 174 18
13 32 168
133 104 200
72 230 47
143 3 180
120 0 223
200 191 115
16 229 58
172 65 72
189 148 100
173 36 6
65 87 122
240 75 144
232 194 49
144 47 239
187 204 29
180 229 60
119 248 246
252 233 160
228 11 122
2 132 41
1 157 208
157 0 26
3 79 95
190 208 180
180 240 150
93 152 175
79 177 182
190 92 87
119 191 42
13 32 184
154 206 117
54 105 240
79 149 2
80 108 79
217 227 130
222 248 139
114 217 148
213 37 68
31 70 172
154 169 11
21 213 154
54 106 182
216 250 33
164 153 227
236 214 1
28 120 140
239 100 68
90 54 191
131 64 16
245 212 200
142 3 237
157 41 80
122 129 90
77 224 175
154 66 132
25 129 176
126 200 108
74 70 7
79 114 5
149 173 18
134 133 191
249 204 107
153 182 154
54 1 211
223 27 28
146 19 62
242 238 20
216 253 36
235 226 98
239 37 4
138 235 132
16 39 86
62 227 164
176 118 114
74 41 183
6 245 118
254 17 248
83 202 255
133 110 215
110 63 211
138 2 177
111 245 213
201 179 21
239 128 123
152 54 252
49 104 48
92 198 58
126 243 77
22 204 90
212 92 173
228 84 146
53 114 103
76 149 176
216 46 50
71 111 195
218 151 214
250 215 243
220 148 88
8 212 21
123 130 158
218 82 69
147 217 243
29 59 91
210 201 223
71 95 204
12 168 69
232 152 101
232 139 175
167 241 7
138 150 186
193 58 143
102 23 48
114 248 134
206 164 140
246 10 10
0 32 78
33 35 124
229 108 126
119 134 173
213 29 231
132 15 59
148 67 196
2 174 109
222 99 224
53 9 185
171 14 210
117 47 172
128 110 194
34 207 96
183 82 47
187 180 238
104 244 122
28 130 1
217 241 25
227 225 219
250 24 163
32 113 174
114 104 229
80 100 235
118 11 136
244 179 127
0 16 64
57 41 33
212 166 4
101 235 145
93 218 79
105 69 33
229 194 52
127 229 118
104 223 204
206 92 207
88 191 107
92 225 234
187 57 197
186 247 81
26 225 83
119 164 240
17 90 200
144 5 164
54 156 156
91 160 238
50 85 103
49 94 101
197 216 32
96 147 167
163 204 166
85 163 239
254 241 89
170 218 35
187 179 192
200 76 131
167 179 235
134 233 162
210 11 99
198 170 234
214 25 239
135 115 58
161 67 160
133 131 240
3 62 0
249 130 232
60 26 196
8 202 29
140 83 46
124 8 3
206 30 86
171 43 231
19 152 63
191 50 215
133 56 200
10 202 161
44 230 69
151 27 214
185 42 233
221 14 29
31 68 204
192 196 92
241 104 95
115 199 217
165 31 75
126 110 135
239 107 160
202 169 216
38 85 13
200 238 232
83 165 189
163 225 166
241 51 67
156 88 87
54 241 88
234 180 204
194 114 139
174 11 62
123 81 253
184 36 204
12 50 182
208 22 91
55 36 155
164 43 35
153 254 203
76 98 148
84 178 20
11 71 94
231 127 229
234 25 172
247 171 34
210 220 40
49 160 76
217 226 0
130 250 44
193 228 118
93 17 78
212 228 47
3 187 18
125 54 173
82 211 90
212 86 121
237 42 215
204 2 155
23 45 141
58 61 116
46 8 96
106 84 77
46 195 74
87 49 195
170 17 252
223 46 86
87 241 35
29 5 200
206 181 46
249 251 208
165 219 221
99 135 171
12 221 65
116 3 145
228 206 116
135 146 28
178 134 47
216 233 202
152 157 232
157 165 149
76 127 222
220 222 208
156 190 150
102 112 193
8 38 34
249 218 209
117 250 102
125 109 27
107 33 212
168 74 132
18 140 127
75 173 212
146 139 184
30 98 240
39 56 186
146 175 140
89 74 88
59 15 167
98 179 77
125 118 30
140 176 38
106 125 34
57 93 26
75 228 197
136 79 71
17 35 62
204 155 112
154 232 117
197 71 253
243 8 103
32 182 16
89 186 58
192 83 150
249 162 64
57 106 80
94 29 175
127 55 181
215 178 204
127 112 254
142 192 37
254 237 219
192 231 103
98 200 122
40 217 71
154 214 212
195 14 198
31 46 29
248 153 85
2 211 190
58 70 78
37 168 54
53 113 252
230 157 103
64 84 97
197 208 209
133 194 40
147 121 39
37 68 125
48 105 91
10 3 73
207 217 59
173 210 141
22 197 229
246 151 192
55 21 153
244 11 250
143 120 107
56 15 25
122 109 16
116 130 130
159 161 164
20 63 144
185 174 104
238 146 33
58 30 8
84 111 128
154 31 167
81 130 213
97 31 176
240 205 241
162 5 59
70 65 80
99 195 214
207 79 78
45 152 204
4 163 195
80 23 166
21 232 122
142 19 211
175 236 77
161 157 47
223 221 76
117 226 161
194 32 46
34 29 93
115 217 50
33 168 92
254 27 250
73 201 192
251 33 90
7 4 184
61 84 178
163 252 21
241 34 214
82 217 247
178 186 183
140 219 199
95 247 205
171 66 30
194 112 97
0 30 134
28 167 39
17 121 19
163 110 149
239 93 202
215 31 143
73 200 5
11 37 165
83 1 165
18 217 240
81 94 207
117 230 37
43 130 140
192 16 78
35 36 222
238 213 23
203 131 227
181 154 184
175 111 121
184 31 103
20 47 65
122 131 166
23 152 152
142 102 88
121 86 141
214 99 156
250 175 154
201 34 213
185 211 109
155 111 198
106 42 97
247 163 181
200 152 75
179 111 201
55 132 164
154 144 124
222 136 227
166 46 5
233 25 70
169 92 174
27 14 8
138 175 95
243 42 103
138 37 139
77 130 126
107 30 25
31 99 237
156 25 108
28 109 121
81 174 5
213 95 143
236 100 35
137 185 6
149 13 117
138 218 173
120 78 211
8 135 114
158 23 180
237 13 19
161 172 88
92 192 200
77 196 245
223 55 146
196 52 35
50 201 79
55 206 140
80 208 102
78 226 111
213 155 99
60 40 214
135 147 9
226 133 204
101 37 25
133 228 252
191 160 74
93 222 240
202 246 175
62 139 73
176 84 40
67 78 250
79 120 255
193 25 137
46 65 243
191 177 215
126 202 167
157 232 204
142 48 125
112 130 75
69 74 204
66 166 54
146 207 28
159 225 3
237 68 190
19 243 85
164 77 213
132 185 242
247 222 57
0 118 46
154 99 140
156 229 215
70 206 242
126 243 79
187 137 235
17 233 176
131 178 181
170 74 249
111 209 7
252 215 4
77 216 107
197 219 136
73 236 110
72 227 34
250 27 85
43 161 201
92 138 182
222 81 245
212 233 61
26 71 156
106 184 161
174 130 75
93 209 38
72 108 11
36 58 53
192 255 7
91 0 34
80 15 44
12 5 146
49 62 175
238 29 210
236 86 204
108 237 90
115 52 165
236 103 169
113 213 176
25 83 238
68 155 148
177 140 167
249 215 115
230 56 111
42 221 115
182 200 84
238 129 238
33 175 235
210 172 134
117 123 29
137 71 128
173 122 116
21 143 53
192 73 167
72 163 198
140 104 35
210 211 129
87 135 115
157 29 157
227 29 34
143 176 192
42 135 138
72 106 200
43 172 217
183 199 135
198 211 244
255 34 209
225 10 251
77 254 240
136 62 37
156 0 165
73 238 164
80 30 62
245 136 128
97 240 225
205 198 54
178 90 161
97 154 59
94 23 228
138 99 212
48 87 124
51 200 139
98 208 188
84 35 247
252 239 6
129 135 227
242 0 103
33 175 15
163 241 110
194 161 12
176 36 180
227 108 223
213 80 63
33 183 108
244 237 58
96 139 18
249 159 79
64 118 15
80 159 194
166 234 161
74 64 229
93 0 28
197 168 140
18 76 198
111 34 59
146 24 40
116 77 200
81 77 113
10 211 72
173 162 244
222 238 14
20 84 55
182 245 154
197 86 165
153 120 241
62 235 82
39 14 70
198 205 150
87 133 157
184 126 86
105 82 62
61 65 73
226 21 109
183 102 74
223 137 253
235 206 184
37 107 118
161 1 157
182 232 107
0 255 142
126 186 207
242 222 9
60 6 183
106 48 122
62 63 51
210 185 19
66 67 151
23 174 254
69 120 237
14 34 70
211 30 175
59 159 149
174 137 220
110 54 72
33 54 137
196 65 34
41 170 226
175 119 64
229 189 75
25 244 59
14 112 193
20 234 142
20 39 118
156 82 108
95 187 157
89 251 248
206 207 241
236 239 167
97 7 245
225 200 183
44 60 195
113 45 88
81 111 170
33 71 219
63 80 84
219 75 113
83 92 51
54 173 241
143 20 213
206 175 129
134 77 240
242 37 133
182 212 163
247 129 183
243 5 97
57 213 175
174 33 186
1 127 105
51 129 235
196 73 233
231 162 154
98 164 216
147 157 234
176 174 180
109 2 112
149 192 5
13 228 140
218 164 66
227 139 169
161 49 44
45 100 34
34 153 52
238 141 19
224 133 233
32 229 150
103 83 196
98 39 196
79 160 143
148 110 211
248 116 184
225 203 74
71 119 167
211 88 204
237 221 210
87 190 171
83 243 95
32 130 3
42 76 242
37 170 155
184 137 176
196 226 195
183 251 225
105 209 62
103 227 181
176 45 80
233 72 205
56 41 47
74 166 16
109 130 209
219 219 101
116 189 1
29 254 50
148 27 240
227 108 169
72 92 56
27 36 56
48 221 21
208 66 141
199 250 202
112 244 141
73 236 197
54 18 230
78 192 16
35 209 135
195 220 225
41 39 46
95 150 51
186 143 49
87 97 246
171 180 81
170 76 228
66 211 121
36 112 193
55 90 55
53 58 85
169 128 29
183 25 198
60 45 224
190 129 69
95 18 165
105 167 150
180 62 255
154 153 47
124 1 151
181 254 49
137 172 45
243 109 56
63 52 68
25 45 116
191 250 16
49 140 13
103 239 241
210 63 85
208 123 162
110 72 87
69 247 208
167 222 52
10 30 48
155 201 198
73 215 122
137 249 138
230 124 255
137 87 77
223 62 100
241 243 190
79 247 154
205 168 26
115 49 199
77 199 234
251 231 231
190 196 132
28 1 209
96 11 173
169 145 28
26 56 230
197 64 76
240 149 190
146 123 247
33 230 23
150 160 38
251 164 233
107 233 164
228 242 188
21 47 121
66 85 8
39 147 149
216 2 237
11 76 174
10 72 158
179 137 109
220 10 245
61 45 210
99 12 131
13 123 105
133 202 37
60 127 150
202 21 85
23 38 48
55 219 162
249 128 108
53 236 114
241 120 61
24 117 164
162 226 111
211 234 149
62 191 157
48 39 74
154 202 215
37 248 21
77 102 38
242 185 58
187 221 146
66 102 248
15 62 133
78 248 146
110 237 98
38 51 49
134 19 57
146 211 59
160 45 12
97 127 184
250 94 44
159 25 10
155 36 176
89 218 201
129 224 186
163 177 24
46 170 153
64 54 222
99 28 217
170 158 124
176 240 85
56 127 185
82 128 20
205 2 233
107 141 171
212 245 191
45 43 108
21 77 43
204 160 150
124 253 172
167 186 198
151 79 181
176 167 226
31 168 75
155 18 166
183 231 172
190 51 73
197 218 202
134 233 181
39 251 54
191 46 191
196 186 123
97 120 69
144 44 136
249 161 157
148 177 41
103 178 165
22 54 50
246 195 47
109 166 45
41 200 51
211 118 204
245 137 10
95 52 201
70 17 2
53 251 87
191 216 191
210 240 31
30 237 202
46 144 90
145 164 112
237 170 8
106 156 99
74 199 255
106 208 107
162 186 9
102 123 179
187 7 163
73 141 24
43 151 131
136 27 236
181 95 200
243 154 124
62 152 162
95 67 5
222 3 254
54 116 79
98 190 33
119 15 197
167 38 181
238 14 80
169 35 82
239 164 119
196 97 254
81 232 128
165 93 163
176 128 141
13 36 67
28 148 218
164 61 38
24 65 179
48 201 163
223 22 69
10 116 200
175 25 206
146 89 169
68 122 59
213 39 132
88 7 40
230 229 126
18 189 117
47 129 214
94 59 244
32 188 89
123 198 215
176 194 165
149 143 129
133 189 4
49 51 209
1 4 145
96 133 44
165 158 91
194 141 116
206 171 195
234 4 1
211 138 159
149 77 74
87 139 227
147 207 171
253 167 169
28 158 95
35 77 161
248 63 254
28 211 176
126 94 163
233 150 242
102 74 245
204 80 168
35 174 45
153 144 138
220 153 145
207 205 29
30 118 211
70 117 217
197 101 87
11 101 89
122 61 28
190 252 102
153 205 84
255 218 249
179 203 106
112 68 211
106 5 110
2 128 127
155 57 119
83 22 42
70 105 61
13 32 80
121 6 75
222 134 87
117 240 56
182 108 129
129 200 227
245 121 229
4 186 189
142 25 26
147 47 128
27 6 242
108 83 227
33 140 7
14 210 104
73 141 31
148 73 243
73 103 18
0 172 100
202 77 245
131 38 230
133 65 140
37 88 128
235 14 56
248 117 63
102 173 78
199 109 95
114 107 96
193 38 46
144 228 121
242 67 147
14 23 251
54 229 186
73 89 222
173 42 145
146 238 10
168 220 169
167 39 238
52 99 29
165 35 225
62 91 132
160 172 36
226 73 173
149 61 133
222 37 237
85 233 13
211 35 212
44 219 173
228 74 82
123 25 197
20 233 187
210 143 125
38 154 154
38 153 90
139 127 143
148 117 195
154 103 151
229 226 218
179 230 28
238 170 166
162 79 150
232 34 127
67 152 248
96 58 34
113 210 194
249 153 58
103 36 176
107 109 27
183 30 230
254 78 118
233 84 58
251 210 182
83 252 197
24 83 167
44 50 167
160 47 215
48 41 223
94 109 178
184 223 158
175 224 198
50 86 159
39 22 0
25 88 29
239 242 54
3 1 243
247 5 113
162 172 230
143 112 154
99 71 71
144 62 158
31 140 104
100 213 17
215 182 23
22 18 19
102 18 129
249 170 131
236 204 104
51 203 108
14 150 95
105 238 13
178 34 159
37 180 129
98 119 138
156 250 136
60 199 229
155 154 202
182 194 97
118 34 27
2 240 36
104 196 205
149 198 16
197 190 52
27 243 205
192 185 153
255 10 74
76 245 123
121 50 103
37 17 133
141 72 150
68 7 49
4 5 242
145 130 147
45 202 34
35 102 90
127 151 25
119 200 150
167 106 213
69 160 92
174 20 154
68 61 117
147 201 24
15 76 68
140 236 26
112 195 92
123 151 222
153 60 93
192 60 17
49 49 193
90 232 92
61 203 31
184 87 93
184 117 114
124 148 178
233 99 174
232 108 221
18 158 202
109 176 18
31 66 53
106 194 78
131 94 55
9 182 89
58 246 141
170 220 215
204 73 129
57 187 33
88 209 80
12 245 246
25 194 208
80 121 243
42 160 129
112 238 114
6 238 49
121 223 197
150 98 132
248 180 90
175 156 35
212 225 104
121 76 171
100 50 60
75 186 228
99 111 83
206 247 203
238 187 20
23 249 252
115 22 167
98 253 171
183 139 70
69 31 172
125 111 123
241 173 115
136 194 83
239 168 39
12 23 180
69 139 243
166 33 153
237 45 0
162 220 87
96 96 163
62 49 13
212 204 196
93 130 67
78 58 128
209 71 71
81 123 190
122 237 194
198 74 89
243 159 230
92 83 222
81 68 245
207 37 206
151 196 192
150 115 246
9 178 85
252 61 48
56 205 218
70 43 156
208 106 87
19 150 39
122 3 102
147 121 148
61 154 150
162 20 182
108 127 199
122 243 226
126 28 74
123 114 60
96 25 77
86 165 14
40 239 163
188 18 235
185 220 0
171 252 31
12 149 173
154 169 38
191 80 42
58 165 234
28 19 217
192 219 78
63 15 245
246 175 59
168 240 65
227 101 187
35 222 59
196 137 143
43 129 193
195 185 2
186 31 152
183 111 223
49 173 148
229 224 84
111 25 219
31 106 25
255 86 5
102 132 220
38 194 44
206 8 232
62 11 94
26 80 180
32 246 95
82 40 183
251 211 232
66 211 245
209 120 78
176 121 174
97 151 54
78 81 82
64 229 36
168 147 177
3 193 7
122 188 93
243 185 229
120 134 237
80 227 102
47 198 228
62 86 244
183 46 192
171 76 12
163 34 150
12 232 122
62 81 2
227 124 101
108 48 240
63 247 56
92 140 203
174 131 85
211 3 189
74 93 186
115 145 39
10 20 21
169 98 124
64 2 111
85 183 46
111 75 247
74 64 139
249 150 146
209 134 32
53 138 249
99 249 205
6 100 101
249 227 66
0 247 247
152 207 92
127 87 89
14 80 184
173 128 14
39 116 193
139 126 91
231 64 147
111 112 204
236 216 80
162 213 102
249 88 103
255 161 251
122 237 97
195 131 44
213 3 129
13 208 178
24 167 215
227 108 207
220 229 53
252 201 220
229 218 115
141 30 9
155 191 246
158 99 179
218 73 235
222 222 138
254 37 237
14 57 135
95 44 22
25 197 111
97 192 9
136 74 13
130 75 183
21 29 183
72 194 85
149 151 191
162 45 21
177 140 144
208 244 123
81 168 118
33 162 75
107 160 18
77 118 13
136 1 37
37 171 155
188 152 145
104 196 75
201 76 185
51 171 129
62 6 214
35 203 232
47 1 156
136 148 107
80 209 192
14 173 194
202 146 163
160 3 96
77 214 95
21 48 221
243 108 56
217 253 91
227 102 200
240 54 98
93 101 181
35 87 81
141 226 60
62 77 245
239 229 140
190 136 178
96 18 182
173 171 133
131 199 148
91 233 169
182 41 27
203 186 246
45 52 97
101 61 125
77 114 131
175 230 197
52 105 57
79 175 110
129 98 101
46 137 8
169 216 192
91 158 127
194 246 245
52 213 25
173 169 184
38 203 42
156 179 227
187 201 107
33 29 58
108 66 190
134 144 199
211 149 205
39 76 18
79 6 39
119 80 42
162 163 75
111 104 151
85 213 214
185 149 153
163 215 33
137 200 253
114 237 5
4 207 161
206 148 23
87 186 12
196 153 46
108 238 105
97 23 170
49 152 48
217 152 171
84 109 109
9 9 174
43 95 156
166 24 112
85 44 199
44 51 107
147 186 165
55 168 208
183 24 71
196 183 138
29 216 248
232 41 109
28 7 245
17 81 147
49 48 97
22 81 7
205 159 125
186 1 118
180 41 250
205 168 169
96 215 40
122 176 133
144 48 154
135 253 101
245 116 53
187 218 182
175 67 1
29 5 145
210 76 164
143 158 7
15 76 90
190 41 125
177 232 215
142 243 101
132 15 198
158 168 37
208 219 185
170 91 228
228 23 156
124 128 210
160 55 30
248 169 169
134 4 124
136 158 228
229 137 72
179 224 203
208 78 199
153 82 201
183 6 23
104 136 75
177 99 98
232 129 86
60 193 162
22 204 200
243 64 133
171 57 159
12 67 89
161 0 107
15 31 204
132 239 160
130 103 39
219 174 168
254 149 164
190 70 209
109 97 110
178 165 58
52 0 211
210 156 72
231 180 3
22 247 93
181 249 141
242 173 97
140 164 116
139 0 5
130 182 253
88 163 117
166 141 42
216 17 94
196 72 254
151 71 220
99 74 111
176 38 181
69 180 46
226 199 233
53 49 130
165 253 70
203 4 171
75 52 114
96 227 155
187 11 162
63 246 181
177 128 250
91 139 27
200 35 153
201 50 114
167 213 118
136 109 118
117 45 183
118 149 242
143 198 131
246 211 62
11 132 190
217 54 176
152 169 49
11 178 175
184 2 95
153 251 66
18 95 188
178 92 236
213 225 141
22 107 50
221 35 87
132 112 190
52 103 67
220 146 116
229 70 148
131 115 247
109 55 185
135 218 164
184 165 120
6 77 144
170 218 205
146 196 122
233 67 92
214 246 228
113 107 100
13 202 79
208 150 246
180 146 255
8 188 187
75 174 213
190 123 154
187 83 124
176 166 166
160 16 107
119 160 115
57 168 16
240 177 150
94 117 104
151 40 197
83 89 64
177 43 153
31 7 121
54 65 38
79 2 119
193 156 225
30 227 227
14 201 92
219 254 134
63 67 151
121 234 26
158 1 12
145 22 37
15 61 147
172 47 143
28 114 101
245 109 73
202 238 173
170 159 75
44 132 60
108 159 97
11 127 113
104 252 118
117 111 164
222 193 73
60 192 112
70 240 20
145 16 123
99 134 77
42 216 99
54 119 251
110 219 99
123 138 57
223 152 115
29 125 13
3 123 9
239 147 207
132 248 110
159 209 197
190 124 92
61 91 197
168 59 212
221 81 10
155 57 151
160 212 29
94 16 18
127 99 84
51 164 126
148 163 114
16 168 180
231 57 62
251 224 153
14 226 18
74 103 164
163 8 94
224 249 124
222 28 212
154 71 105
199 248 63
11 106 250
162 25 242
65 135 166
248 233 226
186 33 82
119 88 27
8 196 190
112 74 184
12 91 15
198 126 124
245 31 199
136 91 189
250 88 89
137 107 51
249 30 115
3 164 184
42 243 177
125 251 185
161 50 223
177 142 82
159 214 185
174 83 209
26 200 162
139 103 238
165 37 182
233 161 15
207 46 48
171 152 75
159 68 179
239 230 75
29 227 194
75 74 149
250 68 54
161 54 202
31 70 187
56 34 151
19 252 13
72 66 143
209 147 192
244 170 118
171 24 246
101 70 229
132 140 100
109 66 74
138 156 166
224 43 145
122 126 31
197 64 247
79 62 177
229 206 156
226 220 16
79 253 158
179 231 212
119 135 9
123 90 209
138 14 32
124 8 230
101 236 46
225 182 142
88 157 43
0 141 177
148 58 100
153 245 201
141 202 159
102 60 245
103 106 132
86 189 168
120 47 33
243 26 92
93 166 204
114 5 23
158 210 124
28 219 185
103 78 119
86 193 81
166 154 125
191 179 225
4 102 96
249 171 239
180 114 196
45 111 35
79 126 149
206 7 173
86 77 89
151 150 80
134 171 254
102 55 66
175 117 55
222 182 117
239 26 190
35 117 120
64 125 200
106 180 251
233 102 0
96 173 165
64 241 253
8 85 62
159 52 45
244 189 231
209 100 144
209 26 236
60 165 154
159 244 106
217 173 162
213 221 162
90 158 165
21 160 62
178 141 71
117 107 247
9 193 149
161 107 237
33 73 231
175 84 197
222 237 155
65 214 105
62 207 68
164 203 47
133 246 118
109 135 206
247 204 63
96 244 188
206 158 41
245 52 190
70 38 185
254 41 249
99 31 164
166 68 122
120 178 164
48 179 140
66 116 23
166 152 91
110 26 132
38 49 14
50 105 54
134 143 37
199 62 99
147 99 252
52 155 214
72 200 29
119 19 213
111 178 106
17 81 157
153 41 254
172 209 149
126 250 0
65 124 32
5 82 15
66 232 80
172 99 247
148 42 173
100 6 135
112 147 183
43 173 49
233 229 56
199 175 11
162 111 16
35 153 171
22 69 217
87 108 240
186 85 204
241 240 29
234 185 22
247 195 6
134 101 232
11 225 19
185 168 219
24 222 43
231 109 216
59 92 148
226 82 209
137 46 95
250 96 174
245 22 135
115 49 154
206 58 77
219 194 50
27 46 108
115 5 64
40 100 117
177 17 31
106 185 167
236 47 39
31 236 155
122 26 126
196 10 202
236 73 137
247 93 24
27 20 139
89 190 38
205 143 62
64 27 18
37 130 190
35 225 121
96 139 178
166 21 81
30 90 6
63 178 176
19 213 82
194 176 170
233 47 52
49 139 72
221 160 10
169 212 109
164 73 42
251 136 235
2 222 1
68 146 63
0 127 234
69 129 92
240 154 182
30 177 105
41 68 75
232 78 220
144 12 35
142 141 9
78 250 35
177 54 28
101 226 59
195 214 157
15 24 154
109 165 45
99 190 124
175 65 189
120 25 62
121 234 9
150 146 174
151 71 174
219 33 252
215 199 71
101 241 121
2 151 236
170 143 4
181 175 173
126 149 55
193 5 99
173 228 34
37 51 98
234 197 48
94 172 167
132 254 62
119 62 43
86 145 103
51 151 183
219 35 250
123 221 233
226 146 171
134 36 96
194 72 186
102 164 229
149 89 136
163 137 174
228 30 203
53 114 27
240 89 52
39 41 11
178 90 26
35 206 140
155 74 13
70 58 7
94 197 209
38 13 142
194 75 191
130 1 230
6 163 175
153 22 8
55 129 103
232 161 53
250 139 29
26 185 133
108 180 9
35 35 89
105 157 159
49 54 219
236 83 3
83 146 84
199 36 13
160 44 236
16 107 47
144 63 230
56 147 21
218 184 190
19 70 76
114 197 3
228 112 236
120 250 6
224 212 129
43 169 160
231 37 180
226 10 206
137 238 82
42 8 30
20 84 229
53 72 122
28 192 206
74 193 52
187 166 61
95 145 67
10 109 52
115 235 204
4 61 161
141 67 48
56 225 5
102 21 85
138 113 127
163 22 194
21 211 84
92 0 232
120 85 133
111 71 139
30 123 183
33 54 71
93 46 253
125 216 177
78 232 163
211 161 219
220 77 248
68 200 234
231 121 38
158 165 18
54 85 229
86 191 200
154 132 189
13 160 33
101 49 181
103 9 10
98 109 111
158 46 57
128 110 35
27 194 168
113 110 238
169 189 214
72 193 0
202 150 23
190 168 85
173 218 186
246 163 180
222 2 190
112 225 203
8 237 145
79 16 247
144 81 13
235 71 111
138 226 168
19 189 14
155 157 201
119 40 155
91 155 138
254 173 13
185 71 157
70 140 180
114 196 96
115 50 48
46 122 104
239 175 234
68 21 254
148 47 45
214 196 62
251 164 138
210 137 250
236 95 74
70 237 3
138 12 213
76 78 143
39 164 124
236 197 34
0 154 226
48 178 187
217 184 117
104 28 172
206 62 161
225 56 245
139 64 188
224 53 126
208 74 1
199 33 189
55 40 183
93 8 106
37 149 41
22 122 72
100 186 150
128 163 95
239 24 136
157 214 226
200 150 125
239 228 25
202 242 114
135 169 251
89 37 222
110 172 111
48 163 159
224 0 49
252 47 180
188 185 2
244 95 161
84 35 144
6 82 182
176 230 103
215 171 4
142 46 254
148 254 135
3 164 216
215 178 244
254 157 220
203 246 215
5 152 56
95 83 71
49 95 93
215 227 63
205 107 90
34 184 65
127 92 184
55 46 154
16 253 193
23 195 64
136 241 181
41 29 252
207 100 70
43 42 193
139 69 117
212 172 207
174 203 58
233 179 162
215 15 252
223 144 192
179 104 13
22 218 182
56 93 45
157 89 184
103 82 106
43 125 197
137 230 220
194 87 80
60 219 113
180 172 2
234 58 234
4 58 254
27 220 242
167 181 73
190 217 159
115 149 232
243 131 69
144 136 40
210 225 192
176 198 41
122 147 142
92 100 18
119 191 7
225 245 125
28 163 144
56 200 246
16 114 211
230 199 71
105 220 59
171 74 158
184 176 225
165 149 151
176 56 3
226 15 6
87 141 49
70 120 16
88 245 68
149 51 202
176 44 72
13 198 109
98 80 217
134 86 1
197 203 24
216 113 244
233 83 69
3 54 235
142 119 74
53 30 147
54 55 60
201 96 44
168 24 67
209 133 55
46 219 138
58 120 221
145 95 113
156 133 248
156 121 59
117 160 249
119 222 205
241 189 217
174 193 17
174 33 244
123 220 252
27 81 244
215 82 44
72 220 32
62 173 150
239 128 173
14 49 224
223 56 126
57 71 76
121 136 40
241 52 178
4 158 72
249 7 202
3 16 210
245 31 90
173 236 0
148 91 113
159 184 144
102 133 196
187 19 16
129 108 251
59 56 55
45 91 82
191 19 205
253 94 240
211 16 186
89 76 170
63 58 59
59 27 250
187 131 141
2 64 136
71 105 244
23 84 233
62 234 160
8 217 114
118 164 38
58 182 253
222 97 173
75 186 196
224 158 28
20 37 124
133 49 202
111 72 1
117 145 163
119 195 28
46 41 99
200 239 182
166 219 127
67 199 199
183 19 138
92 90 131
208 16 150
160 180 235
63 34 243
55 200 72
24 171 158
169 113 119
35 134 248
173 149 241
20 210 138
158 30 194
9 127 145
122 119 31
48 131 115
113 35 121
52 61 128
175 248 95
5 235 221
40 197 181
185 27 144
104 222 81
26 193 141
143 174 74
182 164 88
16 145 107
230 247 91
231 222 55
25 101 225
106 98 178
208 168 86
104 230 56
51 255 119
161 141 232
203 162 219
195 163 207
92 14 2
227 12 217
76 21 253
34 198 222
17 16 0
75 28 209
88 74 53
101 244 173
223 140 45
182 152 45
65 110 80
255 38 220
239 181 142
186 204 249
197 23 6
25 14 115
178 5 45
210 201 4
77 189 71
119 18 201
22 149 130
179 78 90
183 146 225
106 100 102
233 181 248
210 185 207
193 96 31
184 49 237
56 160 191
157 127 218
220 63 32
140 167 173
209 130 50
78 101 120
18 166 106
49 98 35
166 79 115
144 126 207
89 173 227
181 216 97
79 14 160
150 16 145
103 212 177
51 33 146
21 93 165
154 9 205
5 166 149
18 26 164
47 120 166
201 41 122
22 49 187
132 199 125
174 88 153
108 3 115
223 180 149
127 235 133
85 124 24
185 223 194
243 177 19
229 22 176
240 183 98
160 171 151
15 122 122
129 212 181
51 98 50
12 16 204
128 191 12
8 203 249
88 9 49
185 101 58
199 120 142
35 111 92
9 161 155
176 16 245
205 101 142
32 77 84
221 56 113
178 47 46
250 150 194
123 144 65
75 198 83
0 61 238
63 211 187
169 80 75
76 149 196
101 166 210
163 105 155
51 203 233
203 166 240
44 137 102
177 59 32
117 171 31
189 59 9
26 24 221
82 243 98
86 121 239
238 91 50
202 150 198
195 60 193
151 209 80
32 222 63
248 9 210
39 221 121
3 229 56
253 164 240
65 113 55
182 189 164
240 196 221
222 100 203
134 44 3
152 232 48
50 255 27
240 87 58
240 115 205
32 150 247
222 163 96
4 245 96
110 40 171
115 50 15
240 72 234
188 30 36
99 131 252
52 156 45
8 56 2
243 42 142
69 84 53
177 246 108
219 114 205
178 252 95
19 205 137
255 80 62
27 130 81
95 70 74
251 126 194
253 235 185
118 121 178
223 181 190
233 1 20
188 164 93
94 169 41
212 107 122
150 11 34
32 0 208
153 86 172
183 178 254
42 8 211
43 109 99
194 135 3
181 195 222
69 60 84
184 189 124
22 254 169
82 119 26
112 14 96
92 153 79
248 98 173
74 133 236
58 165 79
239 248 219
180 46 196
12 26 94
47 141 63
186 13 45
37 179 105
78 25 196
241 124 180
194 227 73
129 171 121
125 125 46
253 59 79
17 57 93
55 19 251
227 136 70
95 58 58
179 120 68
218 60 33
123 36 110
37 215 45
91 88 208
109 1 227
132 195 250
11 61 206
254 254 191
194 194 33
238 45 251
229 19 144
221 223 121
20 120 89
78 25 179
243 187 63
100 106 98
42 33 46
45 224 25
67 115 192
213 141 123
2 247 3
75 157 129
47 165 143
13 235 233
227 250 110
178 20 92
161 86 91
228 179 237
148 168 127
18 6 12
167 79 24
189 24 126
105 127 124
95 216 168
57 156 94
228 76 220
169 120 19
247 209 142
249 122 236
121 195 5
192 127 186
27 254 123
103 230 8
16 105 3
154 32 142
59 208 145
225 194 168
3 213 217
181 146 186
179 147 134
38 110 204
127 143 50
73 205 41
177 186 160
81 145 132
173 77 72
95 153 124
20 71 245
133 118 241
46 63 127
6 72 226
177 227 158
240 76 65
248 20 163
90 106 50
170 118 181
118 33 228
62 171 134
72 109 64
104 127 181
67 140 84
131 182 202
167 234 20
206 177 85
32 225 228
183 207 68
6 179 79
107 54 96
219 115 156
113 117 85
197 74 36
186 86 115
105 83 47
21 44 6
27 92 236
237 52 216
136 94 90
249 133 58
225 29 3
45 53 234
95 228 223
135 98 180
114 14 159
91 91 7
216 1 17
18 88 51
34 52 119
247 46 11
18 159 124
212 79 53
91 114 126
172 229 3
64 147 95
42 84 221
57 131 228
79 151 197
11 125 49
119 95 175
222 17 145
255 177 48
187 80 137
8 156 137
147 65 136
96 155 147
3 199 67
128 196 241
115 137 160
115 125 124
8 63 201
93 68 164
210 208 226
28 82 63
162 241 131
60 121 173
124 36 229
174 152 203
35 195 187
50 19 33
182 112 101
153 105 160
97 16 149
121 10 120
144 79 226
238 9 92
11 54 159
115 213 58
248 25 159
144 124 253
235 135 134
146 68 210
215 193 8
231 36 106
42 162 231
97 144 105
128 10 85
156 91 151
144 11 229
112 70 142
71 91 61
139 237 12
78 253 133
29 168 189
50 125 131
246 79 110
189 170 158
189 161 244
25 96 122
41 134 83
215 100 221
9 69 31
18 97 168
205 32 26
199 148 238
172 95 212
16 207 11
163 143 236
252 126 29
234 89 90
120 151 42
0 41 27
120 171 238
55 95 233
152 23 97
151 254 65
81 25 195
236 232 92
59 61 195
102 235 70
178 249 113
36 74 160
147 61 136
26 65 26
140 208 158
181 14 13
19 140 163
246 127 43
54 157 94
110 17 64
83 33 197
111 119 81
90 181 195
6 150 26
139 166 207
26 111 144
210 46 105
22 222 146
11 180 18
181 158 99
219 84 162
188 58 238
25 39 161
140 57 244
172 221 69
198 69 30
69 234 99
85 55 253
91 98 57
13 226 103
215 36 74
138 210 206
143 12 43
236 158 207
241 224 83
182 109 157
159 227 154
247 53 68
36 78 160
124 59 69
248 185 235
25 29 228
213 67 238
213 201 79
15 140 232
118 91 244
243 131 248
133 211 32
150 191 89
76 162 47
57 92 7
10 34 150
223 171 156
86 78 3
58 126 161
185 243 155
233 238 98
245 92 75
143 145 138
61 200 101
126 170 172
95 244 95
60 94 112
116 252 104
10 212 31
9 78 88
66 111 45
236 133 235
152 212 241
192 202 94
183 169 70
136 220 104
2 159 41
164 127 77
98 60 45
217 2 147
203 233 127
48 61 20
33 133 98
179 153 84
251 41 202
222 17 252
190 236 40
191 154 164
203 138 60
103 152 189
215 250 207
7 65 110
65 69 125
3 170 151
166 84 129
156 146 161
35 93 100
233 183 208
253 27 68
123 69 143
233 14 48
239 58 126
91 209 91
154 155 145
155 157 207
135 193 70
35 152 150
165 41 214
73 117 214
29 224 24
57 8 160
2 38 32
79 146 155
39 62 228
185 195 74
134 190 95
205 63 226
241 218 16
192 102 166
100 109 10
141 146 22
165 90 162
149 216 9
250 120 60
138 117 73
169 238 51
174 102 120
105 174 168
125 255 219
200 116 103
208 251 200
167 90 89
252 253 152
38 16 135
0 7 44
48 28 145
226 213 217
36 96 124
19 219 127
25 166 54
150 97 212
175 218 211
185 51 230
69 126 8
247 195 30
9 12 175
139 128 39
200 112 90
140 207 173
199 146 247
118 51 145
45 135 245
164 173 190
99 149 198
166 225 10
3 249 69
86 147 246
101 216 90
12 77 5
104 140 53
109 87 177
117 153 52
151 58 70
175 192 128
189 175 37
107 202 95
25 182 179
236 254 124
136 40 115
220 75 59
129 187 16
75 232 40
175 171 27
151 138 139
100 19 20
31 46 129
219 13 190
235 56 176
234 26 31
104 189 57
127 76 242
40 210 95
83 69 113
161 159 193
26 194 232
57 158 198
166 170 204
130 179 43
94 215 51
25 36 211
119 240 10
76 246 78
104 59 27
174 48 163
29 255 44
226 170 109
134 148 52
39 209 19
79 98 213
112 48 57
188 175 148
28 242 241
150 184 28
129 225 234
232 33 129
78 171 106
157 17 108
116 11 139
208 117 222
199 128 0
203 204 235
80 217 93
198 110 19
179 189 154
189 203 45
84 12 126
69 188 148
167 14 34
7 93 62
109 205 226
36 2 192
67 134 152
244 244 6
88 193 22
39 36 47
83 138 97
136 96 121
109 153 92
174 105 179
1 155 221
44 174 17
142 62 16
119 246 87
136 110 96
174 103 224
225 195 152
92 152 234
94 60 204
46 150 52
168 151 191
222 253 155
7 204 153
87 166 69
86 252 193
186 156 56
29 215 133
9 0 9
201 199 130
127 121 112
24 92 163
219 148 9
81 202 164
95 16 184
169 129 230
113 189 150
89 24 196
242 64 33
74 124 74
159 114 6
10 48 76
71 225 186
249 240 121
203 119 181
79 3 197
65 239 23
84 165 150
219 230 157
42 188 237
149 202 67
185 175 210
126 166 127
31 128 160
76 183 209
194 201 206
156 89 237
5 1 52
229 105 239
77 253 37
97 80 6
66 32 168
241 46 72
218 252 104
159 196 46
49 184 186
202 255 122
186 166 69
175 79 87
54 152 142
61 134 76
169 159 206
149 35 213
109 99 190
170 226 147
230 28 222
23 174 95
162 84 155
243 164 12
112 34 125
228 8 46
51 160 184
112 110 152
79 15 134
151 65 240
5 121 79
150 193 116
254 13 222
60 163 234
248 93 30
37 175 6
4 44 28
115 164 31
48 238 148
249 175 158
177 241 148
208 19 31
76 10 224
129 49 245
138 195 84
81 36 212
185 42 165
108 189 94
33 195 239
114 242 4
161 2 70
63 206 127
63 214 47
99 200 119
179 207 121
186 128 113
158 209 88
54 175 146
140 114 94
236 136 49
90 105 40
250 237 66
83 158 98
252 205 248
40 123 106
15 43 172
94 227 84
249 118 203
130 150 99
99 143 13
43 53 57
110 234 246
249 209 172
189 249 216
64 232 46
59 115 55
5 25 159
28 136 160
154 122 252
201 163 84
50 118 140
214 31 47
105 84 207
75 144 94
169 221 209
218 106 106
56 177 60
57 5 20
208 95 166
140 88 156
56 50 59
79 209 165
14 124 205
168 45 116
219 172 135
126 253 193
88 122 76
195 131 3
209 77 190
238 165 232
171 248 119
252 207 69
82 84 254
41 90 57
246 249 149
90 222 249
147 145 43
178 38 64
78 52 162
225 54 81
68 61 16
96 199 15
252 50 62
18 216 46
1 12 138
203 240 175
23 163 248
47 225 203
248 225 10
242 107 140
124 126 211
131 6 81
182 151 87
217 90 3
102 143 152
112 14 167
1 6 21
27 127 10
243 69 43
104 189 43
53 60 9
210 76 209
221 245 3
163 4 151
198 248 130
78 88 178
107 19 108
102 238 141
104 195 220
182 97 113
180 92 192
70 87 196
135 100 42
53 218 25
153 112 173
219 117 157
250 103 188
223 17 192
91 46 243
193 179 117
116 129 56
236 152 101
248 107 148
178 201 242
38 28 83
188 226 74
188 206 131
2 41 187
230 73 100
157 7 96
176 122 59
180 168 166
51 118 236
19 172 148
82 94 135
34 42 100
177 85 136
101 14 181
91 155 39
254 59 247
168 206 6
225 90 12
162 176 154
58 138 222
59 28 224
22 198 70
21 60 242
158 166 48
137 134 223
117 109 18
15 245 126
255 224 77
207 213 83
53 37 100
218 226 23
203 240 108
105 51 197
22 233 223
245 230 238
27 47 127
171 27 109
98 236 142
255 63 29
76 125 111
95 20 87
108 193 3
203 152 110
127 106 195
89 241 209
211 253 72
16 216 192
52 16 232
74 246 50
90 30 241
85 0 206
231 2 1
217 18 248
29 12 223
52 173 225
5 186 203
229 153 0
138 69 78
195 172 213
58 60 60
75 242 182
174 98 215
39 26 3
42 89 95
196 30 232
192 7 147
121 213 229
184 2 20
122 252 6
117 219 101
173 232 20
5 76 78
128 98 118
85 125 65
240 119 83
37 34 13
13 181 63
252 2 175
250 170 94
22 112 21
23 247 119
70 127 208
83 118 102
158 29 75
91 99 232
179 224 46
76 2 223
182 192 46
253 74 220
111 189 228
221 11 117
4 41 192
112 227 127
44 141 180
111 188 4
205 213 178
240 113 168
129 237 95
119 57 101
180 114 12
232 237 224
216 244 147
136 54 240
93 169 20
219 59 114
14 106 26
198 43 127
148 132 249
124 193 184
62 107 178
177 221 97
179 162 40
107 210 165
73 213 29
31 66 106
145 41 149
215 147 163
69 168 105
96 244 153
140 69 243
45 198 197
251 77 248
74 193 74
105 30 121
209 253 206
255 88 21
124 118 189
195 242 208
96 177 164
60 68 200
23 205 161
10 62 40
97 10 6
102 255 182
6 166 226
238 199 47
206 133 125
175 237 202
82 158 115
160 150 217
26 161 58
161 236 66
0 20 23
169 105 147
112 82 118
44 214 90
111 177 25
176 132 61
43 128 179
197 97 92
177 62 33
99 31 186
112 109 46
88 254 211
255 178 6
83 173 64
61 155 202
184 134 194
113 46 54
188 212 204
8 14 90
122 133 236
38 117 129
10 51 55
151 94 125
74 61 86
155 80 54
64 221 115
213 14 242
87 224 22
5 67 231
240 76 135
154 176 67
194 181 190
137 1 11
243 172 36
237 129 148
33 39 55
194 16 245
188 96 8
182 206 57
243 129 154
194 35 145
90 8 177
244 59 185
158 85 93
63 123 103
176 75 199
229 179 255
98 96 158
224 227 237
20 4 63
86 100 216
61 85 15
103 122 130
8 75 103
19 130 148
55 128 143
90 42 123
38 165 23
71 134 17
27 165 57
116 54 227
235 11 130
74 50 86
93 176 34
184 216 31
187 136 109
188 1 15
86 214 129
205 8 49
28 148 8
127 56 224
233 230 223
98 59 242
132 49 202
93 127 52
176 5 246
161 123 163
74 145 193
171 74 87
66 146 167
94 89 64
186 169 30
13 107 171
149 177 35
54 72 96
162 45 64
197 151 158
155 133 0
46 101 179
113 186 126
188 102 40
237 222 34
28 133 215
5 202 45
102 221 153
68 168 240
193 39 119
197 90 133
56 51 243
42 171 234
52 113 84
113 99 236
193 104 227
27 148 237
134 210 29
17 126 102
248 25 89
195 38 164
120 194 90
220 245 19
112 246 2
207 83 16
218 49 111
200 237 115
185 120 161
182 91 8
161 23 162
81 227 237
173 195 193
135 120 114
144 228 128
129 153 24
194 138 43
236 125 241
49 224 158
153 190 38
159 77 120
121 95 66
50 167 249
206 118 121
245 83 201
29 8 216
249 12 107
95 59 41
41 229 182
237 105 237
11 35 220
75 230 254
163 73 13
156 78 132
156 113 217
217 180 184
138 162 36
15 215 73
70 96 207
219 172 56
186 152 199
174 4 121
3 160 158
210 195 76
62 198 115
199 221 74
101 105 8
61 152 89
175 231 138
48 231 73
218 152 24
185 230 192
149 218 150
99 213 73
37 191 150
8 194 153
43 197 172
129 223 35
174 73 44
47 153 239
131 106 94
203 236 195
243 233 152
138 1 108
228 11 95
228 142 214
21 154 18
170 117 67
24 70 208
78 199 165
88 111 200
190 116 226
2 121 55
12 230 109
2 74 141
134 23 241
5 145 162
119 13 129
199 61 77
192 26 11
125 196 170
31 241 116
91 138 131
234 39 73
9 34 40
19 107 96
247 10 251
219 129 226
110 81 166
144 244 32
214 145 64
148 149 19
47 116 173
244 135 16
159 148 183
255 129 178
133 239 146
127 66 157
170 212 84
203 238 25
95 18 135
117 111 177
222 226 217
139 218 5
164 247 69
57 228 89
232 215 148
249 181 237
24 14 230
29 201 8
252 4 236
235 147 84
183 54 219
49 182 51
60 226 109
81 41 6
37 144 143
141 215 228
246 185 76
15 187 67
243 186 74
172 146 9
104 126 231
99 202 108
30 247 58
22 9 169
81 222 248
126 226 227
251 85 26
126 129 196
192 201 30
30 214 138
209 210 0
24 9 240
194 195 65
128 200 124
137 123 35
161 219 82
150 62 73
17 15 78
48 156 121
58 228 215
114 229 62
28 141 120
176 24 47
253 155 105
53 78 21
198 128 162
71 49 232
108 4 92
106 159 112
36 116 94
8 133 23
180 146 241
166 203 157
8 33 245
105 26 9
36 33 185
24 211 124
221 4 75
127 109 40
37 204 63
56 164 125
1 203 141
10 8 31
3 179 221
112 18 183
167 46 73
231 92 1
182 92 228
22 77 213
37 63 189
179 102 164
199 74 109
195 18 44
221 95 233
97 182 44
151 38 240
232 45 105
243 48 11
155 213 131
195 231 61
61 60 20
248 104 51
10 45 10
69 247 146
10 204 82
191 158 205
119 3 42
27 5 6
231 216 75
106 187 51
112 53 127
151 209 191
74 140 72
142 150 207
129 199 143
201 47 69
202 198 136
102 157 105
221 155 52
253 25 62
233 166 69
8 221 108
171 121 22
34 36 213
32 211 238
246 238 174
150 60 197
51 8 249
79 226 222
195 243 132
50 78 113
172 66 161
199 62 194
14 228 36
37 142 32
223 112 239
179 214 53
66 98 181
160 32 115
203 16 76
93 231 239
21 101 140
156 188 159
114 159 49
106 48 28
128 145 104
226 189 133
104 108 50
144 52 192
77 46 225
98 10 189
116 80 153
33 106 151
237 47 143
153 221 163
217 75 206
40 173 182
143 161 86
122 43 158
56 205 107
14 115 217
52 199 131
38 163 43
114 86 110
73 89 144
13 186 166
154 110 97
33 206 225
243 81 199
194 78 107
51 17 161
202 195 145
89 89 125
193 94 80
46 25 36
250 154 146
97 212 245
152 27 116
199 196 24
78 116 255
235 34 67
110 199 28
60 84 182
18 208 198
252 69 143
12 77 119
66 151 58
149 228 108
51 246 33
217 240 29
190 66 169
175 17 157
77 156 255
155 192 235
81 194 184
127 155 189
210 167 148
52 192 21
64 148 63
111 46 230
219 145 122
1 218 94
25 217 47
63 58 141
114 122 219
239 177 49
14 164 106
92 167 143
45 28 73
227 107 41
59 77 166
137 111 52
182 169 11
165 31 49
30 53 180
174 159 147
34 15 250
147 120 135
17 115 205
208 143 82
123 124 242
219 179 221
210 195 146
29 49 85
36 11 37
74 142 127
252 178 230
65 154 255
68 240 195
26 139 200
160 103 162
12 246 245
30 108 4
204 214 116
92 46 0
10 104 160
171 186 225
84 31 57
56 187 37
53 106 195
243 142 214
81 29 152
40 117 55
37 184 30
72 242 2
28 233 113
176 105 179
166 76 162
85 180 84
15 181 52
153 165 83
252 206 149
129 213 78
63 114 130
136 133 241
147 103 114
220 158 53
211 181 95
85 45 136
113 63 57
155 74 219
3 171 9
52 221 122
222 52 53
8 92 244
49 154 132
222 211 79
11 120 157
210 89 146
107 45 41
126 253 167
224 161 37
102 232 239
192 103 165
142 10 81
250 50 200
66 242 164
175 59 197
241 66 84
77 110 53
183 15 194
88 126 203
86 192 30
50 106 245
149 79 209
84 122 38
128 67 35
151 24 80
195 151 200
191 195 53
214 11 183
20 68 178
203 12 185
123 150 238
27 209 174
136 168 123
44 141 69
62 166 240
152 52 230
102 161 73
135 141 43
15 15 121
30 141 117
156 217 91
64 94 4
89 138 249
244 84 95
253 39 38
12 196 231
101 160 162
246 166 43
194 2 107
185 98 132
142 112 80
237 164 95
169 234 120
254 161 218
107 110 195
144 104 157
102 10 171
249 157 143
136 185 189
220 150 154
74 31 215
178 121 217
213 153 33
168 12 74
239 47 169
199 183 27
71 29 216
114 157 38
199 62 200
22 211 192
7 55 147
161 129 181
57 36 224
25 34 88
222 235 64
59 21 164
241 233 143
189 238 172
19 191 50
87 4 56
29 47 181
46 167 217
115 95 23
37 176 129
78 165 135
5 34 240
99 108 249
157 29 19
28 115 71
150 204 117
207 4 173
69 184 96
150 185 162
41 248 192
219 199 35
168 242 81
212 171 184
172 122 192
52 126 191
43 254 237
118 163 190
58 181 187
70 220 161
203 25 64
198 139 14
123 229 58
125 247 21
11 137 98
237 29 182
80 97 149
27 157 83
102 85 107
237 246 220
134 202 143
40 125 55
112 64 132
69 210 209
247 130 164
141 64 156
237 130 149
142 43 163
93 215 62
228 104 91
71 200 106
127 144 137
16 95 137
26 150 30
86 242 228
0 115 155
251 213 89
70 85 148
155 50 207
103 66 217
43 64 63
132 82 20
38 231 11
18 11 175
198 87 178
234 190 141
231 115 130
149 168 76
149 25 30
236 230 101
96 23 150
19 171 105
76 132 76
109 12 115
19 67 243
206 187 204
199 77 192
255 15 183
180 233 204
82 225 42
237 102 145
241 83 9
7 229 124
71 167 36
156 247 255
208 53 115
43 208 144
210 97 211
79 114 152
230 169 230
162 162 214
27 104 228
239 21 103
135 232 142
58 150 204
58 29 63
151 170 48
156 200 207
188 179 109
227 48 48
84 68 140
75 235 152
65 204 210
68 207 64
212 214 95
205 250 51
8 126 199
169 8 127
221 96 60
126 90 59
83 127 247
170 128 73
135 223 243
105 168 54
105 149 83
135 19 160
11 119 118
246 126 40
63 162 245
49 115 212
228 27 110
45 202 181
214 55 234
64 0 185
93 204 199
255 133 98
166 8 86
179 214 87
192 83 19
44 196 159
130 81 84
226 112 104
61 160 82
38 84 142
87 144 181
126 85 91
238 121 104
92 79 18
20 182 132
190 75 103
79 51 4
208 24 137
220 120 136
213 75 25
91 128 6
117 248 82
53 203 10
105 176 155
62 36 26
131 168 246
97 176 132
84 171 162
162 120 211
98 189 34
245 224 88
75 226 202
93 71 12
145 121 193
114 227 231
232 38 183
201 133 131
176 84 38
58 220 170
78 100 143
139 151 170
201 92 223
40 49 116
84 81 119
196 203 4
251 51 59
24 101 52
70 134 44
23 144 253
78 220 47
11 50 80
22 18 36
249 54 206
84 102 191
32 226 7
156 17 155
148 193 229
220 105 156
101 49 48
151 62 241
149 22 165
60 19 29
60 163 235
22 162 141
211 173 104
143 104 209
59 82 83
43 106 239
31 186 38
110 85 44
224 150 105
184 164 118
247 33 75
169 23 130
82 24 30
48 67 184
219 199 230
58 197 61
65 17 143
15 153 72
220 100 221
189 19 177
90 120 159
74 40 125
14 28 193
48 28 86
231 168 156
174 75 122
188 75 13
218 0 226
72 108 165
147 53 109
242 8 41
10 21 221
148 233 73
20 167 64
233 92 3
235 67 28
85 106 165
105 49 227
78 222 13
54 196 48
168 218 181
64 74 213
149 197 172
16 61 167
60 100 203
213 165 145
83 233 157
48 186 247
222 144 34
120 157 182
41 126 93
87 191 177
59 156 177
143 36 14
140 130 227
11 180 65
80 204 206
21 64 20
103 220 73
68 52 114
223 177 221
227 254 237
122 130 23
7 197 11
180 93 98
126 52 248
11 68 180
162 26 177
165 243 13
111 123 128
117 141 122
221 30 139
40 66 41
104 34 18
87 160 192
239 189 143
79 211 161
185 28 149
103 3 46
222 74 150
43 143 186
3 223 175
215 198 191
255 9 226
214 49 212
240 81 129
96 43 100
3 76 119
88 223 187
218 10 126
128 3 9
152 177 39
75 87 85
95 196 58
186 23 63
138 77 2
4 196 250
249 214 6
186 188 164
24 157 16
215 24 177
135 34 48
79 142 224
55 185 204
125 116 97
159 72 136
207 18 226
254 76 64
97 62 242
159 199 151
217 202 244
141 136 59
62 238 51
4 15 69
220 155 43
188 179 17
251 64 244
169 199 179
24 8 38
149 184 190
57 13 99
202 222 64
183 230 191
116 232 8
81 255 182
220 115 109
97 109 133
157 147 89
206 182 31
146 218 128
52 77 193
74 28 114
24 169 195
24 173 250
195 228 200
167 115 78
184 171 132
179 48 195
148 174 244
226 138 177
101 90 225
114 131 146
165 184 248
67 88 204
205 190 132
157 101 255
75 208 158
57 180 159
128 173 23
19 222 57
52 131 112
91 237 71
91 148 174
70 44 191
94 148 4
42 92 196
80 209 221
138 142 24
105 203 130
160 120 179
194 213 71
117 160 49
133 26 109
209 80 135
255 67 149
173 163 126
240 69 0
3 77 56
85 10 93
112 11 188
162 216 199
104 109 11
113 243 54
225 238 222
161 44 74
45 63 167
146 129 173
79 86 181
106 241 66
176 132 110
82 215 45
42 29 220
172 33 66
25 216 118
4 145 78
24 217 214
251 61 91
165 18 189
56 177 253
133 118 222
7 151 182
140 121 155
156 137 138
53 144 245
109 109 142
230 151 134
54 0 173
181 98 27
4 243 93
129 239 51
130 118 170
106 136 251
145 154 49
26 77 4
5 239 157
216 92 67
204 52 17
200 5 128
5 203 59
4 253 249
50 164 221
216 244 146
128 50 117
92 173 246
233 28 19
121 22 75
112 231 209
153 215 19
74 209 193
61 42 14
244 169 15
154 185 23
16 16 93
211 206 152
15 17 117
26 171 242
82 173 170
124 254 204
203 174 188
191 235 58
115 105 217
73 161 165
182 17 119
43 179 81
161 152 203
100 156 182
135 185 160
54 240 122
166 5 163
186 54 107
252 32 59
37 50 211
170 82 46
91 7 117
201 195 34
194 240 31
208 67 75
230 166 247
86 228 219
57 190 164
28 38 87
71 100 245
212 107 14
198 16 39
216 23 133
155 78 218
23 114 22
189 12 229
166 245 144
118 208 137
69 220 108
252 202 224
9 183 141
114 200 248
2 40 121
178 30 116
156 122 31
131 255 220
42 72 71
160 6 73
243 213 191
148 188 19
227 164 177
34 213 217
162 13 3
146 239 52
52 7 99
11 0 215
242 26 75
169 204 238
51 58 128
201 73 98
91 212 63
81 101 70
101 215 47
48 93 139
191 58 129
221 218 98
161 191 96
18 86 155
94 145 173
14 203 8
239 113 220
63 209 51
196 246 223
84 84 81
244 161 161
81 138 144
250 160 104
108 238 54
248 112 23
225 28 17
149 119 176
246 234 47
106 100 193
251 107 42
113 238 63
115 136 143
198 39 169
210 102 244
217 76 32
210 188 64
140 166 109
217 90 93
252 106 37
68 156 58
95 125 58
156 48 250
69 180 221
125 55 240
221 228 233
250 109 70
129 44 208
160 106 71
143 100 61
151 182 35
221 0 207
23 210 40
95 114 62
44 134 201
240 65 191
231 173 114
180 29 122
195 245 215
85 91 15
42 115 73
46 140 219
50 61 102
20 33 168
103 82 34
71 179 211
238 4 82
116 65 240
218 96 217
75 26 208
120 131 163
116 197 235
6 75 239
172 73 188
17 50 211
210 245 188
92 178 235
244 186 121
238 95 57
13 220 25
94 45 89
170 98 48
158 159 200
45 102 236
101 149 99
253 25 36
38 96 156
146 4 111
142 235 118
221 110 169
83 239 110
201 141 242
175 246 95
143 108 239
29 197 140
244 128 23
216 221 167
167 12 103
66 28 179
8 212 175
149 250 122
179 65 148
70 255 170
226 211 157
226 248 108
82 7 98
224 230 3
232 88 4
150 76 250
245 189 222
219 180 166
235 168 33
118 94 237
85 230 72
253 2 201
212 226 58
153 211 14
216 124 168
235 88 79
0 58 107
17 121 59
161 68 158
245 113 164
33 90 215
158 147 199
140 187 107
68 93 17
187 172 129
154 93 226
213 2 170
197 33 8
20 118 146
56 212 182
137 76 205
253 117 205
98 26 240
236 158 224
202 236 103
28 111 45
125 254 152
39 3 202
73 233 54
47 208 89
56 10 169
199 134 109
166 115 106
86 236 31
252 87 74
181 236 232
30 71 67
73 155 56
215 12 149
176 251 179
158 62 27
168 9 192
107 237 115
24 184 57
243 201 137
102 21 236
14 164 76
242 166 4
249 59 241
209 89 248
129 164 97
198 156 5
36 96 4
56 11 65
79 249 40
74 139 243
65 80 77
148 67 71
39 33 93
121 188 189
230 28 141
107 105 95
147 188 208
90 194 110
193 142 252
239 196 207
225 202 219
156 136 1
249 226 77
113 169 240
80 87 201
63 45 8
89 52 182
133 104 21
32 85 211
253 201 199
144 126 171
94 98 154
177 139 43
38 201 149
6 2 218
196 122 148
66 70 56
161 243 59
148 73 33
37 250 95
50 72 128
65 105 255
13 203 200
28 12 201
159 162 49
7 81 5
52 223 163
157 237 162
183 115 108
47 157 228
39 214 210
188 240 160
245 102 249
138 184 147
18 211 90
76 51 21
161 141 117
180 210 132
152 125 255
76 86 250
104 88 9
29 119 76
208 123 47
181 69 120
24 238 68
121 21 211
127 243 72
241 94 47
254 21 92
88 157 116
0 112 156
158 122 66
192 132 49
2 124 103
221 221 164
79 206 47
224 238 81
172 126 154
223 105 150
25 183 141
59 17 44
132 195 234
135 160 107
213 61 238
157 95 18
73 131 39
84 254 51
225 215 189
235 242 86
13 250 103
6 175 216
139 42 123
216 0 37
62 213 116
2 41 127
114 254 45
33 130 100
4 165 1
78 166 18
158 131 98
78 47 96
51 150 190
208 60 93
254 232 48
14 178 196
252 62 64
210 197 71
8 15 47
78 130 223
39 243 36
209 199 6
35 55 253
41 176 66
48 109 80
161 180 46
75 35 54
193 112 183
22 68 28
14 190 7
56 174 69
146 10 91
20 107 11
144 212 83
179 152 95
176 90 113
153 141 217
115 102 203
125 243 22
189 92 219
71 176 1
188 150 72
118 148 240
158 34 216
71 233 222
229 250 121
178 198 65
210 254 177
55 121 118
20 162 44
80 173 3
53 85 16
175 150 60
144 134 94
1 178 185
97 26 61
143 134 154
52 220 56
207 44 46
146 77 102
101 142 180
204 68 21
247 233 176
219 224 145
209 96 236
142 133 80
216 80 214
91 214 159
12 137 132
141 127 41
33 116 190
172 162 34
70 60 205
159 181 46
131 243 23
210 108 36
182 211 150
42 164 12
24 217 253
151 117 106
105 21 234
246 38 227
98 17 141
220 70 126
198 72 78
69 159 152
0 20 28
243 86 219
50 139 231
131 65 190
215 17 190
186 221 27
40 105 230
195 44 252
230 215 4
196 81 90
73 12 11
41 217 199
141 211 116
134 65 21
39 50 216
26 187 107
39 137 87
60 19 132
90 197 239
104 170 38
141 206 16
252 188 82
70 130 208
40 235 187
114 32 40
159 133 70
200 162 198
5 175 244
250 142 11
100 207 41
252 85 245
73 157 234
0 5 247
50 8 211
142 59 61
173 176 132
249 174 68
111 33 33
20 61 246
91 170 228
27 212 101
203 83 34
218 161 112
22 194 161
95 57 185
40 211 116
96 46 74
43 188 0
91 3 205
18 77 35
59 34 79
25 109 67
173 16 48
98 238 60
182 163 60
35 40 151
251 107 49
107 10 89
231 41 161
249 36 84
50 221 35
222 35 139
27 121 61
178 169 82
101 49 46
108 12 19
113 121 72
76 15 172
78 92 61
162 141 192
198 38 172
133 211 228
201 225 252
19 152 184
131 74 109
133 41 171
195 125 108
81 49 48
218 30 108
224 93 210
154 205 207
158 240 176
151 95 198
11 225 251
111 135 154
129 1 165
124 94 243
174 55 31
112 134 191
179 189 199
226 209 88
130 225 85
129 23 169
89 187 226
167 190 181
208 82 126
218 161 23
191 3 84
89 136 94
189 255 36
112 86 65
72 250 179
105 213 145
126 147 125
71 62 172
129 244 223
118 82 138
163 113 160
84 154 253
173 176 61
95 132 13
3 188 71
203 70 110
110 130 199
0 37 110
176 194 165
127 12 151
89 46 200
164 47 114
40 5 124
138 249 212
136 204 161
211 224 214
177 204 45
148 27 67
128 103 109
129 111 16
92 156 241
102 4 192
169 152 230
55 112 203
155 220 65
78 203 238
40 145 177
30 174 240
147 176 149
10 44 243
184 29 103
220 218 142
51 19 214
14 237 244
179 133 153
235 180 36
89 67 63
107 249 212
37 20 170
31 18 206
177 248 35
78 111 130
178 107 93
142 103 81
78 85 120
183 238 39
147 29 73
100 10 164
30 33 113
229 143 4
123 143 92
3 108 198
217 86 212
108 240 99
124 2 132
46 4 226
119 117 176
3 114 239
74 136 139
246 134 70
37 5 195
75 17 7
24 173 20
232 201 126
15 197 117
254 223 22
197 31 200
70 133 155
198 40 61
182 149 223
79 103 56
56 226 224
147 151 168
58 141 53
65 185 92
132 18 193
23 11 149
24 224 248
172 22 62
24 234 108
189 248 251
250 184 48
137 182 73
209 146 45
250 235 171
115 73 253
244 165 68
178 121 229
116 231 32
33 190 138
75 178 85
80 181 43
9 249 124
249 41 142
139 54 201
211 51 2
121 44 49
233 150 194
46 97 79
122 150 32
165 138 107
232 53 176
221 34 203
115 254 176
187 149 253
129 155 15
22 243 174
250 74 56
167 64 188
19 52 64
203 128 68
107 179 68
253 18 24
252 87 61
121 204 12
158 214 226
164 247 153
131 117 223
118 225 172
116 26 152
12 65 12
44 195 0
240 209 253
131 148 196
116 19 244
92 99 112
140 191 65
140 226 60
207 52 89
189 101 182
99 52 191
58 70 73
63 25 81
78 43 129
180 188 9
70 47 192
123 241 6
177 188 225
8 204 231
214 62 208
220 23 9
230 2 144
214 53 68
162 18 123
105 76 85
164 104 130
250 156 32
178 109 253
96 142 199
3 228 56
169 198 80
156 237 59
156 11 138
132 250 100
118 57 72
241 54 163
165 255 22
131 141 22
154 159 71
106 48 19
52 156 73
226 156 90
52 224 125
126 222 112
254 241 197
208 3 51
39 51 183
220 175 169
253 80 219
75 2 143
103 48 194
144 76 27
146 132 190
124 239 108
119 107 179
72 67 99
183 29 138
74 66 114
5 83 252
210 151 210
181 153 113
7 213 111
212 164 64
84 223 99
95 55 228
197 147 65
127 165 185
250 169 126
88 82 102
193 81 58
55 108 4
189 224 48
184 235 89
190 18 153
34 10 228
127 246 118
116 116 33
151 149 10
52 131 28
150 35 205
88 47 158
4 196 21
121 122 238
109 151 243
249 243 86
18 229 161
62 38 32
38 15 11
157 115 115
11 50 175
249 148 169
138 81 53
27 60 123
108 201 95
2 13 111
252 93 235
189 35 23
118 250 87
174 216 144
241 169 83
104 157 195
38 85 68
210 66 35
55 108 76
52 105 229
172 19 219
245 229 140
223 60 215
231 184 26
74 46 145
252 3 37
102 175 1
62 84 154
17 198 224
88 173 6
214 115 253
94 122 94
96 3 183
222 48 165
72 239 95
97 6 218
26 135 210
207 27 101
131 136 98
7 24 45
86 68 199
57 174 120
19 186 227
8 150 189
141 158 142
238 229 50
165 195 171
100 85 182
208 72 221
172 9 173
11 15 210
191 78 204
121 107 144
40 116 200
70 143 198
180 179 4
86 96 93
3 142 133
188 176 150
37 152 29
132 240 82
218 217 103
244 37 83
127 9 254
117 160 73
120 228 184
4 160 7
159 154 135
139 143 146
242 124 41
95 44 100
88 91 47
75 221 229
106 219 248
123 130 123
69 178 255
212 21 242
25 17 232
7 84 146
114 215 161
46 108 173
1 250 80
151 222 107
220 161 242
175 194 162
163 63 211
25 93 68
120 189 43
101 99 52
34 1 107
54 124 101
107 136 18
2 59 218
141 159 77
142 206 61
3 81 134
199 228 52
160 145 21
18 25 168
98 147 124
28 202 105
172 77 58
53 132 152
112 246 117
108 143 9
231 163 226
240 116 162
133 71 29
211 211 76
177 129 2
125 200 100
123 232 185
1 215 160
156 218 116
1 7 43
236 181 24
58 116 89
15 155 220
25 119 142
177 228 188
86 17 10
210 240 235
189 215 85
245 226 217
143 234 70
203 222 250
105 145 224
158 181 170
202 227 6
59 222 12
250 114 157
172 81 248
244 156 55
27 227 115
106 81 33
56 238 155
222 66 16
145 20 65
198 185 168
29 109 75
2 56 12
129 110 46
83 232 244
205 230 168
210 56 65
153 167 108
5 125 175
12 76 75
253 247 133
61 167 46
65 69 241
40 23 11
76 132 141
77 122 96
72 10 66
126 15 26
195 197 129
130 194 205
58 61 175
240 71 200
242 53 245
14 80 11
167 61 203
114 160 90
50 32 193
214 129 94
68 184 6
236 20 181
101 135 215
188 216 171
238 252 57
165 252 96
221 254 144
14 230 14
162 42 157
140 194 42
1 140 121
101 72 156
104 73 26
103 148 249
60 40 91
147 156 176
83 149 19
83 82 175
238 42 217
123 77 8
51 168 160
189 124 120
243 67 121
171 100 241
41 222 3
213 240 55
116 160 229
41 38 1
233 247 141
190 102 98
254 24 235
12 163 60
155 91 122
205 242 131
103 2 63
205 198 217
31 234 197
203 205 222
2 242 243
252 93 87
110 215 214
68 19 160
0 188 86
226 163 68
210 221 46
172 6 241
238 16 204
55 136 115
132 215 232
77 243 152
204 93 64
200 200 140
241 192 30
38 45 216
124 176 141
236 73 191
210 251 170
107 142 245
167 6 153
223 233 115
156 212 32
197 217 135
13 1 48
95 205 221
39 240 188
150 32 9
12 163 102
125 155 241
153 173 244
191 214 142
210 200 99
171 48 181
134 174 240
66 161 109
26 207 100
71 222 174
96 174 82
185 43 164
215 252 234
162 36 15
254 159 234
1 238 164
210 114 75
189 251 171
120 9 25
238 30 149
122 244 205
237 20 74
217 252 70
39 252 239
161 78 44
11 197 89
196 175 138
152 182 37
99 138 86
211 29 11
113 110 213
67 191 226
37 89 142
93 211 243
14 38 81
136 95 232
17 76 188
251 110 69
227 162 226
88 104 72
24 31 21
251 218 201
61 177 94
214 205 156
23 99 9
192 159 203
134 90 208
91 157 246
97 127 132
43 61 180
88 186 168
70 148 163
219 51 49
158 245 47
139 86 145
87 72 204
39 158 117
113 32 213
240 56 59
53 33 138
160 89 122
165 73 230
52 1 101
152 169 98
148 223 178
127 238 211
183 195 73
246 192 101
26 146 38
10 3 157
64 249 70
88 137 228
238 161 43
2 89 245
12 115 141
7 113 159
196 211 35
241 111 200
131 252 230
37 177 181
165 185 141
15 111 117
119 72 103
141 101 131
177 88 187
241 183 26
234 180 167
144 69 236
239 201 78
200 165 83
134 148 145
109 102 115
166 103 142
199 12 62
29 228 27
214 21 10
0 214 63
242 123 204
62 217 69
248 38 168
135 101 234
134 87 191
116 46 165
226 232 182
238 84 33
11 203 166
241 255 77
250 152 146
236 28 198
186 92 157
54 204 21
55 225 163
95 124 83
201 94 128
22 146 157
57 70 225
93 37 160
250 24 115
113 176 163
90 97 66
254 105 26
16 205 168
14 166 206
19 245 148
136 39 223
222 143 255
171 189 250
102 169 173
165 224 149
27 67 177
54 134 126
143 71 123
207 114 182
214 64 96
210 38 99
162 62 181
135 39 114
197 21 94
231 234 251
66 120 105
60 169 39
227 233 115
211 255 164
182 68 6
18 13 11
225 20 148
114 19 139
201 201 125
149 55 127
90 123 236
235 150 16
221 43 169
33 47 98
4 181 247
165 205 115
43 244 69
211 65 113
223 202 85
194 145 116
50 88 210
141 181 52
202 53 236
206 63 85
238 9 107
114 67 112
190 208 150
150 174 133
24 84 23
24 125 107
248 239 231
231 37 69
31 168 34
11 177 136
95 6 69
163 115 114
254 26 214
109 39 250
55 163 239
188 120 203
204 16 167
150 19 249
80 88 217
9 204 155
87 243 252
10 6 66
214 72 82
80 250 158
195 229 33
233 123 115
35 223 212
24 9 194
103 76 158
130 90 80
124 180 18
132 191 88
204 165 246
255 240 148
199 142 207
107 171 170
15 229 219
191 143 231
80 52 161
42 122 49
254 249 194
211 151 27
205 88 55
90 86 39
145 228 211
209 21 211
180 204 88
227 199 220
34 233 230
212 57 177
16 94 179
29 16 101
142 86 119
163 136 146
48 14 146
36 243 196
13 14 157
39 116 164
30 244 131
174 176 205
125 154 253
60 142 174
206 38 233
66 204 244
74 81 174
232 27 241
95 44 172
97 113 169
119 164 143
240 78 163
242 237 145
225 70 106
202 122 149
249 199 225
58 120 178
156 118 127
1 176 115
185 248 171
238 105 218
184 119 4
79 175 57
174 107 248
45 147 248
80 54 3
29 205 78
25 88 240
184 46 71
49 254 151
102 133 203
112 138 86
82 129 97
51 11 7
4 49 106
234 246 69
102 77 189
8 25 109
98 169 218
35 223 49
252 36 118
69 209 249
118 203 56
231 2 138
129 3 2
49 59 132
99 134 162
189 128 200
234 57 92
227 205 4
226 190 214
32 84 110
115 117 218
112 202 80
221 80 183
225 42 223
205 33 55
181 172 254
127 156 108
67 11 40
19 50 97
134 238 191
157 228 79
179 176 72
235 78 105
24 247 94
23 51 254
191 188 235
200 38 124
45 101 11
250 161 11
130 143 68
251 213 100
175 211 115
105 160 79
163 42 120
29 239 239
129 232 67
76 124 82
61 150 75
41 215 152
35 195 250
65 211 99
60 88 147
198 255 136
14 66 64
225 16 251
61 17 136
89 173 13
68 227 77
100 193 45
71 231 165
131 22 71
36 152 167
170 191 181
248 156 39
147 62 192
210 98 89
44 74 160
125 186 114
192 245 123
80 168 65
228 192 96
234 129 37
27 119 221
9 24 255
249 48 25
65 91 48
53 30 23
158 213 181
100 93 35
13 216 4
150 41 196
22 107 71
245 128 220
66 155 133
69 50 42
180 49 136
55 201 194
134 151 80
69 206 189
37 201 2
123 31 233
31 86 225
2 72 92
169 165 250
80 98 84
196 243 84
221 253 251
71 117 184
78 188 141
0 154 7
242 193 95
148 149 182
50 73 7
56 83 129
103 146 117
66 159 5
75 55 198
143 134 47
126 185 41
23 176 154
115 193 204
156 243 234
11 227 170
121 71 47
36 138 180
150 110 198
2 22 60
75 25 171
170 207 3
185 118 219
45 37 199
239 45 138
120 127 194
194 138 208
88 155 184
187 97 135
84 140 78
25 186 26
98 13 145
12 248 218
43 82 140
27 168 32
73 56 84
150 176 240
119 64 55
15 187 219
148 132 254
111 232 96
82 33 135
95 205 247
123 81 27
190 35 162
215 187 106
212 7 145
40 95 97
64 231 40
244 205 235
79 125 145
236 27 198
194 79 12
33 232 70
165 182 23
73 152 239
114 73 205
0 227 246
189 108 125
210 136 78
250 58 113
140 184 230
189 223 182
52 109 99
118 215 186
250 216 88
209 194 251
82 135 237
27 185 61
130 101 69
191 181 189
32 14 203
59 11 212
123 109 239
131 141 236
224 38 61
200 110 97
13 195 170
220 230 15
243 162 251
213 2 70
62 18 245
161 208 98
32 112 34
253 220 150
185 166 1
169 121 156
147 213 5
112 230 177
116 105 38
177 142 211
41 118 44
45 149 158
158 239 208
23 229 219
160 83 221
50 209 132
231 140 29
227 107 113
186 122 4
154 97 14
38 44 8
202 7 57
189 34 234
81 169 226
159 134 165
128 12 98
205 228 58
84 206 84
138 98 47
80 23 114
13 27 86
50 18 84
21 178 249
122 161 131
254 147 95
83 160 58
234 213 28
55 99 219
242 43 88
107 16 100
247 42 152
13 224 198
165 71 68
243 242 190
217 247 145
28 170 192
136 30 218
54 129 2
175 31 154
48 22 91
3 130 88
135 8 77
179 55 197
16 74 116
76 31 64
144 35 33
214 88 60
106 191 184
126 202 37
102 96 17
89 38 216
212 115 19
183 39 115
104 113 124
231 224 221
190 107 184
135 207 101
52 61 71
33 145 38
145 39 116
111 123 221
234 21 34
231 80 210
140 148 121
145 209 52
201 138 78
201 205 8
49 14 65
115 18 93
133 195 12
175 100 17
8 128 240
94 105 102
186 55 43
197 19 229
206 72 144
253 186 122
199 207 114
26 120 164
227 98 29
18 136 143
33 253 142
196 198 82
142 109 117
182 98 111
7 165 171
122 49 175
110 108 157
187 198 210
36 222 186
31 106 67
49 209 24
197 233 151
218 41 234
17 97 169
48 145 111
145 199 59
2 121 46
136 40 190
233 96 128
161 91 16
31 157 12
153 94 102
131 251 91
70 7 185
191 64 83
156 180 213
183 29 90
83 144 236
43 3 80
99 171 85
226 128 172
146 250 231
242 40 118
97 99 228
71 178 85
210 35 148
132 16 137
75 187 5
150 123 243
143 23 149
133 4 9
37 231 246
26 251 92
5 185 169
215 43 236
182 249 126
0 185 211
57 23 40
247 111 94
165 103 246
171 164 64
42 251 252
135 237 111
214 98 231
145 22 92
202 93 141
62 122 158
142 247 53
98 32 159
221 217 131
174 79 173
236 189 9
174 109 201
160 8 29
153 193 70
80 134 16
97 202 26
105 253 163
169 94 221
169 122 93
147 29 21
225 155 229
79 8 24
205 66 244
134 37 248
204 228 55
156 186 167
159 108 220
82 137 192
94 77 143
224 142 127
59 215 9
123 144 113
37 233 66
94 236 157
11 161 23
254 137 113
218 151 200
111 121 234
11 118 252
187 233 215
108 161 129
192 171 116
154 254 70
250 247 84
29 125 7
39 145 64
17 99 20
0 222 4
1 69 61
74 188 164
98 254 43
35 34 54
232 152 111
184 192 221
121 163 250
203 18 100
152 25 240
46 76 122
176 82 27
245 55 34
117 202 58
239 152 33
92 4 146
252 126 200
2 98 72
96 143 176
146 26 139
91 21 185
219 227 97
233 129 77
1 132 213
228 19 108
197 77 125
169 134 89
232 13 255
26 156 196
100 242 151
138 180 197
114 206 50
255 140 130
92 61 243
154 164 69
0 150 239
4 193 146
41 171 61
81 153 83
153 199 66
178 91 70
194 61 199
246 1 155
111 46 226
203 131 113
97 0 75
107 6 180
108 44 219
100 58 116
181 78 152
162 145 186
179 102 76
154 79 157
138 74 3
212 42 57
214 125 201
58 148 0
115 12 152
31 105 36
44 225 65
230 174 60
129 172 56
169 177 173
168 204 153
167 112 75
254 149 195
13 218 143
112 210 171
113 141 181
49 25 80
140 204 135
113 175 133
16 179 5
67 28 36
200 214 6
67 249 134
42 106 38
13 171 138
254 214 128
108 227 66
168 129 187
150 135 56
29 130 188
219 45 178
225 54 140
180 193 71
253 239 228
60 37 114
174 252 146
229 237 105
254 176 10
33 132 91
47 37 48
79 93 91
62 100 185
242 45 104
43 225 28
119 40 25
49 244 58
37 160 74
232 52 232
24 72 50
4 191 96
137 194 56
113 72 97
109 234 66
166 135 20
172 192 224
34 224 20
224 223 33
33 89 14
125 62 3
186 65 165
20 1 46
160 191 163
218 90 241
243 90 98
105 144 185
34 248 241
42 75 55
1 96 129
18 30 193
214 86 103
120 52 110
0 37 212
211 221 24
34 10 46
223 3 173
46 86 51
204 244 31
205 243 126
184 206 173
208 193 250
69 125 53
18 71 222
166 240 146
103 207 37
226 64 28
40 204 40
45 64 15
200 125 57
109 182 161
5 125 68
159 217 68
151 228 14
225 24 47
74 223 5
5 112 70
187 80 253
133 2 181
66 162 247
92 178 18
172 254 211
137 117 138
169 178 217
41 79 101
41 231 193
244 188 165
88 139 93
250 213 163
131 72 177
64 208 75
69 43 99
251 2 64
47 16 173
139 45 40
176 121 243
22 46 139
44 241 248
155 83 0
222 137 104
12 176 52
67 121 178
72 149 82
142 81 108
98 5 229
51 66 241
250 160 215
119 121 77
207 207 80
60 183 204
207 179 99
106 96 194
18 241 81
23 82 233
197 207 124
112 42 69
92 101 219
85 116 100
180 116 71
35 6 25
150 148 73
184 160 200
232 16 95
248 187 156
115 180 12
206 127 251
168 13 156
66 183 0
40 87 114
215 187 191
110 248 40
240 204 114
148 37 209
13 28 62
89 97 49
32 25 107
199 250 178
167 71 112
129 162 155
244 29 1
229 25 168
113 66 114
69 255 60
61 7 157
115 140 204
154 58 54
16 155 34
221 178 235
208 28 51
133 252 70
148 92 188
200 58 131
226 77 150
132 240 234
26 86 9
62 98 5
119 15 120
1 239 52
138 8 219
22 46 125
226 157 144
17 201 183
86 12 109
175 98 84
125 156 165
163 169 77
146 62 181
202 64 199
62 81 36
95 16 203
5 7 200
219 233 156
253 137 193
164 141 25
70 91 45
157 238 149
119 73 250
147 242 153
122 216 35
173 3 87
74 37 172
45 10 49
94 90 54
139 98 15
96 214 247
89 191 114
214 101 139
210 194 105
75 92 217
134 42 50
74 215 247
194 232 246
13 156 227
141 142 235
66 155 196
183 236 98
214 134 102
69 15 87
207 101 115
5 8 163
138 169 204
208 145 130
5 50 252
103 48 111
8 202 13
5 43 25
79 120 52
114 156 229
86 87 152
205 155 220
182 60 227
91 185 127
25 230 118
43 52 222
62 229 120
196 184 94
54 138 114
167 61 44
239 133 250
153 199 36
73 67 35
68 20 20
96 214 128
103 250 151
30 48 14
158 117 134
249 0 153
170 143 150
123 0 88
205 67 106
231 95 128
52 197 13
24 87 73
109 57 141
180 160 241
27 14 98
254 164 90
228 3 194
147 32 64
230 240 76
9 0 32
27 11 118
118 142 51
175 119 173
110 156 57
194 161 169
93 164 107
201 127 102
32 255 127
122 190 37
169 118 201
106 83 95
134 232 218
145 2 240
154 175 115
173 238 255
49 128 186
222 37 155
181 64 159
238 168 19
196 102 238
210 215 113
48 171 163
13 205 51
224 59 153
55 143 254
196 87 12
215 211 100
41 36 132
142 113 77
45 230 231
89 212 17
176 190 192
163 228 171
157 161 62
60 109 120
66 201 169
219 25 88
37 178 144
158 218 190
181 77 212
48 247 116
11 100 136
203 42 97
163 50 2
123 183 3
211 184 76
46 3 77
240 198 244
144 235 164
85 111 80
82 250 80
88 187 128
144 142 235
145 208 240
177 60 181
63 141 30
210 250 44
117 100 143
89 12 95
189 203 178
149 233 54
43 31 47
7 214 97
219 4 19
51 197 150
165 186 57
12 181 34
252 35 194
60 218 38
232 124 5
128 111 158
44 142 189
250 154 25
133 223 131
98 236 150
236 146 241
48 231 35
145 79 250
130 67 226
114 165 46
115 235 150
119 173 7
129 159 75
182 29 86
73 233 22
37 207 39
37 163 182
143 196 60
141 99 183
190 48 110
52 142 165
198 160 223
81 161 151
132 244 204
120 91 39
61 56 194
205 200 57
39 124 211
17 34 115
45 202 32
91 15 186
188 107 138
177 167 239
16 115 158
191 150 245
9 128 224
141 239 99
56 69 199
120 171 57
84 190 154
161 83 192
142 141 204
220 110 79
203 85 11
96 60 218
250 38 243
152 125 144
10 221 102
112 70 138
233 3 163
124 79 5
143 198 119
41 84 203
130 122 22
60 203 51
212 200 93
2 141 63
199 167 0
155 241 207
217 149 204
217 163 151
29 143 5
147 94 29
159 26 158
234 106 39
84 53 233
95 68 124
35 13 162
129 91 180
7 49 79
222 244 85
142 89 69
150 154 77
55 69 71
161 1 109
177 149 93
59 142 190
19 16 227
95 7 142
90 58 186
244 121 104
198 12 212
88 223 19
246 23 212
3 126 22
55 169 59
57 106 148
146 20 115
249 82 8
63 11 247
21 84 227
17 211 70
190 188 248
7 131 0
46 72 45
254 183 45
204 43 168
42 98 251
147 219 161
58 84 195
22 146 151
232 161 104
123 47 125
58 199 157
240 151 183
189 173 0
76 251 28
178 83 176
85 138 115
239 52 12
74 234 97
61 225 153
99 171 243
112 119 101
167 86 76
10 5 219
199 76 124
165 39 153
25 83 13
161 243 184
1 63 90
81 180 87
136 206 153
141 123 45
4 78 197
185 87 19
5 61 230
29 56 55
181 157 48
112 247 25
19 109 249
223 95 170
65 68 12
248 9 62
105 184 232
158 186 240
134 75 158
16 194 128
47 136 41
157 98 220
33 40 13
172 36 81
137 129 2
233 169 190
105 21 207
83 90 248
43 66 66
224 61 71
243 46 179
180 133 198
138 159 205
72 254 200
252 31 22
100 141 136
23 181 26
194 205 152
191 98 166
239 67 64
250 44 83
174 232 66
184 216 245
201 100 22
145 95 251
33 67 233
87 125 111
138 154 200
58 238 65
253 166 44
103 118 49
248 139 243
62 96 236
99 161 210
207 128 112
101 58 69
227 236 215
102 55 108
76 220 182
232 93 176
167 103 245
29 155 103
183 217 136
104 152 75
133 37 245
124 99 235
172 253 141
203 111 219
146 86 156
50 69 106
116 225 112
231 195 85
153 115 31
227 116 110
231 246 187
250 158 132
159 151 157
238 118 79
164 244 63
153 188 180
52 80 249
104 206 45
13 142 12
159 209 10
66 177 153
85 134 63
5 195 152
106 126 44
9 93 99
145 178 147
234 97 87
17 32 63
29 55 52
102 236 175
7 21 202
54 47 252
12 68 231
72 74 184
126 77 0
1 127 75
232 62 119
74 161 137
24 188 166
205 218 161
204 151 128
254 30 175
169 196 221
193 59 225
97 37 179
192 152 73
78 97 216
230 133 167
28 35 33
43 163 14
134 62 36
227 70 56
134 29 222
212 217 70
73 237 158
231 172 238
118 166 33
110 130 57
92 81 33
52 44 167
91 3 240
200 20 44
238 13 105
224 109 135
96 123 207
154 34 116
47 208 82
248 239 8
175 211 90
183 209 20
161 255 105
204 152 71
133 50 81
34 169 123
141 204 27
221 206 35
55 217 23
168 226 249
120 36 8
107 124 208
19 155 95
31 72 196
17 241 161
152 182 232
67 154 45
214 76 2
136 183 148
131 72 193
89 74 228
112 24 119
12 134 183
177 208 62
44 175 158
196 251 1
83 151 61
237 205 135
11 56 137
81 184 147
185 158 141
55 201 16
39 232 120
59 200 102
40 69 57
219 221 250
88 182 32
83 227 44
232 212 189
213 84 55
93 99 39
15 208 224
81 177 15
247 38 118
56 72 162
153 166 57
178 98 1
49 134 26
19 72 143
71 228 101
101 167 142
216 1 105
128 142 254
0 34 48
159 203 222
157 164 179
37 195 172
166 166 6
223 48 18
122 225 246
70 68 87
186 18 120
240 83 217
205 255 126
13 255 215
156 143 180
19 81 233
10 22 166
156 0 26
210 106 175
109 147 8
150 118 2
65 24 145
250 238 209
185 108 189
142 196 175
15 162 73
182 43 114
4 165 117
186 93 248
245 4 224
105 171 192
44 53 168
53 2 50
38 222 183
7 76 85
221 182 178
177 107 252
55 156 46
87 62 222
230 11 148
6 95 95
48 175 99
104 222 6
147 241 70
236 188 69
233 122 187
238 145 40
90 93 98
106 105 136
119 40 15
37 202 28
177 41 74
47 231 28
32 4 59
66 88 93
149 204 122
51 143 228
93 40 127
37 44 7
249 198 63
61 76 66
159 23 34
111 116 85
255 173 144
34 193 129
7 120 132
127 176 212
11 212 154
26 59 142
91 248 72
0 89 184
74 222 91
255 132 191
112 167 103
171 124 160
133 85 107
1 62 97
171 69 24
40 50 149
246 110 91
178 144 43
252 72 255
241 85 209
159 164 124
97 171 244
170 104 59
27 161 226
37 14 212
7 96 155
202 149 110
162 46 187
92 8 230
76 180 174
94 118 66
48 107 117
74 4 233
156 32 107
179 155 37
159 140 250
31 92 82
146 221 77
95 242 75
84 196 232
144 57 221
244 149 127
12 161 18
168 16 112
181 116 136
73 245 15
211 188 223
142 113 78
250 190 120
149 191 142
60 61 210
207 18 212
26 124 110
209 223 181
201 99 12
83 42 48
173 183 144
212 29 238
227 113 188
236 239 11
243 116 232
234 213 80
78 251 105
59 224 193
172 2 240
12 138 55
55 246 182
74 101 71
237 249 164
184 229 30
6 11 170
111 44 99
137 255 135
154 46 215
71 13 64
162 43 163
27 9 11
200 105 146
112 199 82
41 212 242
104 184 93
193 177 225
14 222 139
115 212 7
255 44 1
121 211 71
68 44 204
4 10 231
144 76 66
142 114 43
234 143 115
192 87 91
106 107 43
235 245 194
205 71 84
231 139 182
134 207 136
250 11 114
3 100 109
208 10 3
16 239 191
190 168 218
151 138 109
135 246 14
81 160 162
38 192 230
113 136 34
73 139 134
245 10 21
15 39 116
12 43 244
236 213 237
120 249 143
111 185 215
76 27 106
147 225 138
3 55 110
200 198 176
88 18 148
0 27 154
209 230 178
22 204 214
179 85 229
126 196 87
121 201 95
110 129 118
252 69 118
217 255 77
112 139 200
94 194 119
224 67 250
243 212 21
54 3 211
232 189 7
98 108 139
173 200 102
105 160 195
161 69 144
131 204 118
216 250 16
85 226 61
233 126 145
127 239 54
117 143 101
195 150 27
16 193 4
62 230 31
241 10 121
224 229 208
126 27 134
179 189 48
26 70 241
252 232 186
25 200 191
46 210 103
251 109 145
62 69 108
74 96 240
6 82 180
58 127 73
105 195 201
12 216 219
224 233 182
13 126 107
223 197 84
89 42 41
208 168 152
165 151 238
66 205 251
222 176 19
55 243 40
8 230 84
69 8 208
79 244 186
227 99 130
218 228 187
226 102 200
195 124 88
43 169 143
7 170 34
18 249 105
94 37 57
177 235 22
225 192 243
196 221 184
88 231 10
93 208 13
140 34 150
123 80 245
69 170 99
75 213 194
250 23 119
181 61 110
140 195 243
150 20 59
182 236 244
195 119 221
152 100 19
80 87 10
165 228 235
243 110 95
221 128 248
186 186 10
224 247 197
231 2 133
81 227 71
48 52 222
125 7 105
131 174 85
193 75 1
150 196 145
36 95 18
248 103 238
250 153 151
255 103 151
123 144 29
5 23 138
25 98 45
231 4 114
5 193 24
95 39 82
11 227 81
98 194 207
48 93 6
116 19 18
163 225 67
80 231 128
111 2 97
151 214 246
248 252 194
77 68 124
25 148 102
61 175 48
39 174 239
199 86 168
151 157 186
14 45 140
238 198 102
76 71 25
180 92 104
242 205 62
182 34 86
211 1 181
229 11 29
96 76 75
183 55 117
172 237 155
84 10 138
193 27 49
165 134 150
217 110 146
115 239 109
81 73 153
7 244 117
200 65 17
118 253 247
18 163 123
238 129 106
192 117 60
209 116 159
214 182 150
0 115 131
187 114 18
213 220 194
154 113 39
79 226 14
113 30 250
79 156 72
107 24 41
213 39 35
88 198 254
37 97 30
138 168 179
120 232 60
111 22 161
102 61 32
79 56 45
209 145 177
116 6 19
199 158 170
2 112 167
37 226 33
200 42 29
214 84 188
132 195 215
45 178 26
19 181 74
252 16 101
118 156 197
210 26 188
213 9 117
30 245 204
141 167 152
105 234 44
57 235 241
22 205 195
69 222 160
153 251 153
48 239 109
0 192 58
109 82 127
61 72 182
231 227 59
221 36 138
146 212 157
136 71 144
49 123 96
30 188 82
60 226 226
40 41 218
182 204 48
233 117 223
46 234 107
233 31 68
227 28 251
195 8 53
5 66 24
96 222 52
78 212 182
48 85 228
155 147 153
83 73 251
158 105 117
199 238 166
212 74 199
24 250 254
32 254 164
133 196 161
187 109 3
91 8 73
20 184 241
45 108 112
29 36 98
17 108 111
17 216 110
111 156 228
129 215 209
182 38 114
149 6 85
168 215 173
79 162 214
24 111 243
191 12 66
179 35 101
41 53 187
151 220 11
132 57 20
0 203 228
31 65 10
35 136 194
78 185 126
208 246 241
220 233 115
245 107 25
171 110 130
187 241 156
230 120 102
194 237 129
27 26 3
85 184 248
240 245 10
2 175 85
205 13 82
20 229 79
32 144 219
135 187 145
49 63 108
98 116 81
200 203 12
119 32 130
22 48 246
96 228 229
215 113 8
3 109 8
50 18 196
169 186 97
184 122 177
225 236 5
245 254 188
151 39 0
218 74 77
110 196 180
37 236 232
254 232 139
103 59 239
218 163 113
194 185 100
43 225 219
144 67 119
11 196 156
27 124 192
101 30 235
209 161 232
87 163 23
71 13 53
11 76 41
71 6 60
234 61 71
130 47 197
232 249 229
6 19 203
60 178 56
93 216 118
21 81 236
141 231 245
23 181 91
140 84 13
182 64 61
1 14 232
79 20 196
144 83 29
152 24 84
88 61 215
132 242 75
26 102 20
90 103 48
85 152 251
15 30 41
244 233 189
94 226 107
9 163 104
151 89 5
190 125 180
81 43 181
98 54 128
63 1 0
86 44 156
143 184 190
202 130 58
178 217 223
28 210 136
115 61 12
167 113 5
111 101 73
48 96 168
201 37 203
171 246 164
132 15 50
228 127 79
234 163 112
180 133 97
178 99 104
137 138 56
135 51 176
57 96 251
110 223 110
184 103 146
61 123 149
171 144 0
55 16 147
66 23 245
17 69 210
171 243 93
162 98 184
166 67 145
26 190 14
15 70 36
227 196 1
46 14 192
28 103 64
186 20 74
44 209 193
179 70 186
15 240 57
128 109 104
219 47 40
222 196 235
56 82 232
10 9 90
81 193 199
61 211 193
107 38 40
7 79 150
47 186 144
137 146 180
15 24 198
124 53 149
91 115 207
135 21 20
40 30 203
130 171 42
226 149 165
160 171 83
201 172 184
193 177 149
22 90 134
225 129 133
48 121 109
168 104 210
97 101 225
66 154 149
243 64 186
34 18 29
171 40 204
219 9 178
53 108 152
230 142 240
143 3 249
150 146 46
191 198 176
240 192 1
104 181 130
193 28 124
185 82 84
135 129 210
18 232 144
187 4 249
171 244 181
90 142 236
17 104 96
56 80 39
16 42 5
50 133 229
179 43 206
1 25 137
95 234 156
81 141 105
146 42 180
202 179 239
199 144 140
167 16 183
93 244 202
172 66 234
15 152 40
74 28 131
202 151 211
222 78 201
135 65 90
119 100 13
215 247 22
253 53 47
9 54 251
145 122 225
54 232 68
87 234 42
208 29 199
107 160 166
230 137 161
73 63 234
156 90 102
44 120 98
200 206 233
217 151 202
120 4 226
95 42 77
11 19 210
165 15 204
26 94 215
37 45 199
154 255 60
174 29 172
175 248 78
159 162 248
210 139 155
79 23 197
131 76 20
130 138 75
80 171 226
228 248 140
159 49 170
15 3 107
244 75 108
46 34 116
94 142 144
15 124 223
44 20 178
59 57 246
26 75 195
215 192 50
155 205 196
109 32 101
247 202 156
187 205 119
216 210 1
203 63 130
13 101 36
87 113 234
14 57 2
101 71 215
213 114 69
212 78 241
26 255 91
63 92 251
65 168 18
110 247 127
239 246 98
20 86 138
120 55 161
15 149 89
76 248 214
189 42 59
57 248 93
16 66 241
58 137 56
254 68 45
10 78 171
0 190 218
247 248 35
25 151 141
70 4 206
87 96 108
102 176 198
199 114 100
132 2 208
155 180 201
23 176 217
227 162 148
137 153 103
62 78 136
20 135 237
222 118 74
189 112 87
177 32 38
234 34 143
2 222 85
84 132 103
235 181 89
90 152 241
74 52 196
31 16 34
50 76 100
146 4 166
148 210 167
7 34 16
81 134 24
89 218 178
62 174 197
35 71 48
5 192 87
72 252 187
56 214 109
172 110 66
250 147 18
101 228 26
42 116 191
179 218 3
217 250 86
163 71 198
65 87 37
238 219 12
56 171 159
28 230 113
56 175 196
44 248 150
167 22 6
197 237 22
234 105 157
157 141 181
206 63 195
79 166 104
49 246 240
142 144 9
12 132 8
69 72 142
133 22 192
31 233 228
245 89 70
217 47 50
3 241 202
227 98 43
108 225 59
167 113 114
158 206 137
246 74 159
158 45 46
155 42 62
240 125 48
226 22 23
169 178 91
102 24 148
0 30 46
155 138 170
205 239 171
109 245 239
112 229 199
235 134 33
131 244 195
72 224 59
64 252 184
29 66 46
218 110 99
64 222 170
97 96 195
105 36 178
194 106 220
226 40 117
213 158 11
118 10 54
170 162 254
41 40 18
233 71 147
200 229 138
195 212 197
30 137 204
239 181 247
222 18 120
201 163 62
58 196 114
143 86 136
200 194 86
206 66 76
121 55 118
167 227 38
194 242 217
245 176 147
37 176 38
1 16 28
214 223 14
121 88 182
25 64 247
194 40 100
62 159 2
157 37 58
32 57 146
220 200 211
119 9 105
29 118 94
102 176 138
122 253 94
149 66 77
244 187 205
158 110 101
65 50 163
141 221 169
181 153 100
29 204 25
171 215 50
71 137 244
36 182 46
188 177 204
112 204 253
41 224 110
249 0 219
195 160 238
58 69 97
137 218 206
254 47 7
5 174 139
5 16 185
10 113 66
53 150 86
110 170 127
84 246 32
51 198 95
94 216 166
250 36 13
83 105 169
92 107 110
197 238 122
248 23 130
203 61 180
158 103 118
78 24 121
178 114 35
119 191 208
158 95 208
40 23 16
114 215 6
156 0 130
2 229 166
157 215 89
3 31 104
203 222 215
139 42 166
84 190 12
30 184 222
170 138 221
184 19 161
63 7 194
110 98 68
110 82 202
194 133 75
167 179 129
246 83 171
205 41 90
98 83 207
179 181 201
40 24 252
231 247 24
17 144 255
25 19 92
53 97 68
138 22 65
248 46 10
247 118 78
162 94 123
92 197 90
65 225 188
143 149 237
204 90 206
67 171 89
113 78 223
230 186 10
178 146 125
207 165 147
254 97 210
7 27 209
40 18 248
63 118 134
114 111 17
99 125 6
222 210 167
139 84 143
234 225 197
103 42 117
76 121 202
167 197 119
21 31 9
192 237 80
134 185 109
65 252 237
91 244 5
143 38 107
219 37 0
247 249 104
181 147 127
70 142 243
102 170 34
173 91 32
98 254 180
233 39 201
64 227 156
82 232 131
15 190 104
154 150 1
220 114 196
248 240 31
169 101 134
175 238 4
225 179 25
214 233 216
6 238 110
233 52 190
219 39 210
227 6 239
188 11 83
223 81 228
185 123 74
130 129 193
37 11 32
55 130 31
66 76 229
177 131 56
181 58 159
77 43 218
213 102 165
100 52 184
118 181 67
131 213 213
197 248 211
45 21 251
180 156 49
122 94 124
173 124 189
78 219 145
122 80 69
103 77 45
175 7 73
116 227 172
209 173 142
174 172 114
58 54 161
224 130 16
253 146 147
40 200 182
142 243 219
202 21 135
73 48 77
174 11 23
179 193 222
203 195 247
137 129 136
119 136 15
179 203 249
211 207 127
247 74 96
233 191 238
62 36 10
162 133 138
87 236 23
199 254 140
172 117 213
15 26 53
49 237 98
183 106 182
107 85 251
181 22 158
176 106 218
144 81 58
16 190 29
138 114 159
31 156 49
169 154 142
194 156 124
86 235 206
255 195 187
220 9 143
42 247 172
206 64 109
182 177 100
126 210 184
185 123 199
118 84 145
100 241 20
51 199 149
192 220 142
227 249 154
147 123 53
16 184 140
47 42 216
118 38 22
119 167 36
179 237 25
241 195 246
238 253 91
163 253 201
145 138 137
109 145 194
48 58 26
113 226 177
188 93 78
141 241 168
128 155 254
42 141 255
98 156 61
176 2 227
145 17 108
3 25 180
36 69 27
227 56 229
218 10 57
253 152 250
60 5 118
73 148 3
139 53 102
223 79 165
1 104 39
5 107 166
96 4 126
131 88 60
31 59 218
183 71 41
154 224 198
35 129 31
32 234 174
237 40 212
98 58 150
36 189 12
170 74 217
84 179 190
225 149 82
150 54 63
224 250 249
93 77 167
39 240 250
132 108 150
20 189 149
184 30 29
113 61 156
81 2 231
123 146 206
81 28 158
6 4 214
216 9 103
89 134 233
40 152 148
100 72 106
133 167 120
9 76 2
93 98 138
53 162 195
156 165 197
101 134 203
49 76 121
224 0 30
215 98 36
224 154 8
112 48 11
39 95 211
189 227 155
9 56 156
139 115 79
43 9 157
44 82 100
210 166 98
123 138 240
204 110 230
166 92 219
133 160 146
131 139 0
223 59 213
36 58 24
166 148 170
28 248 229
82 215 150
28 23 135
115 197 239
74 5 243
247 227 87
85 148 217
169 112 144
232 173 24
187 111 7
177 54 54
40 184 88
225 80 26
53 15 66
106 149 133
203 206 60
167 77 192
207 101 153
198 15 239
157 113 211
58 21 170
188 238 203
34 232 122
72 57 207
174 79 170
50 2 36
57 239 15
165 79 129
173 247 65
199 94 13
171 68 241
181 24 64
79 64 224
102 236 218
129 168 37
35 236 51
93 3 37
225 118 79
80 142 170
233 42 139
121 139 82
218 163 99
100 70 179
81 16 112
97 20 217
178 181 126
2 110 197
115 7 115
230 82 211
85 59 187
58 11 220
51 93 235
57 107 38
42 117 12
24 228 45
6 57 40
239 179 176
187 23 220
46 87 110
181 240 55
69 97 104
109 114 112
109 76 40
24 219 187
255 148 139
175 234 184
71 174 179
183 184 97
78 23 221
147 196 118
107 112 191
244 92 204
12 137 196
191 246 160
53 39 55
215 104 247
32 229 172
48 161 194
148 235 130
213 197 239
173 206 39
157 160 103
140 238 96
44 59 188
238 67 50
108 184 173
73 218 98
128 37 185
130 117 139
29 76 250
193 90 139
146 245 110
219 161 170
81 94 165
57 174 6
46 136 151
88 42 144
2 134 22
155 61 149
199 139 231
203 8 149
131 151 133
201 175 88
211 205 224
139 236 66
142 4 96
115 44 208
198 89 237
133 132 237
188 116 156
17 252 157
102 6 29
77 23 171
252 110 85
123 239 5
19 162 86
233 104 100
28 35 23
78 158 180
114 99 188
209 227 180
68 69 179
224 141 42
76 100 45
247 233 187
17 22 165
231 195 223
235 50 10
72 91 148
168 51 149
167 187 229
1 12 218
209 85 76
198 12 80
226 120 235
231 51 71
11 166 55
151 75 236
200 241 194
90 245 36
129 112 193
183 59 88
49 198 15
188 26 214
74 52 234
250 235 28
34 63 38
105 153 5
104 70 70
34 64 138
155 218 134
64 51 129
28 197 24
90 22 210
59 171 104
216 126 154
35 130 212
96 193 135
84 77 140
22 161 12
234 51 132
33 220 47
111 251 12
106 2 209
148 147 221
126 27 177
45 135 6
204 219 22
95 147 154
240 18 23
252 21 204
157 165 7
239 142 254
122 251 177
107 30 30
38 111 187
101 8 231
181 53 15
196 250 173
160 49 187
76 250 67
188 160 14
127 96 51
118 75 87
172 138 63
184 222 243
222 245 240
154 101 112
150 129 87
167 95 147
66 98 5
238 15 23
36 92 6
36 243 50
13 18 231
22 53 199
250 220 172
209 189 87
111 47 179
59 203 182
111 122 166
236 116 129
9 148 33
60 253 108
249 190 82
191 170 8
169 4 103
126 164 96
55 235 15
44 92 165
249 31 54
201 198 76
155 193 243
106 104 249
52 223 176
242 115 190
23 85 33
180 53 39
209 130 82
37 179 5
45 252 199
202 39 123
241 117 125
183 236 229
178 237 202
16 239 156
253 201 117
135 40 85
126 44 87
148 159 186
19 149 122
216 42 250
169 16 37
97 134 129
158 104 170
88 135 57
169 211 170
29 251 141
215 133 249
205 200 28
152 181 182
214 91 28
246 250 227
159 91 24
60 212 188
176 254 4
210 27 132
212 241 41
0 237 196
248 9 44
38 124 72
11 97 163
50 74 18
5 158 28
80 24 157
67 98 212
243 39 172
216 195 17
199 72 202
169 231 122
210 19 200
67 197 17
97 121 15
235 236 84
188 205 221
10 134 44
71 32 169
170 116 27
122 24 30
97 71 245
169 161 203
234 44 232
235 200 90
1 251 118
246 11 107
135 183 62
194 45 98
160 66 14
106 91 248
192 223 114
85 146 229
156 106 45
128 136 18
27 243 17
91 125 45
209 106 153
99 208 184
23 188 233
75 86 169
69 164 30
88 123 193
172 17 247
194 116 211
102 228 87
127 176 37
19 226 117
4 79 250
94 204 253
147 125 55
31 248 99
182 63 59
118 93 108
215 175 171
174 44 8
42 212 115
136 35 157
9 20 83
28 165 255
55 194 170
2 42 74
10 39 228
153 44 191
159 92 222
172 235 46
3 146 70
165 225 51
238 190 22
127 80 41
130 10 184
208 252 133
75 249 206
102 79 67
176 127 36
186 247 88
189 162 134
213 6 196
205 153 0
48 6 106
109 116 60
135 225 186
198 219 29
55 70 145
4 35 182
1 78 31
99 250 250
186 209 197
151 157 7
121 228 170
234 74 120
220 122 166
19 68 242
0 154 214
125 178 68
244 76 148
50 240 51
200 15 250
198 87 240
208 29 24
210 225 23
40 188 11
82 223 186
61 140 242
191 213 21
191 147 75
106 255 86
245 39 156
172 114 202
221 65 56
128 146 169
252 79 18
181 83 123
130 173 157
96 160 2
157 29 115
93 215 107
147 184 146
113 52 29
67 202 67
252 43 212
167 166 62
128 46 160
134 243 78
221 187 174
241 153 54
120 79 148
22 217 153
104 151 223
235 4 231
1 50 194
243 101 201
231 175 251
146 53 137
5 185 223
144 125 225
127 112 160
236 24 110
192 77 104
120 211 21
9 153 35
31 30 73
125 35 197
159 144 91
115 228 42
81 27 18
19 232 90
52 98 16
57 184 217
190 108 22
245 134 60
3 196 217
213 190 164
21 197 117
244 251 24
242 143 196
192 89 112
130 80 103
50 119 79
48 235 220
1 62 66
57 215 36
97 222 240
117 186 159
207 67 18
203 55 193
178 7 204
79 157 218
97 56 59
185 192 249
161 172 206
125 121 173
159 215 96
218 37 127
190 146 95
223 250 240
1 139 175
87 86 244
255 123 5
45 42 179
209 94 76
36 39 146
251 25 44
176 51 151
7 7 248
95 113 11
240 12 58
134 62 248
60 250 20
10 90 202
198 18 14
48 169 89
169 24 39
33 70 60
160 54 227
80 48 118
3 67 138
157 84 89
48 149 32
183 138 39
188 73 141
187 149 230
98 57 132
216 97 241
141 195 63
94 205 150
34 88 253
230 204 240
59 122 2
87 186 70
114 197 239
46 11 173
194 170 150
155 59 148
123 242 2
16 172 197
226 67 54
26 226 33
45 195 182
0 222 115
22 141 51
63 40 89
190 75 135
187 147 62
5 122 114
164 118 192
57 203 167
137 194 15
154 195 3
212 110 34
19 254 224
237 163 210
149 101 239
235 154 148
78 11 2
246 26 77
233 174 245
189 168 57
191 88 26
152 121 161
133 221 101
218 20 135
232 18 145
220 51 39
149 38 135
227 106 137
103 78 25
23 246 175
190 156 150
219 67 250
158 129 226
66 203 199
126 43 148
163 35 63
89 75 23
50 138 200
149 83 123
248 172 163
18 169 11
55 24 243
38 216 160
170 196 139
193 139 104
40 250 242
174 72 126
92 46 63
57 203 168
75 9 28
241 189 50
46 31 208
145 165 145
249 240 93
123 90 69
202 206 227
4 10 106
76 85 71
16 163 165
47 184 200
5 137 1
72 156 143
47 20 240
69 73 95
141 254 23
30 240 212
58 152 176
194 40 138
60 100 172
17 166 212
105 35 185
123 151 185
124 207 101
179 2 14
93 233 210
176 106 69
29 137 156
17 241 22
252 64 211
235 96 11
53 193 184
194 133 57
70 143 23
57 57 196
219 129 182
152 252 248
173 0 252
122 68 20
251 249 22
201 191 152
72 23 244
210 175 115
112 248 74
133 130 95
119 183 211
211 165 22
160 3 77
42 6 207
78 95 21
43 35 106
44 103 182
70 78 200
33 59 10
187 88 208
50 100 33
153 190 203
184 81 140
249 107 120
47 223 227
170 201 139
166 54 16
61 240 55
7 32 128
109 213 97
213 220 91
115 149 123
136 181 187
243 32 64
111 158 186
23 195 244
126 238 199
171 224 160
50 110 233
245 215 214
173 59 26
147 21 163
190 221 15
50 10 149
94 149 189
16 114 227
0 122 136
108 230 24
141 208 209
153 169 200
24 166 92
213 76 119
171 1 225
9 61 88
199 220 188
98 158 159
126 214 187
9 171 31
166 104 245
215 132 23
51 107 152
44 145 95
110 69 48
125 182 107
177 68 149
176 5 246
46 103 5
65 254 65
154 87 160
235 2 169
173 179 249
96 84 151
206 62 31
106 223 0
73 251 205
211 1 32
29 17 184
210 177 120
183 197 137
1 162 70
59 199 190
48 45 5
41 59 112
146 252 67
168 236 108
24 210 85
173 90 178
67 135 194
152 158 145
246 28 60
177 5 168
236 49 236
221 248 30
178 241 26
183 68 46
84 25 35
169 55 241
16 195 190
174 157 163
149 42 251
81 181 62
192 20 62
22 108 97
85 54 191
30 127 243
99 147 115
168 153 132
202 195 26
137 220 139
158 80 233
87 64 66
81 255 94
190 30 31
234 83 245
244 184 116
80 164 230
65 170 3
38 148 118
216 64 229
168 141 70
162 83 175
215 213 252
83 36 193
98 161 236
176 70 5
189 157 46
198 59 35
168 206 131
64 253 180
129 195 255
5 44 21
10 212 120
228 139 143
52 78 15
227 33 216
143 194 101
19 107 163
250 243 241
33 174 212
191 11 137
82 88 9
212 22 13
101 127 2
32 80 213
55 199 248
131 182 106
180 186 34
118 223 216
120 227 28
186 156 211
214 182 252
49 40 163
40 235 215
35 130 24
187 156 9
37 42 229
37 193 153
178 203 56
143 255 130
27 73 189
202 21 90
148 227 30
249 200 121
43 63 238
73 166 202
165 114 83
97 136 135
252 56 229
161 210 28
218 132 155
7 189 42
168 194 96
64 32 44
83 86 173
133 115 86
106 170 95
166 120 67
17 250 207
28 26 8
25 64 198
68 192 87
17 222 160
104 11 153
202 203 60
197 160 69
223 216 74
109 122 81
77 167 103
181 49 227
244 45 250
136 145 75
228 200 194
62 243 91
91 59 234
133 61 16
191 20 47
85 154 200
96 15 88
38 18 237
166 253 96
239 173 247
11 149 223
208 77 89
188 173 183
0 118 71
5 199 190
252 112 144
149 50 134
194 45 171
171 77 1
23 215 213
90 241 28
58 179 4
241 149 173
97 100 223
42 204 166
71 115 157
71 45 223
24 18 82
12 255 77
28 48 173
222 27 255
136 0 1
116 125 39
73 39 61
189 179 20
245 130 122
220 37 16
119 117 119
128 4 86
125 255 241
244 22 194
91 49 97
222 105 65
85 141 43
161 107 173
191 104 118
243 164 188
89 211 252
146 193 24
139 4 135
39 70 159
221 162 89
190 44 120
88 63 2
46 142 167
139 243 240
199 59 115
240 4 139
149 60 89
149 76 135
104 73 58
221 11 206
98 41 52
198 224 110
202 117 22
5 157 75
253 62 231
8 36 227
38 150 245
134 191 22
90 211 251
80 216 77
224 30 90
161 37 104
118 57 207
62 223 251
77 244 184
214 1 126
58 74 42
171 122 233
239 151 126
202 229 174
218 81 151
197 166 6
1 233 208
232 241 252
78 230 248
30 226 238
92 34 253
162 88 56
126 58 25
220 46 78
138 209 104
112 79 44
55 146 250
108 65 55
39 184 17
220 169 126
114 152 231
96 88 124
170 221 118
217 232 71
54 136 227
17 27 50
18 18 170
219 251 98
169 232 170
22 60 193
85 38 88
67 88 160
230 107 133
91 25 252
43 46 4
61 79 204
59 132 177
225 137 162
159 17 125
2 91 28
230 172 144
249 155 50
154 193 17
6 15 19
138 108 205
125 39 104
184 179 40
33 112 131
25 163 33
240 206 247
155 36 228
158 140 34
73 159 40
75 6 231
83 35 239
34 79 229
218 105 61
137 167 79
192 219 114
143 141 118
68 15 90
74 196 138
196 120 127
109 74 145
192 74 195
125 16 10
175 146 83
144 240 233
60 8 97
240 249 216
197 96 69
121 210 103
236 248 207
9 70 247
233 194 158
199 72 255
173 231 74
7 102 179
74 195 57
75 176 238
200 199 182
15 99 101
160 222 49
116 105 114
68 232 230
186 121 220
89 203 9
92 222 12
132 79 59
186 57 183
78 196 11
123 178 233
255 235 235
203 41 195
165 116 166
33 10 99
34 197 135
187 195 162
102 204 106
201 173 92
131 28 88
68 250 157
74 31 203
22 37 199
74 234 57
218 48 97
117 46 113
113 6 83
85 48 100
8 230 206
18 64 233
230 153 122
24 245 171
106 196 15
90 187 239
84 148 167
50 18 131
213 110 186
187 108 113
76 251 225
89 145 188
151 78 233
25 217 221
86 119 83
111 108 65
138 12 233
43 22 118
234 238 247
229 244 77
184 150 14
176 146 162
162 56 11
99 197 119
35 61 219
22 38 154
126 58 43
99 108 228
168 169 56
227 147 106
176 122 164
224 154 83
127 26 230
242 17 202
2 255 25
105 31 113
195 140 168
174 239 224
130 180 226
226 32 112
170 128 211
102 232 88
249 61 56
135 195 245
190 168 222
211 121 186
216 169 98
190 186 75
122 87 20
116 131 239
160 211 173
155 123 4
218 117 3
167 239 114
96 219 18
25 93 88
219 126 40
163 175 213
74 180 121
161 168 60
166 223 156
53 123 234
209 108 168
78 197 209
206 120 153
83 75 254
44 238 107
205 37 171
250 116 141
212 129 96
248 121 37
158 30 123
168 29 41
219 197 91
228 67 36
231 25 227
175 221 185
20 20 173
31 232 206
16 127 77
118 0 5
41 64 254
237 175 128
217 87 176
242 44 233
128 139 60
56 55 217
106 217 141
106 139 202
236 224 108
220 166 16
194 107 167
102 74 141
13 255 67
57 85 80
168 148 105
237 188 224
220 161 112
15 246 166
129 52 69
245 195 70
16 246 212
1 86 215
213 224 171
18 235 81
209 1 30
125 174 142
199 220 151
97 114 140
44 137 7
49 49 252
187 122 58
212 71 72
153 164 125
220 187 230
23 147 233
59 29 112
170 234 98
96 39 8
20 149 189
152 99 87
110 173 2
109 118 28
136 128 240
169 77 48
167 42 157
89 86 205
38 238 216
94 21 146
20 211 126
80 51 154
140 238 65
231 85 189
27 121 202
5 248 214
122 133 4
76 121 184
6 226 219
122 37 45
10 213 254
74 18 187
30 244 172
24 180 89
149 189 138
15 157 209
77 226 248
89 66 251
85 24 251
54 124 186
127 49 108
31 226 30
15 1 210
54 201 50
156 177 129
61 250 185
233 112 254
43 175 124
7 124 80
177 22 250
238 66 171
6 91 101
14 216 58
116 59 105
66 230 253
47 39 19
48 46 183
40 7 97
212 8 67
29 182 119
241 117 83
169 74 181
142 95 160
239 247 251
168 54 168
36 150 65
223 235 235
152 89 108
58 228 145
69 3 253
169 65 130
29 126 43
226 124 18
183 238 205
243 100 13
195 128 209
75 37 21
53 0 188
63 249 58
114 218 128
52 207 232
68 51 80
199 71 219
12 19 223
216 222 112
102 203 143
91 123 201
97 15 223
104 132 163
142 132 51
55 238 57
4 157 79
249 31 213
69 16 135
102 228 160
80 94 206
220 66 242
98 143 233
50 168 33
202 59 58
217 97 235
207 55 4
53 184 56
46 63 208
166 232 220
149 180 33
242 234 255
196 175 152
157 67 207
188 82 110
15 146 179
197 133 134
11 167 93
51 29 153
10 233 237
235 62 200
124 94 206
253 227 226
60 210 74
49 161 34
121 214 150
13 184 102
10 181 61
190 9 136
107 111 220
133 211 23
76 105 219
46 220 207
3 179 19
6 153 219
2 191 152
223 10 155
93 121 116
62 163 111
146 188 52
221 108 243
8 31 122
71 159 140
61 108 250
251 134 128
176 203 132
56 146 4
162 225 69
144 150 45
162 31 10
205 77 104
58 193 69
102 217 217
15 222 126
56 0 236
217 19 22
180 32 221
57 53 165
166 156 165
61 16 22
212 186 251
3 191 95
210 47 12
126 177 124
90 220 148
17 169 161
45 248 33
176 53 225
252 44 80
119 225 242
229 190 181
216 62 230
205 194 199
235 202 77
146 219 153
240 141 132
0 255 48
60 197 138
222 36 52
217 230 211
74 132 148
220 49 227
9 63 162
240 253 25
245 180 105
164 91 143
204 222 168
215 134 202
222 255 151
121 245 228
17 245 32
149 10 53
165 229 187
153 37 109
173 174 225
55 207 185
92 237 21
136 159 38
15 235 3
133 160 2
34 3 207
94 23 154
236 200 65
181 113 75
140 248 165
41 200 150
10 133 0
106 46 49
246 226 60
198 194 77
198 36 237
210 247 119
40 239 105
48 13 132
192 195 46
113 153 82
160 33 87
86 32 176
70 163 7
74 76 72
115 176 30
135 167 103
40 225 91
234 61 185
49 71 68
58 129 51
193 45 145
170 44 168
206 227 182
31 3 107
118 143 139
26 209 255
224 82 166
249 52 26
72 116 146
44 248 143
75 252 119
150 88 249
22 175 169
140 86 74
218 164 218
2 94 91
206 9 182
73 13 237
92 136 120
140 1 0
162 100 4
254 20 16
132 79 123
112 155 34
29 100 27
198 226 142
113 69 118
41 138 248
20 6 240
226 80 127
222 94 63
250 85 76
116 141 38
172 128 177
9 102 11
16 18 7
41 115 148
169 65 186
67 59 254
90 91 51
143 8 161
231 234 19
0 113 86
63 63 195
86 202 157
215 200 44
125 221 56
70 70 166
92 166 60
22 183 17
51 210 38
12 92 192
135 160 140
118 114 183
207 7 202
148 160 230
138 203 201
25 86 13
202 83 185
246 237 105
213 183 198
1 97 125
143 20 10
64 85 75
212 124 138
19 155 159
252 44 41
18 11 106
103 103 216
28 106 203
139 42 232
245 6 106
166 83 2
111 40 60
191 106 108
194 185 67
96 4 163
223 2 158
165 213 178
131 113 122
77 62 91
21 224 131
88 154 55
86 226 192
130 203 60
52 103 35
211 166 246
65 75 119
165 62 3
140 193 146
207 45 234
83 65 207
253 68 219
214 11 29
69 202 245
103 78 58
3 228 202
191 186 201
159 234 193
31 34 176
144 54 91
108 81 216
164 203 242
154 126 9
132 128 78
228 122 73
153 214 26
76 219 158
121 132 93
63 140 188
195 223 147
212 4 90
165 154 109
6 194 193
192 168 65
215 203 102
131 160 20
113 222 46
241 56 243
18 192 141
253 102 181
208 153 144
228 115 58
91 232 174
243 150 189
0 104 175
228 149 72
250 255 2
197 233 154
194 190 182
31 48 247
231 11 245
241 151 78
241 253 81
58 136 178
160 102 133
100 211 185
16 95 199
47 240 188
115 127 192
206 182 254
170 84 20
220 217 136
235 120 136
96 156 130
182 233 70
81 109 231
11 157 11
57 157 201
249 162 134
17 82 182
42 222 64
254 231 140
253 185 82
142 59 117
184 233 231
12 196 245
12 5 167
135 144 179
145 80 255
48 136 210
233 9 61
107 80 84
53 76 178
84 159 153
193 250 115
70 87 217
120 3 51
163 144 46
11 44 141
251 216 35
160 203 55
95 94 125
254 0 221
73 67 37
191 231 88
88 219 65
227 38 239
254 150 169
128 197 51
218 230 212
35 121 205
60 193 231
110 103 203
252 1 213
242 220 2
214 45 88
170 16 240
238 46 57
191 228 175
150 223 122
26 3 208
141 235 89
100 106 237
143 141 115
160 100 216
55 77 119
243 230 155
76 17 46
117 1 178
208 229 17
48 50 85
176 187 74
4 173 0
195 10 161
156 140 93
97 92 139
217 203 154
6 201 203
152 147 75
10 192 84
145 89 216
164 72 137
117 38 60
124 65 168
19 150 36
232 7 243
228 100 155
208 195 104
118 196 175
78 19 68
48 69 88
181 66 97
35 77 239
85 228 12
72 49 68
160 237 200
224 117 164
92 19 226
253 26 49
150 204 70
88 23 124
175 165 22
189 232 9
193 245 80
154 70 121
114 78 77
128 171 86
45 121 35
224 237 227
190 73 38
34 64 213
94 249 128
91 63 239
100 250 132
248 196 196
225 78 88
57 45 186
254 19 133
125 87 52
112 80 71
78 76 123
35 50 6
214 149 192
4 11 109
189 210 188
13 210 4
227 79 68
130 31 125
63 71 140
205 29 66
72 211 82
28 55 182
162 166 154
253 118 182
224 224 154
107 16 128
147 233 180
137 9 29
239 66 222
156 136 29
81 58 23
51 118 174
253 71 1
29 212 9
175 87 72
200 117 147
14 169 222
95 122 149
198 102 27
1 91 240
102 86 89
47 76 169
220 91 57
80 232 35
114 231 132
66 176 12
217 155 251
179 102 166
255 52 17
120 89 61
47 206 92
39 28 168
166 107 53
231 37 10
177 49 222
43 147 121
26 172 92
18 252 6
231 62 118
33 127 211
86 190 22
56 70 184
226 240 159
176 127 1
155 82 69
231 43 220
120 17 223
220 221 62
40 164 100
182 172 36
183 231 245
184 138 68
20 36 184
224 126 255
19 19 9
156 48 60
228 103 137
6 125 222
77 51 241
119 34 171
172 189 1
209 37 219
251 22 42
37 226 94
183 229 28
254 237 91
232 96 174
7 127 159
135 28 40
85 52 244
93 50 138
199 50 57
54 84 51
162 247 150
202 234 118
173 65 64
109 201 102
134 165 145
151 166 22
75 86 99
248 204 171
230 117 21
126 79 153
103 181 122
12 199 92
166 83 84
218 105 251
82 255 19
164 124 14
57 207 8
102 177 89
31 255 146
70 250 31
157 80 126
32 39 10
99 189 28
25 157 126
229 91 30
130 195 144
1 81 64
106 119 255
76 82 245
184 59 64
238 245 116
51 147 87
251 158 82
53 175 251
10 203 38
97 238 80
18 96 59
3 120 198
201 122 165
230 139 247
26 124 85
44 253 114
40 207 209
116 200 240
172 51 187
45 145 158
211 41 237
77 186 209
59 235 134
33 199 167
78 11 134
57 240 94
21 197 25
181 21 191
62 118 59
162 244 32
14 98 224
20 26 120
125 124 225
151 7 182
155 64 127
229 189 242
120 136 82
171 207 88
118 53 113
37 72 115
24 252 72
19 4 57
48 21 161
205 229 74
228 102 108
47 73 175
142 154 159
192 4 221
245 153 35
165 231 9
121 177 196
237 38 82
171 148 121
120 132 188
63 157 76
234 65 61
28 8 85
217 113 222
19 135 167
204 44 11
102 227 165
99 208 114
147 136 194
119 120 0
160 178 194
13 42 255
106 166 193
50 36 254
17 151 29
102 222 251
64 71 100
114 87 186
48 115 224
226 36 73
205 203 210
125 122 110
54 57 127
8 120 100
23 44 66
96 43 129
41 128 230
205 90 215
26 95 245
202 213 37
14 234 85
128 73 184
132 228 20
148 110 177
77 1 88
164 237 202
20 0 75
136 247 175
25 172 33
96 97 16
44 19 177
79 221 53
37 50 50
199 117 196
169 219 250
50 69 7
76 191 190
37 1 7
159 41 94
115 234 100
127 144 16
157 114 52
5 150 144
32 203 255
28 230 209
138 165 235
74 58 253
144 185 156
173 120 164
243 64 75
176 139 5
120 157 174
44 41 120
194 89 233
29 10 31
85 215 47
63 201 2
142 129 4
218 187 146
189 100 145
145 213 171
200 96 240
78 168 183
147 80 226
48 30 170
132 29 35
144 103 181
182 98 94
228 111 107
94 216 130
144 231 152
155 206 22
60 130 11
214 189 113
107 21 53
242 216 184
190 18 72
89 211 243
160 199 1
225 183 228
112 215 13
54 238 234
24 46 2
224 180 120
60 182 14
226 162 167
213 146 49
172 6 192
130 28 197
145 116 80
220 105 160
173 21 33
208 164 209
62 15 142
91 217 96
125 157 225
134 166 221
206 64 172
202 243 30
186 236 1
158 216 41
93 229 237
209 0 54
205 58 11
12 8 51
87 100 16
134 4 40
91 234 102
115 194 97
126 58 248
106 47 98
138 66 253
202 252 63
153 170 140
249 31 207
226 25 96
35 255 185
170 43 86
221 177 133
196 35 128
27 108 156
240 174 31
91 183 45
190 20 40
233 48 74
191 168 130
235 77 124
82 241 220
246 123 193
103 118 255
232 52 109
90 238 118
213 141 212
180 129 69
0 83 159
169 145 47
166 127 26
70 170 74
165 87 211
144 196 16
236 74 238
29 182 177
23 8 237
77 46 79
65 78 76
129 143 206
54 223 47
223 57 33
51 185 101
191 20 225
31 79 57
55 104 242
249 170 187
47 188 6
217 128 156
247 91 160
120 180 192
110 35 12
78 210 21
1 30 37
164 231 85
233 213 223
227 46 204
31 63 94
18 150 135
30 181 211
13 141 10
96 202 13
135 21 223
24 6 168
70 134 214
47 231 21
61 30 142
251 124 239
163 95 139
235 232 208
225 221 115
91 126 156
181 201 30
190 98 27
62 210 135
99 26 40
126 160 58
53 141 29
227 234 248
127 222 58
252 140 4
57 178 221
138 18 183
34 84 189
35 132 246
147 238 78
58 170 242
11 176 253
109 88 142
191 208 179
48 206 30
158 69 202
112 162 75
130 137 45
150 13 207
50 71 225
176 240 109
250 109 215
128 195 189
188 36 139
79 200 144
21 166 44
58 122 112
120 90 190
98 168 92
1 201 189
71 156 73
49 114 201
194 254 70
151 98 24
159 95 119
143 211 227
214 238 15
147 144 236
83 139 54
13 167 218
82 6 103
210 182 195
17 147 152
236 17 156
24 164 98
200 2 121
158 34 68
151 25 143
34 80 128
82 42 177
111 216 186
14 140 75
36 219 32
70 163 250
246 140 243
158 64 147
181 245 207
150 139 172
2 98 4
249 117 162
246 93 128
150 201 134
86 6 249
148 80 24
38 219 181
76 95 99
135 124 229
118 88 73
96 127 209
76 248 112
9 124 242
30 14 38
194 134 223
4 201 17
101 154 34
3 197 82
139 161 219
15 46 20
111 117 232
202 94 103
170 17 96
180 93 117
229 123 214
73 194 227
187 56 34
242 91 173
64 113 126
207 128 245
0 230 34
85 159 151
228 141 122
232 71 33
201 234 188
222 200 197
23 246 42
220 84 52
143 51 214
24 140 187
9 181 213
86 211 160
143 192 73
120 141 31
166 208 255
255 6 134
126 149 122
209 36 186
12 95 36
192 210 92
0 136 139
172 143 112
195 39 143
234 97 242
64 14 173
167 70 224
196 206 194
144 247 5
62 145 10
215 50 97
119 23 3
68 237 70
71 173 19
109 48 9
59 252 12
224 179 234
190 172 59
144 196 11
165 153 55
127 133 125
10 11 140
34 131 96
0 82 17
145 91 62
230 170 17
175 32 187
195 210 81
195 252 67
145 46 192
157 224 73
226 236 40
131 221 96
233 147 233
48 111 207
134 176 44
53 240 62
239 189 165
19 29 254
6 179 97
31 108 55
208 122 190
10 187 49
135 217 60
221 243 204
131 83 109
55 96 73
203 171 189
11 130 232
128 79 9
86 202 152
83 255 239
240 7 73
150 62 94
65 142 222
233 64 80
100 217 90
237 71 167
59 84 66
175 117 119
243 205 135
82 73 31
44 5 58
178 125 1
8 192 0
17 74 53
11 55 179
145 171 196
64 137 137
242 30 148
129 88 205
109 170 200
3 28 29
149 99 23
249 54 131
153 162 92
127 166 2
123 143 140
23 232 151
63 142 107
216 90 190
125 236 253
167 87 255
219 222 193
126 93 85
54 219 177
145 136 46
148 161 140
53 109 132
41 255 134
66 116 82
127 156 149
114 0 238
77 38 240
41 229 74
224 193 110
51 230 228
141 254 77
166 13 214
49 158 71
37 133 23
170 103 105
0 40 254
110 61 210
193 232 214
57 25 241
149 217 231
208 133 113
20 99 194
61 181 143
135 173 165
28 176 63
56 201 229
121 114 106
53 148 32
89 73 103
118 13 63
201 83 108
167 85 143
15 65 192
191 133 140
185 159 107
112 180 34
100 105 210
41 235 222
27 218 13
150 234 177
185 174 33
245 136 232
190 13 189
165 203 248
77 131 1
54 100 199
130 195 82
60 8 228
115 177 183
4 145 223
177 3 72
39 202 61
4 59 52
104 1 145
129 105 161
214 35 91
109 18 116
102 201 6
170 151 29
235 224 91
18 112 0
218 17 226
69 163 101
79 222 173
161 151 121
56 115 137
24 72 231
69 202 210
86 186 91
164 0 159
154 32 223
213 90 120
238 238 67
40 155 159
153 154 77
221 25 218
207 37 72
87 104 131
206 245 3
68 21 194
161 192 179
218 107 161
104 116 126
117 172 39
40 85 156
212 106 202
104 212 1
215 169 47
166 201 218
129 8 170
85 59 69
200 94 86
66 180 146
55 194 75
39 3 106
246 164 12
230 23 19
138 76 69
48 211 132
78 59 200
237 127 4
154 191 64
178 55 96
106 213 158
30 9 169
6 13 54
22 113 105
90 171 167
102 97 43
150 30 39
122 249 24
41 194 101
83 138 135
47 82 6
123 157 14
196 142 8
17 112 64
92 251 22
206 243 3
188 121 83
157 64 46
99 21 34
70 230 73
35 218 246
133 55 102
217 80 54
209 10 42
164 30 24
245 137 220
113 232 133
217 78 132
252 37 34
114 177 33
229 44 16
2 4 108
149 225 125
107 18 244
135 185 176
64 237 4
39 140 33
170 60 102
193 108 10
82 90 100
39 53 195
83 31 142
135 247 244
128 229 114
82 17 201
37 232 225
150 206 40
37 178 68
59 85 186
228 93 133
149 28 67
187 97 189
237 97 147
10 34 223
248 162 103
249 102 151
194 29 115
99 148 64
213 114 5
14 22 201
132 246 151
50 46 74
223 128 78
236 201 40
0 224 246
98 193 253
66 113 239
248 155 19
175 241 31
134 60 186
217 42 217
189 19 34
215 180 128
19 61 167
245 61 180
185 19 37
131 91 224
72 131 214
32 191 91
176 181 172
64 96 8
26 102 12
107 144 170
224 165 98
227 85 107
59 209 175
150 255 106
45 54 252
94 184 95
205 180 222
50 217 252
60 221 218
233 188 220
158 140 36
20 247 38
245 47 144
219 242 121
156 98 172
126 138 134
115 196 252
199 41 114
188 225 49
245 192 94
123 102 252
50 94 208
217 106 118
215 145 191
243 72 207
243 232 114
53 245 169
195 131 210
144 210 41
217 75 77
85 68 199
156 229 178
69 41 100
154 30 185
20 206 85
196 79 82
238 139 69
102 237 117
228 200 189
227 212 87
81 161 237
122 97 233
19 47 50
149 53 22
214 244 28
67 102 245
55 126 206
176 166 184
9 68 232
119 14 124
33 203 123
170 109 59
117 171 154
230 30 174
168 163 68
191 189 112
177 148 44
245 91 83
151 216 110
234 95 194
225 44 244
70 164 105
162 21 193
27 111 94
62 237 246
46 119 39
69 41 68
105 76 17
214 221 158
67 123 162
12 11 162
176 160 123
240 240 229
72 240 138
210 200 23
116 126 75
87 230 146
145 198 161
203 36 221
145 77 114
9 136 59
57 249 206
200 174 237
9 106 158
216 138 236
210 204 130
114 41 195
124 110 209
71 160 94
42 94 148
186 14 251
118 31 189
3 141 27
98 142 250
253 40 223
116 158 46
191 195 159
66 85 37
82 193 39
93 13 235
200 27 3
180 121 203
91 33 195
94 199 3
119 6 162
176 179 233
26 73 176
142 126 12
237 247 188
41 213 78
238 111 205
208 44 70
201 186 107
101 167 131
197 83 130
11 46 196
149 190 188
84 251 49
129 176 98
169 30 197
122 42 23
111 228 39
78 14 114
54 44 90
241 130 59
62 143 76
27 211 230
21 123 49
113 13 86
208 148 214
193 42 71
245 179 35
124 24 69
204 151 108
196 174 239
100 94 62
173 22 67
142 16 49
236 185 69
176 242 85
138 176 7
42 224 217
152 47 21
61 195 156
33 206 226
130 128 113
234 91 134
208 31 192
158 217 1
230 87 42
146 17 206
251 160 175
252 77 213
235 69 50
157 249 39
140 190 161
100 31 252
235 160 116
120 58 135
183 12 192
243 158 86
40 208 164
63 89 124
20 27 67
137 232 54
240 72 84
112 151 182
121 170 56
21 219 9
211 2 11
185 163 17
14 244 59
4 121 114
22 184 168
221 51 136
168 36 140
192 113 56
214 230 136
21 250 187
13 4 91
75 184 178
231 113 34
26 201 132
67 221 249
25 255 90
99 115 116
19 111 125
148 184 39
117 70 36
133 243 158
181 102 245
186 107 84
58 12 94
168 199 26
162 251 77
168 147 109
51 119 225
50 225 77
117 64 173
170 106 152
82 65 79
218 114 129
30 252 56
43 146 17
67 98 17
157 170 113
98 71 73
94 128 163
211 180 230
95 93 97
218 59 109
113 160 13
96 110 111
4 171 16
147 120 76
174 215 82
114 198 68
57 213 21
24 106 180
225 132 107
200 124 75
205 96 50
239 202 161
33 44 40
130 47 73
97 152 80
182 115 223
81 240 229
110 128 168
11 89 110
152 133 112
224 36 196
192 228 106
56 211 251
152 111 84
26 3 160
191 250 37
119 27 112
186 62 169
220 55 89
189 29 2
82 157 138
72 155 126
227 45 158
71 234 77
253 141 77
5 110 36
21 159 51
199 194 68
111 73 172
216 21 193
167 111 73
241 79 43
247 62 98
11 38 123
115 85 154
151 141 67
97 112 239
140 202 112
26 151 35
234 48 229
198 147 119
125 9 187
59 220 30
174 201 233
74 116 170
201 21 12
11 237 69
156 205 73
114 231 232
251 158 210
71 15 241
77 33 123
45 131 14
42 95 128
192 38 165
116 28 14
10 244 3
147 243 55
15 10 23
168 234 247
114 123 249
18 174 177
23 111 111
89 102 24
136 23 18
30 1 26
26 7 217
161 224 30
106 50 96
91 97 163
1 109 116
23 68 55
75 253 12
203 246 197
238 101 153
44 125 127
14 178 30
198 149 40
2 87 85
174 8 124
26 88 34
137 25 95
171 181 139
84 216 142
250 187 176
65 50 234
221 186 32
153 247 205
243 79 55
87 6 39
191 17 206
23 195 232
59 121 214
165 209 20
165 53 118
16 192 100
89 7 254
166 94 215
30 22 166
220 110 134
94 64 159
204 255 50
174 116 3
255 182 200
160 111 8
149 215 159
7 253 209
228 138 3
228 86 159
202 73 93
15 203 241
235 236 126
15 71 76
221 105 190
245 159 143
215 76 95
57 242 139
182 10 54
112 234 77
182 165 120
162 42 136
200 164 27
255 248 38
2 14 18
72 29 196
216 102 85
8 177 4
220 241 64
75 236 132
15 12 45
109 87 136
55 29 122
179 12 120
59 19 208
175 148 208
154 107 156
11 162 251
34 47 82
10 13 60
170 248 183
99 250 81
145 96 120
210 33 64
66 253 206
144 191 158
30 39 121
44 246 88
66 14 68
169 254 76
204 44 80
32 106 83
224 127 246
202 3 125
156 55 146
88 129 13
99 30 161
82 179 204
41 58 124
129 141 101
23 188 223
125 162 110
70 34 187
158 51 31
95 203 209
78 217 213
235 88 134
228 30 17
5 184 198
134 242 204
250 28 76
157 113 66
76 103 80
185 84 130
2 222 143
45 0 254
235 200 66
218 204 1
245 72 53
118 143 66
181 9 72
74 86 197
230 33 96
97 114 55
4 85 113
173 181 160
37 240 91
154 136 65
227 136 68
178 107 72
111 132 38
15 107 30
131 61 208
4 181 255
7 187 54
38 215 20
129 142 153
1 198 137
60 158 58
92 132 56
80 116 142
169 189 67
214 124 2
220 128 245
181 134 111
218 230 160
29 32 104
203 175 179
23 194 60
67 34 168
78 27 210
44 173 129
78 65 238
225 205 131
190 232 199
198 104 7
45 73 14
51 38 172
244 217 168
206 4 166
189 218 237
42 120 119
251 160 154
106 170 166
78 72 215
248 2 245
200 142 62
99 134 236
184 79 58
175 199 206
171 200 179
191 2 107
250 134 108
92 136 175
105 57 240
23 28 19
162 142 239
158 105 231
199 206 161
205 83 190
136 168 98
224 224 9
136 148 14
165 67 137
241 144 48
161 53 9
189 29 22
60 169 55
98 12 130
38 11 56
102 50 225
51 188 170
150 119 208
174 156 113
201 83 105
128 35 145
124 19 162
246 122 239
19 208 243
140 25 192
4 96 82
118 117 43
208 58 72
108 64 121
184 229 93
0 207 185
254 27 215
40 77 29
13 202 221
115 96 194
189 129 242
157 205 42
16 147 8
174 8 61
32 143 73
131 129 161
225 251 199
15 249 155
133 46 90
143 194 230
139 206 142
102 151 49
252 43 135
253 93 178
15 81 2
218 130 36
171 46 87
46 216 103
48 246 15
195 139 202
65 51 138
185 119 142
1 181 195
175 8 153
49 38 214
44 119 165
190 2 162
171 96 69
75 142 56
44 199 220
7 2 136
12 34 220
13 76 195
175 125 117
123 248 72
183 154 218
57 16 120
161 128 2
146 102 29
87 4 77
152 243 194
154 111 237
90 193 8
133 196 117
72 255 109
233 43 248
23 83 245
247 91 120
59 119 44
248 86 159
159 157 152
6 113 181
120 227 91
249 237 18
206 156 137
35 110 202
14 149 125
200 53 41
75 37 208
216 90 215
219 33 41
232 170 169
89 8 102
234 34 74
15 112 19
77 82 0
172 69 14
77 122 106
73 8 222
204 33 155
48 71 13
204 225 246
29 11 246
82 229 208
186 97 237
177 140 180
85 39 35
159 107 210
212 229 159
230 27 197
109 138 53
179 93 239
37 228 80
36 63 98
28 180 145
216 224 212
130 176 158
234 32 69
183 82 129
77 193 153
237 232 215
238 150 98
161 204 80
14 127 250
225 205 147
243 95 236
17 169 220
190 55 155
174 105 118
151 170 87
33 48 139
123 93 134
218 119 145
87 166 204
208 120 88
135 27 97
106 160 145
126 122 191
183 164 247
162 135 70
186 115 204
50 130 155
116 243 247
80 200 70
18 215 252
133 174 177
141 202 71
224 48 47
165 44 64
230 233 20
6 13 254
180 141 140
168 93 53
225 93 169
49 64 244
121 210 253
186 230 77
252 3 126
113 200 88
127 5 198
42 65 38
35 22 103
138 33 28
255 56 227
41 110 21
154 162 35
1 200 234
194 29 146
204 231 174
106 137 237
137 74 170
1 223 154
145 86 49
73 178 194
22 236 10
98 214 135
190 86 141
68 229 41
240 197 5
198 34 220
115 221 57
146 34 239
213 132 99
36 2 29
9 84 218
229 176 125
43 64 147
67 65 120
254 59 158
122 115 173
248 28 2
230 42 13
79 157 192
249 59 63
224 103 99
41 77 197
122 118 116
13 248 191
86 195 58
62 69 1
66 206 100
181 96 178
32 239 120
184 219 150
7 114 239
22 167 119
8 161 1
111 135 213
212 66 117
225 254 111
225 192 156
20 8 115
177 108 175
250 8 246
209 197 106
74 152 121
178 179 25
241 36 168
131 146 213
237 142 83
124 78 119
9 171 141
218 77 18
222 92 34
224 59 119
58 147 161
212 33 170
225 108 105
181 76 155
226 15 142
182 146 149
108 4 9
182 179 33
87 70 216
134 255 212
147 178 77
89 103 56
184 48 67
213 128 172
242 88 246
228 200 152
12 219 147
70 221 188
96 35 105
57 47 119
19 191 175
61 156 81
135 166 255
137 124 22
69 185 246
164 58 166
13 220 226
230 237 74
184 148 167
198 117 191
143 222 232
21 162 164
160 41 131
144 76 112
27 131 38
128 255 181
202 20 224
200 207 165
79 80 176
195 94 218
98 47 40
35 82 186
134 227 251
152 132 218
214 212 55
216 29 247
159 120 96
224 219 134
0 132 11
146 69 158
210 44 56
240 209 236
187 249 205
250 101 66
228 62 163
45 51 148
139 157 83
205 64 119
2 8 170
244 59 156
236 230 244
69 241 84
11 224 63
203 119 16
85 224 152
244 35 49
253 13 97
235 22 134
22 97 203
191 103 57
156 55 90
116 211 223
176 197 141
115 219 129
247 254 108
149 220 16
130 151 80
176 238 140
234 143 247
199 196 159
230 61 194
234 158 252
47 66 120
109 0 84
200 144 116
114 47 77
44 156 197
108 129 36
88 236 237
150 200 62
86 170 129
35 191 247
29 204 170
16 219 165
45 70 136
24 61 77
253 171 238
163 54 10
52 168 78
120 70 41
96 227 164
67 231 91
34 90 51
19 219 100
186 147 186
7 174 90
29 234 241
252 233 216
212 200 70
128 36 121
21 161 251
84 47 191
114 14 14
44 2 104
63 254 180
255 134 139
38 149 228
49 124 164
237 148 233
151 143 222
4 60 154
229 6 164
125 49 136
255 150 178
224 253 46
56 53 217
167 8 83
70 66 49
138 198 4
22 143 1
96 62 101
138 207 242
37 252 164
57 239 17
163 245 229
72 127 114
14 230 80
83 138 208
84 51 225
19 56 67
116 152 235
228 246 0
68 101 146
4 109 54
66 219 35
138 11 40
122 179 89
109 20 9
165 163 131
166 208 96
215 38 43
190 48 164
65 19 10
35 227 84
27 193 133
40 192 20
100 38 71
240 201 99
92 230 146
137 230 56
172 12 157
139 196 122
198 28 233
241 48 239
235 63 177
42 91 65
238 165 5
43 62 91
161 5 239
187 252 44
97 232 206
98 109 222
62 163 54
6 233 217
41 116 192
40 225 245
231 108 199
5 200 85
237 194 65
96 22 51
246 44 192
89 53 29
233 77 69
168 68 231
103 79 41
42 135 139
207 181 180
140 188 45
207 38 177
33 58 21
214 11 182
167 38 4
7 200 89
175 182 62
53 76 187
5 226 19
136 60 154
201 242 187
120 178 13
94 138 196
41 89 183
19 154 176
2 139 88
227 73 143
130 23 120
190 42 144
77 227 21
253 252 40
162 55 224
22 102 146
24 48 121
183 249 27
162 91 231
44 57 141
200 239 213
186 108 24
111 49 55
167 13 191
111 95 136
249 246 246
60 43 92
18 239 123
62 47 143
29 4 163
149 136 193
7 185 18
8 130 232
110 98 39
4 2 126
16 176 248
23 102 177
128 198 144
220 132 56
60 221 86
153 124 21
251 24 248
14 156 189
164 229 250
156 88 131
48 108 52
140 238 109
81 40 112
50 176 251
54 215 33
244 184 253
19 103 157
193 124 85
163 82 148
138 61 178
30 103 193
227 185 153
40 152 117
131 110 89
2 235 238
218 23 64
27 118 255
157 139 209
204 93 232
218 191 43
163 139 39
139 114 22
70 119 101
137 165 156
236 187 106
242 87 205
65 216 233
132 44 61
206 37 162
58 170 14
212 14 176
251 110 222
236 94 114
161 21 35
175 72 172
218 248 72
118 184 216
197 172 44
41 229 50
104 240 192
117 138 77
80 213 128
164 197 233
54 230 12
78 71 26
150 66 146
112 127 29
205 60 235
231 121 65
72 170 178
40 157 185
191 249 55
128 147 37
59 66 110
82 119 121
38 199 255
98 202 117
106 208 0
4 64 92
218 239 173
64 239 84
201 253 66
56 228 79
168 163 219
44 92 145
180 37 80
150 228 147
28 40 22
187 28 98
234 187 255
149 26 119
171 118 152
88 250 12
147 149 249
197 217 215
40 232 235
158 68 46
177 56 30
154 185 154
145 55 154
101 84 107
214 231 72
195 169 126
166 120 202
147 59 153
6 136 74
70 233 183
93 32 15
249 94 89
157 204 176
162 50 63
139 152 187
87 31 142
122 40 77
8 51 66
25 82 133
42 75 189
221 246 237
14 157 20
238 23 239
171 246 116
145 189 254
241 20 73
190 55 207
193 3 155
12 250 211
91 169 173
156 26 64
133 68 20
187 185 46
175 50 117
234 174 210
45 192 230
212 213 1
165 44 233
68 81 57
176 242 121
135 82 185
100 107 50
37 139 40
215 105 123
249 49 121
67 5 73
236 73 183
14 94 124
126 120 90
103 226 195
73 74 32
224 183 65
243 63 114
227 151 102
199 41 144
17 26 24
114 107 251
59 224 46
214 178 227
135 192 66
12 211 45
220 209 105
12 228 183
197 180 183
250 41 9
59 155 21
102 70 197
179 8 45
56 24 193
27 171 250
250 142 107
93 132 78
147 107 137
133 33 249
133 164 165
0 126 18
75 29 92
35 181 225
23 249 237
100 2 248
201 157 221
125 112 180
144 131 156
180 43 164
77 10 200
240 204 68
72 101 28
153 93 102
142 237 232
8 231 40
182 85 23
135 218 110
100 200 184
66 239 24
94 121 139
52 203 75
55 52 33
83 75 218
208 189 14
100 210 249
67 114 194
4 163 70
61 93 228
234 234 224
255 248 111
1 135 10
28 124 148
139 215 230
111 184 200
112 210 51
246 196 170
145 24 159
70 133 130
83 188 96
53 192 172
105 165 217
241 90 54
161 19 99
129 137 243
132 74 52
231 154 67
66 245 24
169 123 17
178 126 168
117 61 28
21 173 241
212 80 252
44 118 147
228 205 119
153 112 37
6 151 158
215 18 162
231 190 110
240 14 42
49 72 58
173 67 20
159 144 160
220 109 166
95 48 155
163 223 192
164 214 185
107 48 126
226 70 81
140 114 83
198 74 177
158 196 130
218 91 157
194 149 202
239 251 20
252 132 51
128 55 235
49 222 155
115 149 28
195 127 48
196 69 132
62 65 49
167 39 253
1 158 71
2 252 111
20 251 99
170 110 1
47 163 53
236 113 163
92 3 128
29 193 138
180 31 32
39 55 175
145 99 156
214 139 22
170 116 243
219 83 196
6 208 200
81 187 246
96 124 106
62 91 196
239 15 65
78 138 114
150 81 1
76 204 100
168 207 80
197 55 111
209 83 95
92 228 249
18 18 50
179 130 152
63 243 125
174 229 183
32 225 6
215 165 119
72 36 17
203 210 138
68 150 88
80 130 147
111 63 51
56 13 201
168 161 253
27 233 133
58 164 91
90 200 98
25 171 169
181 82 209
1 32 225
138 107 78
159 119 102
186 144 73
76 55 231
26 193 23
66 118 149
103 2 186
121 215 124
146 81 71
52 180 174
124 39 183
54 17 181
53 244 69
168 52 222
61 222 253
211 42 179
55 196 184
130 231 41
46 31 144
153 179 248
238 67 90
241 255 205
213 46 251
1 215 222
246 10 180
171 120 123
233 63 119
175 117 126
106 142 15
90 68 111
205 221 219
129 105 75
179 120 39
122 20 162
184 204 158
80 153 168
163 200 130
87 177 99
40 5 161
202 37 216
76 64 5
53 119 134
123 47 21
249 213 140
226 250 87
96 250 143
240 181 85
18 88 242
75 200 205
125 20 232
89 91 183
229 90 197
192 39 176
4 93 6
245 142 138
2 120 236
230 104 200
184 29 73
248 179 215
166 226 193
152 145 137
31 149 24
110 77 104
109 167 246
29 188 123
255 132 83
215 86 231
178 130 2
20 226 245
183 105 97
67 115 194
110 108 63
228 187 180
43 245 212
85 213 109
61 136 251
81 129 4
227 124 48
208 118 32
64 33 177
215 138 8
107 203 191
191 118 252
247 169 202
178 129 199
176 190 55
96 108 81
26 31 67
197 53 169
191 61 221
53 75 71
51 42 92
222 245 251
11 211 25
43 94 206
182 172 95
6 4 199
120 87 239
65 156 57
159 229 113
165 231 157
58 227 106
226 162 57
234 144 177
214 204 51
63 13 90
149 102 23
170 65 24
122 113 179
116 253 29
34 40 45
190 220 124
96 248 144
25 0 34
50 103 213
234 32 21
183 84 166
93 149 30
77 202 61
38 87 230
130 223 166
150 235 17
143 220 115
138 120 32
229 3 103
175 144 140
194 202 29
120 137 166
66 169 255
139 215 234
236 248 252
175 47 84
213 39 118
241 237 177
83 34 116
19 182 97
152 30 55
94 154 239
107 13 178
245 37 156
163 26 206
100 112 231
116 102 71
35 102 198
191 64 97
156 99 55
171 58 183
90 62 242
212 127 210
24 215 13
101 202 69
130 10 250
169 14 110
26 38 231
196 89 142
131 202 212
28 88 244
233 254 156
234 210 96
207 126 48
104 17 12
133 198 195
183 15 162
6 65 76
80 144 218
190 219 235
67 62 85
8 55 180
86 60 251
193 100 15
157 33 120
189 20 251
193 198 107
138 33 17
111 106 241
106 30 46
47 60 33
2 162 85
162 159 179
156 83 190
88 189 29
66 225 201
123 53 194
85 234 207
226 170 211
246 242 64
11 93 72
47 229 136
187 24 119
33 171 47
142 233 130
185 31 23
109 243 233
1 196 50
179 17 136
161 222 21
218 235 210
176 96 109
29 158 243
83 91 42
129 100 161
209 173 135
123 30 2
88 203 236
92 164 68
115 186 84
83 20 148
207 185 240
122 14 159
25 180 70
210 104 169
83 88 116
29 159 73
255 47 230
221 240 220
4 185 153
87 178 171
243 156 78
6 11 171
48 109 151
71 48 142
22 36 114
218 244 60
111 11 99
125 173 237
4 104 183
173 127 239
172 158 56
231 219 124
36 18 82
234 61 210
225 208 156
157 199 242
64 246 244
6 150 56
183 63 17
11 48 78
80 195 96
233 184 27
51 148 184
123 16 133
5 210 90
0 169 246
183 27 160
220 215 72
165 34 157
0 242 140
98 156 80
240 117 68
230 99 103
223 181 88
162 215 216
122 136 231
110 78 92
17 138 47
252 4 207
65 24 160
46 102 182
102 253 8
70 206 6
162 245 73
18 33 100
12 1 37
46 43 136
179 135 135
187 32 31
75 188 229
82 85 162
7 0 11
9 78 99
136 218 225
163 100 214
247 11 145
76 127 44
37 102 110
146 249 21
149 105 34
94 139 161
175 200 165
209 43 2
89 163 158
230 119 203
33 209 253
45 161 218
212 200 207
108 132 129
103 34 111
206 29 251
7 26 4
100 203 73
130 127 101
98 37 150
180 238 83
99 1 98
20 14 110
146 167 126
198 6 153
143 166 243
185 107 80
131 38 172
114 20 218
229 117 202
33 100 196
199 97 121
49 32 77
26 181 214
39 169 185
79 226 201
15 150 138
233 62 100
228 74 97
195 20 45
200 227 136
88 201 49
78 45 41
134 244 241
0 240 105
133 255 234
173 66 142
75 182 149
185 62 192
143 204 118
63 91 188
32 182 218
160 207 56
240 110 231
137 22 136
231 11 23
144 32 173
127 31 188
241 85 214
7 142 252
202 45 91
175 173 164
197 233 74
242 217 214
64 117 75
55 35 235
221 152 227
95 93 103
75 210 115
169 184 185
41 94 221
193 130 63
174 253 165
232 240 25
206 56 213
147 178 117
192 89 39
59 241 212
195 138 199
223 233 65
34 215 27
164 6 117
36 78 77
46 21 205
27 229 18
202 231 0
237 62 183
189 119 139
46 131 157
25 226 80
238 165 97
124 50 146
66 3 203
217 74 180
9 138 133
117 85 184
45 179 251
29 155 86
166 54 180
72 60 25
166 210 67
254 6 242
42 30 171
183 65 214
203 39 199
92 122 70
100 208 84
245 30 33
82 42 93
241 87 76
155 36 139
160 202 186
221 124 57
32 112 212
54 1 9
36 238 30
59 125 1
218 192 89
138 219 211
200 253 233
104 23 250
30 160 92
110 168 155
157 107 105
197 249 162
230 180 103
217 101 217
120 114 130
61 128 195
170 195 8
41 180 221
207 188 67
185 173 41
77 160 211
226 0 72
138 243 160
139 161 78
19 131 130
45 123 127
250 73 219
56 205 70
229 43 33
181 111 214
38 41 219
33 254 170
157 110 211
252 128 140
207 23 113
39 156 171
206 186 210
172 183 105
3 19 174
205 148 132
169 76 140
93 236 49
22 75 158
115 222 235
4 174 45
23 146 171
228 96 84
9 139 57
231 45 208
94 132 15
40 102 55
52 151 25
110 59 163
23 61 17
7 149 93
29 16 144
215 43 93
70 255 60
15 10 199
85 8 88
199 198 42
249 41 8
228 55 37
243 187 132
67 110 35
156 155 147
202 124 157
162 53 112
146 6 238
108 244 95
205 42 130
40 182 188
230 221 182
197 45 43
188 138 163
29 234 238
54 162 149
57 65 94
126 83 183
16 6 243
29 82 126
9 119 125
22 22 24
198 254 104
59 31 54
168 17 102
161 88 138
12 237 184
96 208 184
172 91 110
195 171 227
110 95 172
88 41 35
231 105 33
21 50 71
181 165 63
92 63 192
36 219 22
79 197 138
121 122 127
211 177 202
248 60 226
101 53 133
109 162 146
250 111 19
194 202 159
5 58 212
167 216 146
74 73 181
128 234 234
243 168 96
24 123 170
174 168 154
209 171 3
2 210 214
86 52 184
227 141 80
164 57 114
82 46 57
6 61 149
117 165 155
78 161 142
93 11 64
248 81 129
158 167 222
183 2 78
123 178 134
9 246 71
70 203 223
25 156 251
214 165 222
97 69 221
48 111 155
73 82 20
83 81 46
216 113 242
248 189 144
141 64 12
116 56 183
65 116 9
203 106 77
174 25 39
51 153 176
137 136 17
237 35 196
131 24 214
220 199 196
186 64 28
162 207 241
36 190 209
67 81 146
23 218 111
240 73 177
174 87 92
2 104 15
173 165 211
115 200 48
198 42 205
44 109 235
67 72 238
60 233 182
60 173 72
247 193 63
82 98 165
32 80 181
169 175 234
110 13 102
70 132 177
15 142 12
235 255 184
200 216 161
103 120 29
10 83 15
226 190 90
83 86 255
207 159 90
171 245 224
35 56 32
249 97 128
111 149 149
7 42 212
143 131 98
102 103 43
199 61 177
199 29 143
5 18 149
14 112 249
159 253 126
214 114 167
234 104 47
73 8 70
211 71 164
146 35 85
134 8 43
235 89 118
174 237 189
165 246 93
247 133 97
131 253 77
161 134 205
222 143 242
240 228 171
120 13 203
119 26 128
220 88 12
127 176 72
191 225 188
172 60 177
27 40 227
123 110 23
52 15 230
83 55 102
64 227 86
160 69 164
230 82 158
176 32 245
51 202 140
248 22 98
35 8 241
80 146 168
187 55 66
65 229 141
224 233 71
111 160 26
107 86 206
125 134 113
72 168 101
230 230 175
181 254 143
45 250 202
33 119 147
15 101 210
180 147 70
226 110 242
140 169 203
88 197 160
211 84 225
247 127 217
31 94 59
234 71 207
152 74 239
228 138 224
53 196 64
91 116 215
96 227 171
16 4 218
142 173 48
252 176 190
231 26 3
189 35 113
68 43 130
168 193 152
46 119 14
79 79 40
200 164 6
245 189 71
53 50 66
121 124 135
164 49 64
23 167 145
245 21 171
85 67 193
136 221 39
111 55 201
39 122 107
97 166 229
134 51 141
49 111 98
164 75 103
57 26 225
122 158 70
82 211 20
28 61 207
185 18 3
71 181 47
132 215 239
108 215 227
174 116 107
185 130 145
213 145 126
38 177 60
238 220 22
111 15 146
252 42 172
196 255 218
152 237 191
243 226 193
164 115 4
112 237 22
249 74 94
77 12 214
66 36 140
122 87 210
155 239 237
34 221 119
84 175 22
169 122 207
55 200 54
178 21 201
72 194 12
165 220 85
245 238 215
234 96 185
35 153 230
149 65 232
200 100 50
157 159 216
141 192 16
140 174 28
79 144 83
232 136 233
37 155 229
179 211 57
214 82 46
62 205 31
247 179 156
142 56 229
19 52 216
246 39 229
19 169 89
13 18 117
16 27 231
34 199 128
64 174 65
67 210 189
170 227 60
108 156 132
92 32 196
214 4 60
44 155 2
142 93 107
64 152 97
65 138 67
156 63 31
179 158 215
36 91 159
35 84 97
69 17 112
194 70 0
207 206 211
53 45 201
92 205 179
192 74 243
13 100 209
144 56 38
255 236 48
93 239 109
198 18 56
102 126 116
210 127 0
111 15 142
200 139 71
133 219 100
176 145 232
255 32 175
126 232 185
73 1 164
64 177 109
161 231 7
99 115 211
136 254 148
141 54 130
237 224 119
30 51 146
208 146 163
30 32 198
180 48 254
143 184 14
127 102 195
65 155 69
58 121 85
151 37 18
182 37 39
202 110 230
214 249 38
132 107 71
122 213 194
211 200 197
156 172 13
113 57 67
194 38 55
84 199 133
38 41 230
1 95 104
112 3 35
18 154 225
142 217 212
115 228 112
25 146 22
37 67 0
107 222 202
106 77 239
88 160 132
181 138 91
88 19 177
162 164 171
24 13 110
117 58 188
155 16 27
181 8 136
72 201 52
235 200 47
50 85 31
59 99 45
128 143 23
247 55 167
206 131 163
92 250 226
152 160 204
40 53 105
56 234 109
158 11 123
10 9 91
163 89 251
112 218 205
3 68 126
148 183 210
239 16 167
69 236 30
210 67 90
78 243 127
151 132 119
139 141 15
9 123 91
104 65 10
10 125 88
95 98 226
180 225 211
81 179 240
128 41 191
18 251 202
182 182 86
36 200 130
151 231 47
219 17 130
36 186 118
244 137 133
88 153 131
245 134 36
33 25 210
95 64 33
42 62 80
58 254 182
180 19 39
189 216 30
181 167 15
14 50 73
197 34 253
213 196 108
253 54 23
97 7 102
126 83 58
77 30 62
179 65 11
72 242 145
218 244 20
60 6 67
76 87 221
251 137 159
165 156 144
203 63 33
185 242 229
253 102 13
187 72 4
151 16 255
30 53 41
212 108 154
111 218 70
36 226 23
228 201 131
254 237 1
111 110 215
106 85 122
124 175 152
241 98 64
137 67 162
125 233 138
189 185 210
81 193 41
240 64 195
137 180 138
143 195 153
241 129 185
231 162 146
80 29 254
131 31 215
128 67 88
52 145 169
64 168 204
215 39 68
81 125 10
117 168 185
176 152 127
181 203 58
24 107 143
171 167 189
85 7 235
201 237 184
123 129 107
12 237 172
69 151 104
50 69 113
139 248 130
196 37 99
231 168 96
25 214 170
127 100 236
99 131 20
175 201 99
27 78 103
135 239 5
180 253 39
155 188 197
246 181 255
70 194 204
109 19 212
93 41 13
226 214 196
215 43 178
27 228 208
188 164 172
94 90 212
126 102 135
62 17 222
81 55 236
169 174 100
19 206 229
67 163 179
123 218 43
248 193 132
17 147 47
211 189 31
79 250 144
120 216 133
224 195 112
189 140 186
11 251 139
68 150 152
164 135 233
46 226 102
210 241 38
55 127 29
188 229 50
114 181 119
55 147 64
219 63 218
252 254 30
53 96 70
27 234 93
14 111 142
12 213 116
157 129 140
141 116 16
38 153 177
230 64 8
132 103 165
248 187 106
253 53 76
232 81 38
73 167 229
71 223 205
203 36 81
162 108 230
217 232 73
192 226 26
77 62 143
211 28 67
172 179 196
164 117 16
52 135 81
167 155 82
232 37 154
106 242 58
145 211 176
9 247 201
71 229 251
105 16 249
35 30 44
179 22 207
202 208 8
110 108 9
37 123 117
73 113 78
244 229 250
228 63 111
189 10 188
246 34 129
154 184 135
165 171 128
236 10 110
204 211 180
42 152 151
209 80 244
135 114 177
102 40 125
37 34 65
39 7 30
23 139 136
208 237 181
123 170 105
86 250 152
131 163 149
236 96 37
161 138 155
114 207 212
203 204 140
15 231 136
227 56 36
103 151 245
214 42 65
168 131 89
51 126 95
211 240 43
160 139 17
246 44 1
210 243 18
171 78 154
51 60 220
135 173 101
215 151 147
71 46 189
248 230 70
84 18 68
15 173 171
232 26 20
130 128 192
212 24 79
210 134 50
129 153 69
32 227 69
254 140 107
89 207 80
187 142 191
224 137 24
72 23 192
56 150 234
246 236 150
5 254 165
184 68 112
68 181 251
219 128 169
213 100 251
186 234 163
187 162 222
140 89 182
182 80 40
178 176 237
134 126 200
25 131 115
227 213 102
65 182 138
165 128 188
142 192 188
190 211 238
147 132 162
9 24 177
55 72 42
200 45 51
152 155 38
86 243 16
198 77 29
115 145 140
143 127 104
93 221 248
245 32 150
133 210 175
240 34 83
180 188 98
197 56 99
43 84 155
227 165 129
109 210 52
195 22 25
149 173 91
154 246 17
181 190 91
229 41 77
139 12 31
214 103 62
250 9 41
42 28 84
19 7 96
176 182 95
45 219 176
105 139 198
143 71 29
176 103 129
243 181 202
65 122 61
235 198 64
204 160 189
112 203 104
51 111 204
119 154 185
179 85 37
40 131 247
91 24 146
2 189 211
49 139 101
143 241 251
60 87 4
15 88 40
104 196 255
251 165 109
196 89 108
128 101 157
65 99 98
12 139 187
241 192 166
45 92 54
121 73 238
12 228 220
65 167 124
51 1 221
67 215 171
197 11 9
108 98 38
79 15 28
167 134 131
61 223 177
220 208 159
251 200 151
144 227 141
130 12 189
214 92 175
141 148 202
201 166 92
64 129 11
68 134 194
180 19 60
234 247 94
105 227 246
192 171 150
179 77 244
242 37 224
198 166 221
17 142 140
90 175 159
5 220 6
104 23 62
0 110 210
58 22 141
94 82 225
225 152 153
141 222 193
207 162 79
254 177 134
68 171 196
150 33 3
114 234 163
107 174 16
90 185 135
243 46 195
60 211 42
45 87 30
2 71 197
18 120 221
181 145 44
111 98 55
13 218 232
12 195 254
4 75 110
212 213 25
5 157 167
233 161 131
135 54 9
75 21 8
66 59 207
0 2 28
30 184 61
12 250 35
16 1 55
253 124 213
243 31 194
235 99 243
171 60 187
54 180 48
48 43 168
65 114 101
185 233 41
238 54 31
248 64 15
250 211 167
56 137 96
160 14 65
7 198 78
225 245 176
229 94 176
28 10 145
163 174 186
66 31 16
102 198 27
227 159 192
226 71 185
106 229 183
29 241 121
98 210 151
164 49 37
188 60 103
226 180 78
64 91 190
23 0 203
155 51 7
236 130 57
248 72 182
107 70 181
139 6 74
6 217 179
93 107 251
79 146 114
69 42 57
253 236 45
218 79 247
239 200 187
24 145 242
224 45 247
189 29 87
205 70 230
72 62 225
216 171 232
221 88 75
119 247 159
101 214 190
143 42 215
212 191 60
59 11 50
7 147 126
46 218 221
75 88 98
59 166 170
33 98 10
230 248 130
34 85 193
54 184 145
247 93 119
29 78 247
191 26 132
147 202 242
159 37 27
34 171 41
82 184 243
29 20 204
153 13 234
250 188 17
133 77 202
77 166 25
202 125 62
64 108 194
247 172 204
18 171 219
4 134 163
216 128 224
227 124 71
152 128 224
3 144 250
205 50 163
144 161 72
191 56 52
108 142 114
218 233 42
145 190 21
206 8 111
107 187 223
42 251 208
41 88 189
228 191 225
169 120 58
129 137 196
252 217 142
108 197 180
10 71 248
230 0 36
28 235 62
157 207 46
188 187 149
85 248 194
220 87 183
238 28 73
135 154 114
177 81 10
228 180 76
221 25 175
15 144 17
225 161 140
220 14 205
209 2 221
14 194 196
131 150 124
236 198 118
148 246 92
107 114 143
59 214 217
70 33 237
70 155 193
170 170 109
93 17 215
216 27 108
4 253 140
2 103 142
220 88 87
82 72 174
58 100 220
227 124 42
149 93 157
57 223 238
83 165 144
180 158 12
183 156 117
240 27 10
58 79 46
163 182 103
10 154 85
217 114 225
95 31 228
99 231 60
152 10 9
64 199 101
235 223 101
254 230 227
2 202 15
215 193 73
79 163 66
131 142 239
44 220 231
106 42 246
49 96 36
96 167 80
87 155 181
151 249 68
89 148 110
245 104 192
9 54 205
159 180 110
154 90 33
55 246 234
93 99 61
126 26 146
61 18 238
59 162 191
178 104 151
45 168 170
232 113 95
198 167 195
64 78 230
218 177 86
78 216 181
23 84 163
84 101 23
237 15 221
142 250 103
103 108 38
109 84 210
147 221 160
236 147 228
242 143 166
77 62 46
122 51 124
150 12 4
210 232 222
98 100 157
7 196 132
209 192 204
85 164 124
250 204 146
2 169 229
69 150 1
249 13 138
103 148 162
130 13 163
116 237 172
116 130 29
6 123 122
146 137 46
12 215 221
75 103 130
228 36 159
188 67 106
21 235 178
117 249 4
254 181 0
157 233 129
130 217 154
194 245 152
167 22 29
145 210 53
79 149 6
228 107 98
64 61 244
42 240 187
23 230 55
63 80 178
188 45 216
165 207 156
221 6 144
55 62 118
60 103 71
201 78 117
23 143 142
163 5 214
138 250 141
165 8 41
177 161 144
36 151 183
28 23 151
254 153 14
241 155 6
11 168 181
79 145 144
165 245 141
240 45 75
213 158 25
193 45 135
110 100 156
20 249 83
60 108 64
99 56 75
6 135 15
93 4 57
60 55 21
44 218 83
147 135 109
126 241 197
222 183 24
216 140 129
22 249 247
134 137 97
9 250 64
73 240 61
227 187 39
204 59 109
126 104 133
211 240 232
219 244 239
105 236 101
191 251 110
62 233 120
206 31 75
145 38 203
76 125 52
30 73 174
135 163 73
22 133 60
252 164 234
193 107 183
221 247 42
13 144 223
245 76 178
141 211 21
95 66 60
109 0 44
171 130 92
106 212 108
68 170 30
129 248 165
8 245 18
174 188 239
155 104 45
160 138 238
106 14 136
118 159 143
56 220 224
230 129 105
222 230 119
16 175 135
137 140 24
164 80 173
131 118 62
141 207 119
238 205 176
218 53 213
217 176 20
80 244 176
6 173 153
165 18 48
190 75 157
75 129 94
85 99 190
175 247 224
226 244 57
67 195 30
32 216 65
245 232 166
1 141 130
14 79 235
173 159 46
200 216 160
140 144 117
184 106 191
43 183 217
102 238 126
97 33 132
173 96 40
255 213 229
203 245 249
210 133 185
39 96 254
22 124 88
93 190 192
139 165 255
166 49 17
252 153 193
90 105 23
34 172 141
236 3 227
7 142 15
35 224 171
14 127 170
224 129 175
135 42 151
24 253 247
250 129 20
94 163 241
221 246 116
43 104 167
151 30 65
82 68 177
38 250 154
143 61 102
64 108 33
41 43 134
144 89 145
60 14 32
19 251 86
51 158 166
210 86 165
2 76 91
153 187 203
149 111 175
91 37 30
165 25 182
39 250 229
1 153 180
207 66 141
108 15 212
211 57 169
164 182 131
44 61 203
187 66 33
36 61 144
14 30 204
91 54 84
133 196 118
250 141 71
40 87 92
112 190 140
228 15 65
244 207 116
59 175 246
122 143 90
96 4 0
209 82 22
132 247 254
60 113 70
96 220 34
159 109 56
138 148 63
179 150 175
214 228 221
8 197 252
226 198 50
128 66 98
223 227 49
60 189 69
130 141 79
53 3 148
159 99 5
50 119 187
25 11 60
157 32 45
195 21 120
64 157 186
85 81 252
95 109 77
64 177 171
81 182 150
49 74 225
210 128 34
101 28 75
189 147 145
133 152 215
160 136 243
91 240 204
14 252 187
9 237 15
188 28 146
110 147 73
23 219 101
26 49 12
220 88 80
191 126 123
83 160 129
17 115 216
99 10 128
218 123 42
80 91 186
105 111 107
110 72 204
69 193 92
176 207 41
183 151 172
34 40 2
68 102 45
252 115 183
123 120 81
70 218 120
7 116 7
66 246 82
5 176 15
137 38 223
1 71 244
102 186 66
130 121 45
142 107 87
37 61 196
48 209 109
236 212 172
94 239 221
16 35 11
184 236 203
39 110 233
64 111 62
12 62 20
93 195 26
177 70 16
4 141 104
250 216 39
75 125 125
171 121 235
172 242 30
198 74 76
198 195 74
44 244 254
64 146 136
30 202 234
116 107 160
229 84 63
86 196 85
119 182 82
92 53 162
155 181 122
4 147 187
121 16 194
50 157 34
161 238 225
163 46 206
79 133 168
195 160 77
57 121 68
83 87 8
201 6 37
88 164 124
105 93 18
12 230 193
110 12 196
80 14 149
165 186 90
191 58 132
208 162 85
17 87 106
20 36 63
154 162 202
28 0 156
65 190 54
243 186 86
71 149 74
123 115 148
135 198 143
18 173 123
8 34 2
250 181 160
103 210 36
12 16 212
40 167 24
147 245 230
17 199 21
242 148 161
64 148 116
213 147 85
39 221 111
210 14 44
6 190 248
85 41 135
103 44 100
106 132 77
41 62 216
131 122 99
41 131 220
216 65 7
124 60 1
148 170 89
96 188 122
165 159 156
215 234 150
190 140 137
91 115 137
159 167 156
223 56 99
188 135 186
143 85 148
127 41 187
56 115 79
41 212 223
3 197 69
246 226 203
36 98 21
94 227 188
61 78 16
144 30 229
46 169 198
116 254 96
240 193 54
219 113 31
68 131 88
55 109 30
143 168 202
30 83 208
80 46 121
201 71 11
34 219 75
46 181 79
239 7 94
218 44 163
177 208 104
4 119 150
220 231 251
69 19 22
249 252 15
26 66 221
43 97 4
30 151 215
249 14 88
145 100 230
92 14 180
67 77 140
67 238 6
110 188 97
13 138 99
36 185 56
20 167 168
19 61 30
57 198 137
105 23 237
186 119 106
104 63 174
89 205 168
84 165 80
82 140 36
164 139 85
39 18 147
223 84 160
241 172 92
57 107 153
11 48 21
181 150 219
180 29 79
233 155 99
186 129 75
209 27 12
221 122 219
233 95 127
255 102 156
2 112 18
128 122 212
198 160 27
68 163 203
241 31 202
176 249 27
216 42 98
19 23 69
43 39 166
211 96 221
55 151 186
24 131 16
65 62 80
210 4 99
240 48 246
42 60 89
83 242 249
239 76 157
44 96 146
229 187 231
204 251 86
90 179 254
35 226 47
119 85 244
114 241 229
119 80 135
255 35 113
15 12 35
31 89 180
118 245 91
99 53 215
69 108 25
171 237 123
14 7 11
200 42 249
174 82 5
19 226 175
169 109 55
104 99 9
157 168 19
188 86 158
202 70 131
19 91 42
87 210 231
238 125 196
251 89 109
119 242 80
95 12 4
84 181 230
134 196 112
28 166 170
248 189 243
246 71 161
192 255 7
98 78 173
137 222 130
142 100 73
237 137 233
215 110 143
239 80 212
219 117 191
254 9 172
115 209 74
80 161 188
192 186 151
81 166 169
195 117 38
18 189 196
105 2 23
144 151 166
70 39 33
56 83 94
144 32 5
221 177 178
90 181 90
97 236 114
110 52 242
108 232 90
220 71 185
168 50 29
82 121 61
6 61 11
128 91 74
135 167 115
84 86 102
246 35 217
91 219 74
124 147 58
65 237 207
120 153 191
201 29 8
105 60 179
21 49 204
112 78 45
214 179 244
114 234 155
212 74 150
209 206 216
113 42 58
50 133 127
175 92 116
17 94 228
157 59 230
33 6 143
20 220 250
170 173 89
28 5 24
28 146 45
237 76 149
84 108 139
39 235 147
195 183 234
110 253 253
208 32 147
169 81 76
224 95 114
197 186 170
28 252 18
128 111 16
241 190 127
111 66 86
139 251 200
37 115 146
135 149 13
206 230 35
252 189 207
237 150 51
244 176 235
199 63 149
226 168 152
194 193 192
246 119 146
119 86 1
239 208 255
44 15 247
93 247 2
102 246 46
209 184 59
217 40 148
254 165 169
9 177 140
195 78 62
171 27 111
16 232 6
116 201 163
86 177 156
9 149 215
228 213 49
149 167 169
198 145 205
238 216 224
61 3 63
3 98 157
221 164 252
122 0 203
229 203 70
64 180 68
160 68 186
121 165 73
65 166 107
231 108 206
191 44 18
7 208 244
132 98 189
221 169 40
104 134 106
130 94 34
74 115 65
238 85 200
106 49 131
173 241 195
188 55 113
22 117 26
203 93 146
84 136 130
122 103 100
243 46 149
220 179 121
165 178 39
199 17 96
22 133 246
41 29 2
114 39 106
196 160 80
88 215 232
60 187 34
79 169 79
142 183 73
77 245 142
23 48 123
104 54 19
217 11 241
48 116 102
138 86 13
24 245 74
248 203 164
132 44 148
31 1 12
205 211 62
246 69 4
1 29 254
36 229 27
67 103 13
12 120 252
116 124 165
102 121 26
30 107 32
81 82 252
63 14 111
131 41 173
26 143 129
132 204 130
179 113 191
89 174 101
228 20 19
255 60 219
36 73 80
16 132 154
180 13 237
64 169 26
185 146 236
103 96 106
18 64 38
131 228 129
247 101 93
82 23 190
180 46 120
88 227 164
227 71 17
125 49 52
11 231 100
98 210 195
176 101 234
135 64 118
247 6 112
145 201 70
124 181 188
236 168 182
155 36 73
200 73 93
182 109 161
111 158 54
79 218 45
198 175 242
17 44 93
199 231 110
10 246 141
157 48 180
46 97 176
227 114 115
141 254 114
83 202 184
81 26 30
153 203 164
71 19 73
209 195 157
100 231 234
126 203 15
48 229 212
14 72 175
154 48 193
14 59 18
230 90 97
66 132 71
117 197 229
190 96 48
44 181 20
213 194 74
148 126 27
142 126 66
137 35 128
160 65 76
196 62 113
235 36 165
165 204 221
196 86 88
57 250 212
6 71 252
190 208 212
51 11 217
82 172 148
95 241 106
83 251 138
192 115 229
73 174 36
162 105 222
159 181 101
142 204 117
164 156 211
82 227 34
227 112 130
129 202 209
31 28 59
46 196 153
32 71 211
233 17 209
148 79 25
50 221 154
37 228 20
188 208 84
139 212 18
2 83 124
140 200 183
246 76 32
216 115 151
137 25 220
10 21 14
103 112 14
15 240 17
239 19 96
151 208 11
248 146 205
224 187 175
70 95 239
233 211 218
137 62 5
97 234 126
97 198 204
180 139 21
134 47 34
97 64 45
109 76 1
58 132 57
66 211 248
92 181 210
215 43 100
134 145 92
112 208 131
7 227 39
24 109 182
158 113 252
74 20 104
139 67 120
101 3 84
214 164 65
235 49 242
218 161 175
130 146 193
195 93 133
52 15 41
119 15 232
207 77 20
12 109 185
154 226 147
111 100 234
81 29 215
108 151 197
234 192 139
102 141 104
193 143 102
212 136 94
190 166 162
157 180 211
16 247 247
147 15 0
102 44 88
194 48 214
197 130 115
47 126 2
206 176 7
242 151 248
92 25 71
58 25 122
102 182 46
132 174 30
111 213 115
199 108 250
126 148 112
221 117 131
42 247 243
237 143 91
202 209 22
252 69 39
162 197 92
141 121 228
224 177 205
179 233 162
36 123 20
190 122 42
120 114 46
102 157 74
104 155 224
39 91 67
9 139 13
222 245 233
226 122 160
106 107 153
151 217 65
125 108 54
98 229 64
97 95 112
198 229 184
57 84 234
66 33 241
159 220 81
78 195 22
12 97 196
32 120 11
5 18 143
118 42 3
8 234 89
26 188 74
225 164 108
236 222 0
98 86 203
61 180 3
149 156 24
81 65 213
132 218 50
96 249 219
131 101 108
55 30 243
101 243 0
41 224 180
224 47 155
68 29 77
140 139 159
236 25 174
141 78 30
104 104 42
243 56 22
152 235 187
176 170 201
155 88 251
174 0 156
202 115 154
38 22 34
7 113 157
173 142 196
35 32 35
166 48 78
222 162 223
12 95 231
136 200 65
31 23 157
203 82 60
10 152 237
166 10 18
126 95 183
41 169 217
132 174 72
181 221 79
64 192 119
223 155 137
119 174 175
213 155 84
87 2 229
183 156 27
46 199 67
43 9 120
240 44 185
178 121 217
67 52 148
134 126 94
155 208 18
132 62 235
245 1 236
66 40 178
167 194 219
41 104 202
191 12 163
247 99 89
40 29 132
141 223 248
136 103 16
84 40 70
62 134 2
224 15 161
162 179 241
16 22 58
254 167 85
185 122 245
57 104 41
228 151 81
165 99 233
249 84 110
47 44 123
113 237 72
126 93 82
138 63 251
204 85 25
22 48 183
162 221 201
66 35 236
215 141 77
238 112 148
252 36 163
113 86 225
46 69 195
97 19 247
173 81 216
159 130 175
157 154 43
243 197 210
108 184 187
145 212 123
95 34 155
207 157 144
222 154 16
85 206 230
138 212 33
241 226 186
160 20 9
46 126 139
180 237 152
42 161 37
15 174 11
245 72 13
13 0 5
16 162 175
63 130 123
28 143 239
223 167 111
231 126 82
85 12 185
104 206 253
170 192 28
1 131 157
156 15 54
8 70 81
15 26 46
64 41 184
199 99 61
255 204 50
212 187 187
7 213 106
50 135 210
214 90 66
251 42 238
104 84 174
5 185 71
212 251 107
237 109 10
138 168 125
32 138 116
205 105 207
153 33 184
6 136 78
79 155 15
156 255 209
162 37 230
246 217 239
229 168 236
43 8 192
103 241 9
200 197 174
4 214 253
206 228 153
81 227 99
109 176 103
121 164 113
222 63 98
7 111 85
250 20 148
178 22 181
21 156 46
205 80 2
210 110 105
121 103 3
121 146 43
131 147 210
51 237 24
250 213 58
104 22 121
255 219 53
29 197 77
38 195 210
84 51 108
253 121 253
109 133 102
174 153 23
155 40 234
47 221 40
76 242 195
107 59 135
206 98 251
25 48 126
248 8 168
197 215 149
183 70 45
224 123 240
35 198 140
69 124 194
110 105 126
69 138 151
218 159 52
7 202 11
160 115 128
37 125 178
44 88 207
5 211 82
166 40 190
219 48 191
42 104 209
21 79 33
117 237 19
112 35 238
14 187 13
7 156 242
142 157 134
127 88 4
228 59 122
250 245 171
214 126 119
146 152 115
4 56 234
233 166 182
39 4 32
176 142 161
193 67 175
0 70 58
156 33 114
50 189 250
45 77 181
97 168 176
214 115 180
231 26 107
21 133 72
16 181 81
83 148 54
123 123 209
80 231 162
81 0 173
37 118 167
200 122 194
91 21 0
196 234 107
121 101 224
77 218 48
169 104 219
14 229 212
245 177 179
234 171 41
103 75 63
30 251 1
202 248 34
236 215 22
83 184 78
178 193 186
116 37 25
190 94 176
123 199 145
72 206 83
14 171 61
199 236 122
95 157 253
116 227 204
239 111 127
112 101 155
42 212 5
79 119 82
142 137 64
171 238 24
122 128 88
8 92 63
133 64 47
29 83 196
180 26 125
40 76 9
15 25 53
168 237 253
108 196 171
79 129 60
150 33 243
210 24 47
222 19 104
241 203 151
220 32 55
190 101 161
79 213 99
69 124 209
120 45 165
255 196 158
251 185 61
24 220 255
17 252 247
100 82 120
130 99 1
68 205 132
130 15 182
91 125 179
214 66 88
223 5 134
119 29 69
187 199 116
209 232 130
52 123 78
1 197 0
11 28 198
59 58 238
105 190 77
208 46 31
184 103 93
50 221 29
109 247 111
82 248 249
247 93 234
115 189 220
208 144 128
188 0 187
176 252 86
217 8 90
160 33 155
239 154 199
199 134 9
106 125 90
133 99 227
243 8 54
117 9 205
91 238 153
250 57 166
105 52 114
72 140 226
191 27 101
39 76 197
97 93 95
134 236 201
78 17 113
184 5 138
105 153 34
178 148 149
84 147 186
65 132 72
92 78 151
163 161 239
177 182 35
245 27 129
10 124 131
142 88 245
120 169 16
174 153 73
45 53 77
202 77 113
170 177 96
6 178 12
71 210 13
2 82 105
193 101 59
92 228 147
163 165 101
112 244 231
221 201 119
27 129 221
224 235 158
237 78 40
121 98 97
46 47 55
168 41 81
179 82 166
20 248 64
228 154 56
163 148 143
222 246 79
221 209 189
205 204 107
94 173 130
215 88 16
112 94 117
87 250 50
175 230 171
206 231 134
127 30 199
229 203 159
124 169 229
174 126 59
197 65 74
242 199 233
71 67 66
59 246 136
10 65 250
184 79 233
118 169 18
203 237 46
215 171 34
215 222 97
177 225 173
206 170 57
221 173 213
154 167 85
199 45 202
190 61 116
231 112 63
211 202 99
46 63 235
248 19 39
32 38 102
252 124 80
98 56 165
92 119 158
113 55 82
178 95 55
214 255 175
66 177 2
114 24 180
154 89 56
181 103 23
83 92 242
120 37 97
206 146 119
241 57 58
59 147 239
12 12 179
128 117 65
114 194 150
190 253 216
125 203 183
137 102 66
15 97 213
233 238 83
3 247 237
194 154 253
188 184 207
225 126 91
237 88 177
212 251 17
137 76 224
220 246 32
82 0 132
250 67 36
200 136 123
11 111 135
128 71 80
5 123 84
57 125 41
111 16 225
137 231 121
230 227 157
162 11 148
31 250 159
237 47 254
90 189 249
69 90 228
211 189 163
219 207 240
11 251 87
247 70 131
163 74 103
253 102 74
1 89 81
105 140 36
106 202 215
123 170 253
10 232 122
93 24 90
140 255 58
180 251 2
146 208 55
54 99 152
106 45 31
164 73 239
231 179 131
125 192 206
250 92 54
122 191 216
99 143 193
155 210 199
165 199 37
181 131 230
61 207 29
245 2 219
237 37 122
142 255 62
82 27 68
199 120 229
8 127 181
107 211 135
225 37 35
80 98 187
125 67 63
55 48 6
207 140 187
15 120 142
227 85 245
214 227 43
239 203 188
163 76 156
111 159 113
244 232 12
244 130 232
55 221 54
214 134 6
84 248 146
181 235 231
109 99 30
18 54 7
107 58 192
228 182 23
252 25 95
58 156 128
224 219 21
220 153 225
44 23 207
216 94 72
26 225 167
169 149 152
166 95 4
226 194 72
237 171 107
69 12 47
182 79 246
213 241 163
151 25 255
14 164 31
228 139 125
167 209 107
42 141 4
117 176 10
41 139 230
177 215 50
243 242 101
105 39 63
88 198 199
139 13 135
210 48 113
245 87 77
137 230 230
222 207 27
126 238 136
207 212 220
129 159 233
69 190 183
14 183 204
123 57 30
132 92 206
48 94 220
65 138 233
253 220 16
243 17 113
201 83 86
43 223 231
126 76 0
50 162 24
154 190 226
150 35 86
220 234 233
5 224 41
81 98 187
76 6 49
124 7 218
170 44 210
32 51 83
36 112 32
213 196 139
223 165 12
170 128 250
40 243 23
59 226 176
15 69 63
12 56 92
184 119 58
154 198 1
96 250 120
213 26 190
174 192 181
140 71 70
157 52 67
95 55 42
76 84 81
170 26 112
13 112 201
11 236 45
237 85 130
27 67 128
52 109 133
80 255 250
153 139 83
186 215 135
59 72 243
95 142 148
18 19 180
115 50 185
166 10 108
164 109 70
133 203 58
62 162 202
104 60 98
0 8 181
207 60 164
132 46 133
204 61 162
249 63 11
106 227 197
177 110 98
231 8 197
223 0 19
177 85 229
237 160 127
65 21 77
76 29 176
95 69 44
145 98 245
211 98 100
99 182 123
41 206 69
150 244 15
52 61 23
166 23 139
204 54 164
102 194 76
139 197 22
253 11 188
3 200 158
201 229 255
71 23 25
169 183 77
111 213 151
162 75 52
53 125 133
232 62 211
135 94 234
218 216 21
91 222 56
180 2 85
234 9 81
98 79 65
156 28 73
238 32 119
41 247 55
62 42 245
51 31 143
196 43 249
143 39 114
138 205 191
70 109 43
165 149 188
116 3 63
88 17 94
133 156 238
247 222 77
21 160 1
104 172 23
88 92 22
68 222 25
189 177 19
248 215 137
37 50 216
172 81 223
174 39 103
134 162 168
199 238 155
95 203 111
171 5 99
97 140 46
240 43 5
91 212 16
168 203 109
114 229 105
199 79 88
253 223 148
226 46 11
132 179 150
151 35 150
118 228 215
55 31 218
234 7 98
38 181 158
44 166 108
40 162 222
3 250 90
159 92 195
116 217 233
241 228 229
162 195 193
42 150 89
99 21 227
93 188 56
132 130 175
249 31 94
55 120 211
143 27 210
84 64 92
13 76 35
213 153 86
9 16 60
253 18 3
44 152 136
27 133 93
248 0 121
18 167 202
184 237 1
145 52 159
189 204 229
246 24 224
7 197 182
35 142 37
104 224 78
28 141 150
43 155 250
11 89 214
98 206 174
71 40 121
66 221 67
28 155 47
68 135 145
11 168 115
10 29 10
254 121 8
206 42 170
199 49 121
92 177 113
27 226 244
188 86 162
206 228 102
232 45 43
95 222 160
202 147 178
236 57 76
135 2 38
119 229 42
233 110 107
196 88 99
24 19 118
127 176 23
119 145 84
47 73 163
22 73 14
41 239 17
157 108 8
215 171 108
91 214 22
207 174 101
82 220 163
90 31 43
52 117 191
227 67 79
158 23 216
96 196 38
12 38 149
98 41 154
224 58 247
83 116 200
143 68 190
201 165 11
158 220 182
31 45 68
164 237 238
28 33 245
118 90 45
62 72 210
209 252 148
143 7 231
118 177 94
36 100 126
84 85 88
188 174 118
77 53 229
64 220 35
156 193 53
65 21 52
180 129 92
141 243 156
246 37 105
43 126 133
70 48 111
163 234 83
118 255 241
10 208 235
219 138 46
8 165 179
138 81 119
49 205 117
221 2 204
218 186 146
111 88 80
9 85 124
10 247 118
219 172 152
246 156 149
232 140 230
124 36 15
154 255 98
0 103 227
165 44 233
149 47 124
108 153 22
120 113 151
155 116 50
120 191 48
213 245 99
43 165 13
60 6 95
130 76 112
177 214 71
160 13 70
44 59 155
230 30 54
129 3 31
188 57 8
142 107 83
178 222 254
107 127 94
109 37 47
68 249 56
100 134 46
106 140 250
170 47 102
30 214 123
68 133 172
63 181 188
27 121 56
153 157 163
88 189 44
234 77 50
29 86 175
199 247 211
240 196 202
102 76 101
155 119 176
195 115 81
84 237 148
74 94 100
103 210 90
82 147 141
126 18 248
40 121 112
123 40 36
245 57 220
90 57 178
161 106 14
87 38 182
143 31 40
191 2 229
169 14 176
229 184 87
212 209 183
103 30 194
207 215 217
151 63 218
72 43 31
35 129 240
244 57 147
44 237 176
217 7 5
169 29 153
175 207 58
40 39 87
254 52 208
190 71 171
121 96 137
56 237 217
12 119 221
18 203 30
222 156 160
213 19 190
152 254 4
217 225 72
5 185 243
33 17 29
209 31 141
126 238 70
52 215 85
87 58 61
184 252 7
225 225 173
67 225 90
123 249 152
89 148 180
189 46 40
230 132 115
76 125 94
251 221 157
72 66 145
62 82 5
229 133 190
238 101 54
215 106 230
35 10 91
25 132 82
66 24 231
20 120 196
173 254 176
252 134 229
96 59 189
95 104 205
49 49 107
2 237 251
165 197 74
22 39 115
109 254 201
18 2 56
200 57 141
232 138 137
159 65 230
138 205 232
206 224 49
177 26 49
3 233 59
102 127 206
42 171 33
30 123 47
170 18 138
24 194 61
13 159 197
245 88 175
96 250 245
237 128 179
40 124 223
170 76 157
77 245 76
111 212 127
150 131 6
231 110 122
21 106 93
170 114 167
217 231 113
136 47 42
249 211 175
37 29 182
188 13 219
165 213 18
77 56 178
4 227 216
152 36 76
219 240 165
74 44 41
242 9 251
30 70 56
136 127 203
250 208 116
237 140 85
203 74 104
146 42 242
212 78 8
176 150 215
27 41 135
22 215 131
237 217 78
113 158 1
249 74 249
88 98 220
70 193 138
135 184 155
215 241 67
250 24 229
33 187 110
12 21 9
237 38 66
194 5 57
153 111 109
110 136 53
39 38 136
216 246 108
250 221 253
28 103 146
117 155 172
29 204 154
104 253 208
240 167 103
14 8 86
18 118 33
38 157 63
13 120 133
154 147 224
147 27 49
209 110 30
221 76 2
246 245 215
243 232 30
66 45 157
63 192 120
196 49 206
124 136 147
175 207 131
68 1 227
233 208 183
115 197 229
116 119 243
32 125 158
209 79 111
160 162 122
34 67 237
242 182 99
118 38 30
196 78 8
24 189 124
124 244 0
152 60 121
17 113 219
87 151 110
169 140 25
225 225 186
97 212 130
72 210 20
35 102 139
195 76 41
237 193 89
98 8 149
174 90 174
30 176 30
235 152 80
48 96 160
79 111 243
159 105 204
122 172 113
23 74 221
14 175 164
253 60 255
62 63 75
237 150 97
195 119 94
62 144 99
173 186 140
177 89 197
241 167 240
91 56 140
76 128 48
107 165 203
174 136 82
114 200 229
152 248 30
234 52 109
68 94 65
82 53 10
177 242 148
223 58 19
33 186 231
226 237 35
130 193 169
224 97 9
68 246 202
158 128 236
209 187 115
86 162 54
3 96 253
36 189 234
128 93 203
161 45 40
219 220 4
131 21 188
205 235 222
183 73 189
227 40 45
235 152 181
88 200 95
253 74 174
46 199 54
212 248 63
55 82 232
206 192 118
10 101 0
253 220 198
60 234 78
24 153 233
175 149 184
111 67 37
184 180 214
66 236 237
100 11 7
243 37 197
122 24 207
8 214 7
86 157 113
103 117 142
76 8 216
182 156 51
209 225 239
22 3 212
214 94 51
229 124 231
240 182 42
93 57 222
92 58 107
242 25 122
16 86 44
154 126 59
6 216 121
233 250 155
93 33 46
187 37 1
205 252 30
63 219 136
245 133 185
24 120 214
209 88 228
196 240 139
191 148 43
237 253 238
230 210 38
158 101 25
76 27 24
26 78 184
81 144 238
233 22 61
9 66 253
155 131 173
71 238 13
5 26 88
224 170 243
85 9 223
8 176 148
108 17 29
136 217 79
23 75 3
172 215 115
36 189 137
251 226 194
148 123 21
180 211 196
177 227 48
218 93 202
3 181 78
189 220 46
243 214 241
11 172 179
145 203 135
238 29 4
185 12 129
194 114 114
49 96 166
86 81 200
23 143 106
168 61 69
1 229 5
46 129 55
217 119 2
43 14 99
239 66 95
122 7 159
56 148 20
254 53 157
36 105 52
174 236 130
77 217 118
175 236 229
30 194 121
118 94 78
122 71 193
212 206 201
225 7 160
30 23 194
243 207 163
163 76 162
152 205 170
158 67 231
81 187 228
147 62 18
181 180 133
145 27 125
88 245 149
211 44 67
37 23 12
10 180 167
44 55 38
233 228 83
163 17 135
127 3 91
71 201 114
234 103 178
148 186 75
165 208 249
199 254 112
254 110 23
58 184 103
132 71 241
149 246 35
235 155 115
59 220 45
89 250 133
252 195 204
25 251 102
232 234 108
2 77 59
245 31 10
64 202 16
90 85 57
247 144 38
253 159 33
151 27 22
79 60 28
32 147 165
3 164 219
246 123 105
83 23 196
252 164 12
254 38 219
46 220 137
50 122 60
0 150 111
69 200 111
134 161 121
177 17 16
5 106 1
125 102 35
116 122 219
126 199 43
26 110 252
149 252 80
174 91 221
42 57 1
140 99 221
50 192 113
221 216 96
33 105 97
211 136 65
62 185 209
194 161 43
195 112 175
30 17 60
249 167 22
192 21 159
103 226 116
142 106 185
93 3 13
35 100 51
200 56 203
230 105 180
119 47 58
216 79 173
39 62 101
86 89 152
150 243 135
40 72 143
138 24 77
220 232 249
21 95 31
176 209 253
102 1 63
195 211 89
35 189 121
229 125 152
126 7 198
215 153 87
144 171 239
152 97 251
48 6 159
72 143 92
209 226 73
232 224 237
251 246 48
1 9 146
16 135 3
107 223 233
154 83 225
87 153 79
15 15 179
209 205 131
153 246 206
100 168 38
241 88 193
87 24 109
227 66 112
147 173 116
166 90 164
47 125 75
187 57 114
161 35 111
162 225 173
78 154 228
169 105 88
16 200 248
209 121 51
16 181 233
209 245 42
229 242 190
229 225 124
148 175 38
191 195 46
38 139 22
169 20 141
234 113 200
59 216 154
54 174 145
9 112 192
197 163 57
219 38 192
248 131 169
176 27 100
115 108 208
23 90 76
3 68 13
147 249 93
73 0 92
233 124 141
189 46 221
205 3 240
94 104 72
222 50 248
138 188 0
96 163 149
239 79 107
207 168 191
95 171 235
120 109 228
133 26 240
10 20 43
122 148 43
215 143 25
225 203 149
142 106 218
172 254 202
126 12 158
179 102 232
9 119 194
173 119 212
6 26 92
28 161 135
151 17 20
30 144 192
24 106 150
84 53 17
41 219 28
71 59 76
168 11 75
171 212 174
60 17 163
220 139 224
24 164 150
147 208 77
149 145 236
108 45 29
67 166 14
207 53 158
204 224 138
147 11 51
16 164 193
24 167 89
157 191 15
190 130 87
177 101 222
100 139 227
122 146 238
97 191 255
247 148 218
190 78 214
150 177 196
99 137 28
251 182 148
30 4 129
236 197 111
222 145 131
233 42 244
192 4 9
46 41 97
92 66 215
63 220 218
59 46 218
60 122 233
152 72 240
239 242 216
20 120 157
214 38 205
96 198 15
36 129 14
173 101 252
156 72 233
175 226 56
23 57 179
22 138 49
128 84 84
194 237 228
86 128 98
86 143 10
246 249 145
121 235 253
102 71 191
206 180 157
154 248 229
43 117 22
177 80 106
206 151 240
248 190 86
180 105 31
88 223 32
187 144 118
38 198 52
25 175 190
195 240 141
192 3 103
14 179 118
66 247 117
239 81 244
235 183 149
110 147 199
61 6 170
231 186 71
48 198 228
39 226 157
153 13 185
148 2 53
60 245 222
104 125 139
130 150 66
61 232 21
50 95 36
77 122 79
38 154 188
94 124 52
197 112 75
47 88 36
2 234 153
176 112 5
162 31 29
95 101 205
241 146 41
127 205 116
74 23 2
210 197 1
123 170 125
170 94 126
220 73 182
247 0 238
225 97 254
153 49 136
173 64 41
37 101 239
196 16 56
197 60 91
251 238 127
202 231 178
196 7 85
141 245 26
165 239 167
94 159 229
98 160 153
2 209 14
118 95 167
239 33 153
170 49 140
115 51 24
112 183 4
159 106 126
175 167 140
245 46 83
64 220 115
122 54 234
150 215 217
164 61 19
147 63 95
208 207 191
33 185 94
231 41 0
227 138 17
12 47 114
186 87 203
193 117 80
66 106 154
128 152 3
32 34 56
78 74 168
136 95 100
25 209 111
123 255 90
92 94 4
70 180 29
36 12 229
151 30 225
232 76 232
224 180 84
103 188 232
133 99 105
246 24 89
168 49 79
147 193 196
132 181 181
113 22 94
36 61 187
88 247 86
195 108 251
157 89 96
85 244 13
204 130 44
184 81 111
175 86 181
28 36 32
128 89 232
45 143 131
14 142 231
37 56 210
57 47 65
111 178 254
84 211 241
148 161 149
185 82 252
32 253 137
22 69 68
69 173 37
6 87 101
14 239 0
134 152 75
118 59 24
205 158 243
114 175 83
147 110 165
212 170 172
248 246 22
155 106 22
97 228 89
199 212 140
109 68 83
209 229 227
207 109 204
111 115 210
236 118 99
119 221 164
32 84 210
215 39 43
127 111 170
90 231 131
219 187 72
74 77 37
205 102 13
169 163 36
254 159 98
80 226 126
146 116 95
91 181 32
216 254 139
124 157 190
202 64 183
235 251 177
248 202 212
110 34 26
39 103 80
85 161 2
103 122 151
42 177 35
195 36 112
193 167 76
215 35 152
9 89 12
13 187 84
138 44 106
185 148 117
9 72 138
71 70 156
96 132 46
131 33 39
10 234 147
186 211 133
129 70 130
121 192 4
178 246 8
199 98 75
212 110 192
242 58 242
253 31 91
57 157 76
250 226 158
76 238 52
137 73 216
126 41 210
132 186 52
219 48 93
253 206 29
183 234 198
92 42 68
20 127 6
30 190 11
113 8 25
234 9 97
16 78 221
123 23 107
216 13 8
215 109 101
66 191 100
223 80 194
144 79 62
255 113 245
185 105 33
205 96 253
29 89 236
25 141 142
161 95 70
78 163 58
48 58 214
156 216 86
228 68 96
34 141 84
149 231 7
192 171 171
4 111 44
147 200 12
160 213 45
83 104 84
85 48 48
109 29 21
138 66 152
162 223 99
42 106 254
6 119 214
22 117 61
166 89 47
233 248 207
221 36 234
55 37 248
80 220 127
29 27 8
209 209 160
148 84 177
113 8 129
70 79 179
158 27 29
47 101 48
84 249 50
14 110 16
135 182 43
225 65 245
31 205 177
211 14 247
254 161 185
86 255 182
126 137 36
213 187 148
149 187 68
62 120 140
11 177 206
75 168 109
1 64 136
214 206 32
70 189 103
170 187 248
30 250 149
15 160 171
30 20 27
103 178 199
222 184 27
55 164 51
101 160 211
182 231 182
201 240 212
208 145 129
55 119 111
44 44 48
213 130 174
155 108 70
90 213 17
194 70 109
29 22 99
196 19 93
227 42 147
252 100 167
70 58 56
19 61 12
149 204 247
11 119 46
228 131 138
253 46 239
18 13 23
246 234 211
21 136 133
60 56 23
107 82 146
202 195 212
18 131 80
167 45 7
61 11 109
249 11 7
130 2 48
127 163 164
53 206 105
226 240 2
165 79 125
107 85 118
69 207 239
22 170 152
13 145 211
90 55 56
140 243 70
165 228 168
225 251 129
249 200 65
142 39 101
22 173 135
212 26 45
125 64 169
185 190 43
6 203 100
132 2 157
154 27 214
252 132 148
239 132 219
129 219 176
37 247 110
148 199 22
174 1 39
113 13 165
169 207 75
181 215 16
205 18 0
188 111 35
138 169 90
61 231 30
178 174 65
55 104 202
53 132 154
173 145 56
211 211 28
240 9 23
225 218 8
14 0 168
188 114 215
16 64 130
91 170 186
93 197 60
31 250 207
71 220 245
29 177 62
115 49 251
251 222 171
220 191 233
79 210 121
64 118 216
90 123 235
149 220 75
92 19 79
132 169 16
75 2 155
142 228 35
2 232 26
83 78 55
101 13 228
40 69 46
234 10 100
68 100 43
151 144 175
92 60 25
234 26 235
149 213 231
7 166 250
76 241 148
228 114 180
231 125 159
105 107 140
60 71 231
16 144 9
44 33 241
163 233 97
112 29 243
241 17 155
163 234 230
157 228 22
22 168 30
134 45 35
150 78 109
167 169 41
55 222 9
199 84 189
14 223 14
250 150 140
75 131 240
27 231 107
251 52 66
118 116 251
183 217 118
198 221 166
68 198 16
161 166 247
207 111 32
161 142 204
70 106 32
225 245 98
228 27 172
185 236 142
146 81 50
61 252 53
63 109 40
86 185 131
224 178 145
142 104 234
228 232 97
33 117 34
91 129 160
115 212 130
177 118 90
41 155 252
209 33 35
168 77 255
225 25 204
130 221 150
166 130 140
213 6 177
128 53 188
3 242 150
237 206 229
77 211 12
1 187 21
25 70 23
132 215 252
219 30 123
5 142 240
12 189 189
156 107 38
252 57 103
218 89 240
113 204 229
103 131 39
228 51 214
42 230 187
114 36 238
167 117 168
94 251 169
158 47 236
98 195 238
183 243 31
21 60 58
230 4 176
49 213 186
23 144 16
199 160 41
12 164 180
69 141 66
222 127 202
192 205 204
147 43 126
135 193 65
19 83 244
72 126 226
211 249 220
36 224 95
193 100 57
104 76 239
243 171 139
10 33 122
58 161 117
232 183 21
225 8 162
159 119 158
165 251 65
56 159 132
22 95 60
20 202 148
127 46 227
34 111 249
201 66 36
179 54 79
172 87 143
15 133 73
154 160 62
2 158 197
63 29 179
111 230 231
245 58 15
227 24 119
120 36 166
164 235 116
2 147 67
20 130 75
88 97 106
155 197 240
77 158 146
10 210 196
69 56 20
179 150 124
134 151 248
112 56 7
83 200 32
134 49 203
41 224 18
211 62 171
153 250 111
38 241 32
84 15 144
75 153 158
23 169 47
252 146 152
90 93 15
183 30 13
160 227 192
48 240 21
130 47 0
189 108 222
238 221 51
65 53 166
174 68 19
51 245 25
40 206 228
200 152 173
127 152 58
237 184 180
124 144 97
251 135 35
80 202 71
227 68 143
202 130 8
101 156 105
205 94 173
79 80 47
139 51 4
181 98 81
97 219 113
210 212 212
231 215 164
226 29 237
27 116 32
189 155 238
2 69 189
57 180 173
118 84 114
192 124 145
166 231 194
228 111 245
161 214 88
176 198 199
38 36 208
99 10 160
221 92 208
103 94 228
253 72 189
254 151 89
17 18 246
155 177 244
196 87 245
175 47 92
157 182 104
191 249 106
145 127 23
82 50 21
249 244 248
16 8 12
47 58 20
54 38 61
38 252 157
47 255 14
251 181 209
57 131 144
165 187 245
247 51 100
141 30 60
9 232 255
199 19 25
227 38 192
132 183 73
104 241 208
247 179 238
53 248 85
68 96 43
115 120 231
239 246 216
218 123 105
46 236 149
92 152 98
31 132 26
156 219 158
141 173 36
106 22 127
130 171 203
132 197 51
192 10 184
185 130 43
120 153 33
22 168 236
185 114 216
165 2 123
95 55 135
194 75 235
42 151 177
27 40 9
57 207 44
212 40 111
190 240 113
92 147 233
28 24 185
82 84 144
112 234 176
165 25 242
93 76 77
103 96 243
126 114 161
136 151 163
73 115 211
186 234 253
15 178 130
190 26 132
52 176 173
79 203 4
127 109 0
36 5 18
60 252 76
239 59 90
167 103 128
252 88 195
186 174 24
107 95 30
70 7 215
231 249 150
253 173 218
43 248 149
47 157 207
124 57 143
127 178 237
172 174 141
24 205 60
18 213 43
212 182 141
7 217 117
21 242 65
76 216 39
134 185 11
41 101 80
215 22 234
61 126 114
57 162 63
218 223 174
125 133 207
229 103 216
88 255 92
153 81 137
82 85 236
66 203 26
254 122 73
56 80 101
162 65 63
10 177 212
108 75 80
134 251 122
30 191 184
122 190 185
168 186 241
82 108 175
243 103 226
203 142 58
248 165 66
17 76 123
117 195 133
125 188 219
2 70 162
214 168 27
178 150 210
148 149 242
1 41 192
7 230 47
48 145 185
87 4 84
49 134 238
117 227 239
122 78 250
185 125 49
106 68 38
208 183 228
149 182 207
62 181 179
15 240 152
122 208 77
200 143 86
56 245 187
41 89 176
12 121 185
42 129 120
54 180 213
221 120 18
99 188 111
120 106 111
217 77 205
231 68 238
160 171 42
4 162 85
49 166 154
146 111 242
168 236 226
180 38 25
248 159 187
244 188 248
149 54 55
193 113 207
216 79 209
111 21 200
243 56 167
123 76 3
17 48 107
48 215 27
158 190 212
173 94 93
202 220 201
194 252 75
223 116 179
178 17 122
109 71 101
180 121 240
24 181 216
20 176 251
230 141 46
17 115 250
147 62 101
165 87 101
60 35 18
249 86 129
68 147 236
139 115 6
72 108 237
204 95 250
31 23 133
18 215 177
161 219 218
247 130 197
54 90 189
204 88 160
57 40 153
108 125 231
179 32 228
138 49 29
105 190 218
238 151 65
231 187 20
184 120 203
185 188 241
139 92 157
180 109 228
219 16 128
86 137 93
121 248 61
51 152 17
124 67 169
61 40 55
171 43 0
45 206 229
112 147 173
26 184 86
140 208 75
57 53 139
4 221 65
151 196 216
142 225 172
48 123 48
231 110 198
125 219 36
29 57 233
162 244 245
66 29 41
114 224 127
0 93 232
119 87 175
35 240 106
26 202 2
251 61 199
143 216 205
149 238 215
242 182 170
92 145 199
201 115 230
223 102 164
76 27 70
24 102 72
101 69 206
100 6 181
223 139 142
85 54 158
127 79 68
101 156 193
73 104 174
5 107 241
139 214 191
209 128 119
211 90 35
21 254 241
153 146 34
169 71 233
76 89 218
114 186 65
220 43 72
93 250 250
132 6 123
80 157 201
161 79 145
85 132 72
89 232 42
70 199 107
218 24 142
38 98 226
68 246 46
67 66 206
161 242 113
171 61 127
217 127 110
26 218 10
94 233 103
133 223 15
123 157 118
226 88 213
81 122 48
163 37 169
116 235 240
183 98 59
250 117 34
184 208 26
38 220 220
77 68 100
247 243 44
59 181 166
123 194 195
106 175 255
38 30 193
85 142 127
206 240 143
63 132 195
59 161 86
142 171 55
144 189 160
5 238 221
231 73 123
17 239 90
143 119 27
182 130 202
118 85 132
9 55 40
22 145 83
209 63 89
240 135 141
245 34 133
126 150 194
19 189 205
125 61 100
67 243 10
94 124 59
230 86 149
40 0 105
28 24 171
44 139 138
237 134 38
168 136 219
71 158 36
235 67 194
149 46 184
114 189 41
183 128 59
4 83 6
228 0 249
236 61 226
241 251 253
86 132 93
17 127 87
186 243 197
59 22 225
43 191 69
157 47 54
184 9 119
73 35 134
232 237 142
184 48 4
236 74 204
134 139 186
227 182 240
60 207 36
68 122 210
114 53 14
14 71 230
226 166 51
95 205 164
121 183 79
39 235 126
126 85 75
211 122 63
116 163 95
124 219 59
47 212 30
46 104 126
149 211 167
142 239 54
213 205 111
210 188 109
45 87 194
158 222 13
38 21 108
210 208 184
210 165 90
98 153 90
226 11 34
53 34 209
220 161 168
66 37 44
95 218 7
118 31 199
245 231 110
75 135 40
10 45 108
244 90 177
81 159 218
32 191 29
22 113 69
14 235 60
149 249 72
227 73 29
56 53 200
145 123 89
143 119 204
130 111 165
195 19 44
195 41 33
46 92 11
146 139 240
57 50 132
222 58 140
42 40 196
71 221 41
129 204 116
14 213 31
160 12 211
51 44 104
135 152 229
136 34 78
148 132 146
19 1 157
112 61 202
55 25 234
238 136 250
114 81 168
102 243 161
20 125 125
213 214 237
221 182 132
61 48 21
208 109 166
212 213 124
49 61 131
119 91 102
251 50 36
153 115 131
33 156 185
183 164 236
198 129 50
240 204 249
225 45 81
27 167 52
136 47 80
30 226 99
188 90 23
19 3 174
183 185 15
187 203 204
206 183 160
105 29 101
215 231 185
106 151 45
81 69 14
65 90 9
165 146 129
156 11 207
201 237 86
10 1 164
122 175 78
115 232 25
85 107 230
151 215 24
182 39 138
72 239 43
102 242 249
11 117 38
154 81 215
230 123 49
103 228 199
1 129 252
23 154 197
100 197 247
170 180 98
87 148 205
0 121 126
106 90 179
224 9 220
157 211 108
180 224 74
188 96 138
176 153 35
9 104 30
29 88 97
102 13 35
165 166 169
23 134 40
222 31 10
55 50 98
39 74 136
167 17 172
125 191 245
5 0 157
5 224 214
76 139 112
55 59 242
27 58 10
139 107 164
233 37 165
79 251 124
242 102 212
249 60 215
23 150 18
85 244 14
228 190 18
184 45 219
224 79 255
137 158 42
111 99 40
138 32 215
87 200 144
121 119 96
229 158 66
72 36 78
12 89 180
77 166 23
29 194 229
238 168 156
150 208 153
16 214 67
69 188 196
238 8 120
244 70 245
94 128 192
186 203 239
122 93 153
248 111 99
19 81 180
82 71 222
100 176 121
36 254 71
194 80 195
178 36 6
27 13 81
70 226 42
53 54 89
241 45 38
148 9 234
105 188 107
153 69 39
151 183 14
236 154 243
152 140 63
70 233 186
252 225 110
115 23 190
20 157 237
245 226 209
255 43 152
254 128 99
234 51 97
19 160 175
115 92 71
188 209 14
30 101 1
160 27 56
59 117 2
211 54 180
59 65 238
68 140 235
120 179 212
109 48 152
228 203 181
35 106 110
132 210 246
72 20 83
235 45 154
249 91 181
219 211 255
96 47 181
153 229 226
45 124 96
254 162 179
204 156 250
146 23 73
186 89 151
75 110 64
121 87 244
88 44 60
82 6 95
0 95 155
1 32 154
70 94 1
92 31 23
144 19 163
193 170 12
16 169 231
39 234 11
166 213 241
222 53 180
134 73 127
196 155 168
75 125 177
12 203 243
95 130 128
112 93 144
52 121 254
202 212 134
39 144 118
51 55 72
71 22 27
162 18 148
100 114 192
90 167 246
28 128 49
8 236 218
12 168 42
191 207 29
71 50 114
252 21 176
138 92 2
208 118 88
179 23 207
3 170 234
112 65 110
95 167 92
240 132 208
213 194 122
102 114 144
50 235 152
214 75 48
63 148 112
98 13 119
98 215 250
140 208 168
163 28 121
244 57 221
88 226 160
20 3 148
28 99 201
182 243 166
185 57 252
111 229 67
28 40 156
26 235 94
113 142 177
91 136 70
201 35 208
18 22 89
88 202 46
197 12 89
116 228 84
17 90 184
20 24 50
174 75 12
141 58 165
239 94 88
202 253 254
253 114 94
182 3 213
139 249 224
51 58 221
232 99 97
146 91 190
80 43 84
215 6 131
128 183 182
14 249 85
138 128 109
25 167 129
219 150 121
178 17 136
197 138 35
221 245 169
84 235 240
148 158 145
217 84 29
113 235 212
242 76 157
85 105 143
7 51 74
201 36 132
220 68 8
247 42 168
153 205 146
130 222 135
153 124 77
128 238 23
1 236 139
181 160 51
34 57 239
131 52 65
179 46 96
127 25 126
243 41 5
189 127 222
158 19 59
165 89 56
129 134 19
57 92 28
189 19 39
138 120 252
64 78 3
249 27 6
2 58 173
249 186 48
157 90 248
90 208 183
184 125 44
197 8 153
187 90 132
167 55 83
10 154 205
168 36 248
239 82 17
130 200 60
73 200 206
40 163 247
0 45 176
184 158 25
240 61 160
145 251 64
155 21 255
170 64 107
244 205 5
82 179 171
79 189 132
75 132 89
77 112 137
212 106 237
121 56 13
6 1 214
131 65 149
207 172 26
178 174 246
163 159 163
215 14 138
229 166 215
66 9 249
172 181 218
121 47 169
245 183 53
41 154 214
85 64 200
34 214 14
24 64 0
0 205 80
34 215 73
212 83 95
243 88 51
121 213 175
242 128 62
5 63 148
132 66 134
223 107 251
108 91 90
151 56 184
198 95 4
132 159 108
131 219 188
102 228 160
61 85 101
244 64 164
228 122 111
128 180 32
203 183 232
64 238 36
122 87 241
207 78 117
58 51 195
92 223 238
41 49 116
165 68 136
107 227 35
7 50 166
2 103 183
43 228 36
186 178 238
175 2 92
229 236 25
241 99 16
87 101 37
3 65 33
104 42 25
209 127 3
31 167 125
24 194 122
184 15 70
80 32 8
201 108 242
32 15 219
224 170 95
110 41 246
218 189 18
216 196 13
183 165 83
177 72 162
54 76 164
46 130 129
107 186 215
159 47 1
27 191 164
163 56 244
35 248 160
23 229 65
35 204 146
203 157 232
109 238 181
240 146 61
120 71 95
117 136 191
78 174 87
158 198 204
207 251 249
171 181 136
2 246 129
252 21 151
60 125 67
75 100 43
84 197 20
232 152 248
169 89 203
147 181 226
81 218 177
128 133 44
226 24 210
220 159 51
151 86 105
7 124 135
142 219 184
54 75 214
166 235 186
219 141 209
239 17 172
127 37 146
9 155 34
40 175 92
192 175 190
6 233 229
214 185 140
15 17 68
20 66 125
35 8 181
158 225 177
224 192 211
14 144 102
88 111 33
117 231 32
139 132 17
26 53 69
152 157 154
59 39 191
222 183 186
216 44 89
116 133 134
41 94 95
171 37 17
219 133 6
59 206 189
249 117 89
53 9 144
129 221 84
56 233 253
49 65 32
171 162 162
238 113 3
80 199 233
134 183 222
126 210 173
251 34 145
252 146 50
171 139 120
228 43 79
143 246 73
4 93 28
124 74 228
159 131 31
148 217 58
107 161 139
157 55 128
10 6 162
71 78 91
189 242 240
201 232 61
162 165 0
243 74 55
163 163 207
23 66 169
177 153 243
238 201 142
129 98 55
144 238 19
234 101 25
162 140 170
46 81 7
69 197 146
32 140 246
100 71 161
131 36 23
103 3 143
32 202 190
65 174 232
87 206 117
138 249 249
107 239 249
165 244 13
97 219 152
184 226 88
88 246 88
247 38 222
65 123 134
34 4 226
11 92 96
251 170 109
186 63 248
253 130 57
237 220 163
228 209 196
176 239 202
211 68 155
70 180 251
106 123 46
105 180 202
75 180 188
254 233 144
148 21 150
241 225 219
118 191 55
33 78 16
34 239 202
224 186 133
219 87 35
140 77 192
124 199 34
69 233 170
140 103 218
65 69 183
246 70 147
209 16 89
30 210 67
32 147 117
177 173 176
148 252 48
127 123 204
60 249 110
158 147 65
234 8 187
58 80 143
66 36 61
20 89 193
103 157 120
212 28 94
121 172 119
46 172 27
111 93 126
147 158 205
183 207 128
120 165 185
170 183 50
193 21 135
216 197 108
77 166 179
82 10 247
83 146 60
60 198 212
229 255 134
118 74 19
9 214 136
44 23 165
152 251 157
235 95 47
60 188 61
237 11 224
22 27 17
61 185 87
225 57 112
68 120 1
59 84 222
210 198 44
130 42 57
97 160 194
149 120 233
249 2 228
190 228 29
54 147 80
95 44 246
119 183 245
251 177 67
152 190 54
136 177 141
219 1 148
138 106 196
205 12 211
227 86 188
241 213 203
234 14 230
157 138 126
8 43 87
221 19 153
240 149 20
187 158 157
95 102 189
178 148 155
105 13 114
23 223 234
203 201 116
67 218 71
145 247 63
247 162 118
56 78 12
72 145 191
105 3 174
175 101 177
58 27 136
186 111 224
140 167 230
237 113 2
248 211 79
247 67 57
101 107 54
162 156 160
23 81 150
162 169 128
249 227 87
207 27 128
16 238 74
29 44 96
83 108 250
147 100 184
67 167 197
142 78 231
181 103 13
47 90 188
185 41 237
79 203 130
36 133 85
238 206 184
118 215 222
106 134 176
218 219 131
33 25 26
191 102 0
163 250 0
206 95 139
77 94 243
204 160 9
92 73 132
97 132 10
248 139 146
201 201 219
204 189 188
216 162 28
32 207 239
167 71 253
75 4 183
19 230 139
56 64 190
116 102 194
51 38 186
221 140 83
191 21 247
79 133 180
193 228 194
148 178 29
25 232 24
127 135 79
238 64 5
99 161 36
13 84 115
124 22 117
236 64 198
160 115 115
76 7 17
32 129 133
49 179 96
115 200 112
250 32 50
87 109 236
67 184 119
57 99 127
68 49 170
49 98 169
137 17 246
56 232 209
232 180 109
187 116 57
218 128 98
124 231 31
122 243 224
139 135 179
90 46 73
179 174 152
72 107 126
157 6 247
156 209 213
198 195 204
39 250 43
0 170 170
175 177 27
34 80 141
120 226 122
227 243 214
203 40 251
99 152 81
97 212 225
21 208 182
2 230 82
231 10 2
121 35 32
158 131 148
103 21 102
196 252 205
156 164 215
235 200 158
220 7 85
189 216 50
145 87 219
109 32 194
17 172 191
12 251 116
91 145 103
70 102 239
188 76 167
103 251 248
135 87 53
182 85 183
72 155 19
161 135 203
7 161 0
32 193 94
162 141 237
78 67 51
149 159 17
166 171 76
188 35 185
84 244 204
126 11 229
112 208 137
124 214 8
26 90 147
9 202 213
240 145 87
84 250 125
224 231 41
5 164 225
170 27 4
40 40 142
67 246 138
151 78 215
165 18 109
36 180 171
116 1 57
28 193 182
204 106 225
150 193 4
82 156 215
94 24 59
140 200 18
20 26 214
237 103 10
148 145 26
44 33 168
130 44 94
45 243 248
49 236 160
218 58 163
238 70 157
64 253 133
74 192 139
254 83 100
167 22 234
176 126 62
179 103 136
141 7 142
142 143 233
139 36 214
101 49 85
93 87 43
135 245 83
251 61 74
70 241 6
245 45 183
124 91 3
0 48 21
54 69 1
202 101 38
26 81 21
68 107 214
156 247 14
31 71 117
130 35 184
227 179 82
51 107 239
254 206 202
20 160 99
101 210 112
42 217 197
11 94 201
133 225 167
206 164 60
133 148 31
126 108 93
220 240 92
225 171 214
152 237 137
180 220 160
72 0 180
215 182 146
170 21 50
19 43 3
99 57 97
84 5 119
25 228 141
226 181 248
56 13 47
45 50 74
131 34 68
94 192 20
54 28 113
149 243 65
50 15 108
62 5 210
127 120 12
8 155 19
95 98 208
30 14 201
183 142 206
71 51 91
112 170 48
215 110 143
0 214 195
42 230 238
166 242 238
70 41 7
108 135 208
249 55 186
197 110 59
220 201 106
0 34 208
84 137 182
24 33 3
49 11 2
200 154 128
206 183 234
116 105 115
45 31 242
52 63 186
244 147 151
121 159 157
51 158 215
62 160 21
64 209 62
76 33 28
172 38 46
17 162 170
136 213 172
213 91 41
46 90 161
103 20 203
92 186 134
138 138 33
58 23 219
37 52 168
81 240 53
79 52 36
215 247 240
96 15 140
27 200 217
68 172 97
124 141 184
173 110 151
34 44 62
87 157 95
31 124 91
74 211 29
143 66 155
14 57 96
247 255 66
192 172 161
35 65 24
127 231 104
172 136 155
183 213 59
3 215 120
71 186 233
97 233 97
82 147 36
127 209 235
180 21 108
14 210 110
231 157 245
134 104 107
226 96 88
122 96 54
183 168 241
225 201 51
140 229 85
159 181 112
184 237 125
30 36 132
218 18 123
239 32 201
39 31 245
138 150 123
122 238 152
253 71 82
94 247 109
163 97 246
22 35 116
63 73 62
189 12 93
203 199 255
177 242 150
236 51 179
43 97 30
55 207 130
107 64 63
127 159 189
139 123 178
60 16 159
150 139 5
216 237 68
227 107 62
254 65 109
92 176 71
240 157 243
167 208 224
70 28 54
207 176 65
140 7 205
153 63 233
51 195 224
116 203 249
144 92 130
178 199 234
17 91 159
35 209 249
114 131 10
139 212 169
229 50 189
27 52 67
95 185 221
232 127 187
169 32 23
198 86 137
4 41 145
50 214 129
106 186 114
7 99 235
241 56 197
90 140 203
91 132 100
161 58 212
76 154 110
15 125 158
15 177 166
49 198 209
85 129 98
150 208 35
235 48 179
79 117 88
36 126 130
45 178 147
227 145 72
93 1 229
3 240 96
143 241 37
77 44 61
48 107 73
5 90 238
146 36 245
1 121 177
29 197 207
129 169 99
221 31 183
57 92 59
71 4 208
250 15 140
234 173 82
222 163 124
133 86 102
97 104 229
116 149 34
211 127 212
169 90 139
129 203 50
153 58 106
54 150 193
242 83 87
50 130 110
171 127 199
232 0 120
251 178 139
91 23 65
200 98 26
94 115 123
178 68 254
6 218 205
87 253 123
202 214 221
24 227 116
103 177 125
227 209 39
27 207 221
39 79 48
132 243 64
193 143 69
106 135 107
147 233 51
104 245 4
225 94 101
20 241 65
165 212 120
196 152 217
218 32 243
2 150 36
19 132 33
30 173 254
24 95 162
81 87 133
42 5 113
206 74 155
24 1 255
179 53 245
123 15 99
111 191 104
187 185 66
126 95 174
243 63 124
165 128 139
252 142 99
111 238 201
227 135 105
62 137 174
9 33 43
34 196 28
73 176 8
245 237 140
69 84 172
244 52 179
139 76 28
222 227 146
179 238 174
66 140 201
1 53 125
191 246 85
70 6 218
179 242 135
121 182 36
144 147 243
120 189 133
55 110 161
220 198 71
204 118 120
94 187 159
137 252 235
210 68 191
95 235 111
163 193 185
73 163 252
246 207 217
36 66 107
219 203 136
203 35 139
46 236 57
21 113 74
35 33 46
54 188 227
95 236 24
208 182 89
216 217 5
37 82 68
247 103 24
213 47 112
187 100 233
179 106 89
29 1 95
66 189 58
59 126 43
70 167 6
247 3 15
69 87 58
254 66 30
195 107 89
253 41 153
59 213 95
239 124 85
19 167 5
203 191 211
202 25 97
164 173 47
29 141 180
167 122 122
62 38 155
188 47 34
17 161 171
132 247 192
128 54 117
224 244 38
127 63 74
85 162 83
109 20 234
215 79 99
170 6 188
204 78 61
47 55 40
181 33 44
233 14 102
52 19 247
188 40 172
0 3 124
79 74 110
167 61 83
178 90 243
184 232 187
131 11 190
198 237 187
97 56 207
226 126 92
17 81 84
235 156 42
47 207 197
240 17 121
85 171 37
201 32 17
218 238 227
229 235 101
194 185 54
241 171 178
25 31 206
150 114 68
66 185 248
84 201 200
70 54 239
83 82 19
166 236 168
111 218 244
150 139 63
158 58 164
247 6 123
135 214 5
178 2 2
196 237 190
183 194 200
151 142 173
245 98 58
41 143 79
198 163 28
37 155 3
80 240 186
185 147 224
131 228 140
121 247 196
206 78 175
78 191 42
79 235 43
2 86 163
253 232 219
244 114 73
3 75 5
188 248 135
58 253 253
41 108 72
207 221 240
125 244 2
113 6 138
198 92 229
63 100 23
251 173 104
57 13 150
96 105 235
22 253 138
162 11 93
42 74 11
86 194 237
53 190 69
101 110 210
110 15 66
138 79 0
237 60 210
110 12 219
96 56 237
21 33 124
214 249 199
161 255 111
211 196 126
37 108 63
125 153 103
212 148 196
41 223 14
211 120 158
104 88 229
218 83 177
141 43 165
106 110 154
142 26 147
243 143 251
28 67 190
119 109 211
202 206 173
97 72 40
129 33 206
209 229 77
203 223 229
10 161 47
159 162 72
49 134 42
94 92 225
68 237 175
86 42 217
79 47 34
46 50 234
158 141 197
126 190 92
115 171 136
83 177 150
87 126 113
212 193 3
104 112 14
31 160 8
228 103 88
212 161 145
49 158 29
242 12 252
194 7 144
102 74 35
204 76 59
71 159 127
48 244 70
51 118 55
65 193 176
30 134 42
254 176 54
231 218 75
56 153 137
63 52 127
57 227 125
135 192 209
158 244 10
147 208 248
213 185 246
252 59 60
4 158 152
11 143 128
171 205 206
240 71 181
210 161 140
8 11 145
243 247 88
184 39 28
156 6 109
200 126 170
76 0 119
124 2 143
232 112 3
152 6 175
163 183 102
88 221 140
200 139 226
243 202 228
68 117 46
187 37 68
69 112 97
29 86 205
202 163 31
191 73 75
65 175 29
211 207 25
92 127 74
1 99 123
161 164 230
59 94 183
81 105 18
20 97 113
39 170 79
106 39 144
42 141 210
111 93 10
52 183 193
117 232 107
111 70 66
124 62 192
232 82 87
82 56 15
180 72 241
114 37 183
106 56 62
196 50 255
154 248 151
189 81 227
118 192 226
244 98 65
117 43 237
99 172 73
224 102 217
132 87 246
169 216 149
89 60 33
212 159 189
157 46 191
255 177 58
27 1 249
206 122 227
140 159 137
65 94 122
55 10 126
86 66 151
254 172 161
149 152 176
184 33 65
242 173 124
181 197 239
99 152 244
216 219 131
228 247 93
216 110 228
112 140 6
94 155 48
225 217 54
235 209 95
226 146 221
236 55 42
137 128 185
214 82 142
243 142 168
160 1 95
46 185 211
40 84 101
54 231 228
44 11 22
193 216 158
84 112 200
175 130 151
99 153 119
59 106 241
181 96 24
0 174 130
239 101 179
99 7 207
238 65 245
66 246 203
49 205 58
165 111 79
74 214 169
40 155 151
193 198 232
63 166 35
228 48 66
86 67 87
176 36 80
31 83 152
253 102 82
55 199 40
191 199 11
46 175 151
86 200 229
121 6 33
123 220 140
86 133 12
250 75 74
87 93 217
223 175 121
149 142 101
40 208 97
146 31 27
216 67 117
109 237 252
108 71 178
250 75 189
22 149 142
237 122 140
145 247 206
82 252 182
19 209 127
231 105 171
176 136 212
106 138 167
31 93 159
147 196 80
164 16 45
164 232 239
156 219 66
165 203 15
233 4 84
146 112 253
210 137 209
86 112 179
235 67 78
192 186 74
36 248 23
211 72 67
47 202 101
192 42 188
148 229 37
111 34 8
157 253 29
232 102 104
152 72 40
186 116 112
222 197 226
77 207 172
207 127 131
148 114 17
111 134 154
41 194 66
52 177 185
52 197 235
213 30 201
71 175 97
192 234 28
169 234 119
66 6 25
4 148 126
12 127 4
193 117 85
24 206 176
144 18 153
73 15 228
186 158 123
253 216 213
75 23 250
27 101 217
113 196 113
102 105 132
89 135 163
141 230 110
245 102 207
26 46 30
172 30 227
222 221 29
62 100 248
157 183 125
163 247 198
34 1 41
129 158 13
140 99 93
253 13 65
62 179 244
161 56 179
66 127 163
91 173 226
64 195 176
156 77 243
99 148 52
142 225 9
126 242 188
198 180 25
232 164 209
214 161 11
40 36 96
160 123 215
49 2 122
231 101 102
47 196 55
190 121 218
253 242 229
85 164 162
30 203 47
183 148 162
34 193 152
216 160 136
249 63 28
210 70 6
30 174 242
126 80 242
113 93 70
141 90 55
176 171 53
68 120 65
49 184 145
52 89 254
45 60 9
94 223 10
207 163 36
26 211 155
191 238 9
253 120 181
60 141 206
90 23 52
228 209 207
16 195 88
234 7 239
59 169 200
128 114 119
24 125 233
236 194 146
12 56 80
128 243 226
129 154 26
203 55 141
192 20 18
250 30 199
191 116 211
134 191 11
11 110 50
124 212 143
28 215 210
89 247 76
78 27 97
196 165 188
199 107 113
122 111 140
96 157 108
170 160 200
211 139 201
187 170 241
133 87 201
96 129 197
139 176 19
71 166 83
71 99 49
42 126 160
193 166 65
233 55 58
157 30 202
196 155 17
12 233 229
45 242 174
161 64 224
167 186 148
41 135 119
38 222 112
62 201 75
58 2 36
149 195 188
41 203 68
98 94 121
250 139 188
21 39 179
84 86 24
135 137 115
194 163 215
160 107 240
69 119 45
54 46 34
79 93 133
239 225 49
187 39 87
189 15 227
250 196 230
51 46 176
119 67 137
108 136 12
2 81 210
204 189 128
223 224 96
207 224 114
247 107 150
20 115 154
84 133 215
100 118 224
22 126 83
243 233 72
27 249 250
154 99 106
100 101 246
201 125 140
160 235 218
255 212 111
169 167 43
46 238 145
144 115 139
89 172 215
129 80 49
143 24 226
4 96 107
111 44 251
71 146 62
124 248 220
101 60 108
120 37 69
250 99 97
171 105 128
47 235 22
213 35 213
175 171 60
73 184 186
35 139 83
225 156 13
2 50 140
91 136 39
20 89 236
150 187 184
58 160 92
143 97 109
1 70 20
34 24 62
159 3 153
184 201 201
171 170 120
132 154 6
139 55 35
26 78 29
196 19 164
153 9 62
8 158 186
36 98 115
196 26 89
103 77 69
240 197 103
45 233 191
221 96 194
50 189 150
238 50 63
233 2 156
232 157 233
198 255 73
32 81 51
141 71 28
184 223 26
0 36 186
248 74 134
89 3 102
133 135 127
212 216 134
150 86 193
17 40 87
125 153 179
46 44 55
179 237 120
235 213 222
67 65 102
12 150 148
193 44 218
91 10 6
37 79 25
248 85 62
174 248 206
11 55 251
220 159 247
124 159 202
154 94 67
255 224 209
182 146 116
166 241 181
203 99 58
31 120 219
178 184 208
124 102 67
218 186 114
155 87 174
187 216 100
8 169 209
184 188 25
125 225 160
183 172 201
124 128 104
19 20 173
189 168 83
225 188 186
36 217 10
171 91 70
33 146 244
228 176 234
7 166 106
113 8 2
207 145 84
255 76 51
243 246 175
75 146 244
245 107 146
112 83 232
224 30 210
82 217 37
101 20 128
192 54 111
47 88 50
102 229 189
159 90 156
205 112 198
48 120 249
66 26 102
83 104 135
63 182 22
131 45 191
100 149 27
222 230 179
117 216 135
133 243 158
112 105 30
221 158 30
90 164 89
184 229 133
107 201 115
47 128 198
135 221 207
55 192 187
158 217 195
116 3 156
48 133 88
46 122 60
133 3 196
136 143 24
175 158 58
202 221 33
114 25 89
27 197 149
112 40 72
208 59 99
210 147 158
187 40 69
228 246 205
24 122 143
27 84 138
127 84 120
196 184 177
230 142 120
61 232 109
32 227 248
44 12 97
131 135 62
28 37 153
76 140 160
62 77 234
90 122 214
54 40 198
87 144 156
167 229 125
24 74 108
233 156 128
101 212 15
25 138 232
7 181 165
111 35 61
8 12 91
147 86 143
183 11 55
155 126 149
192 165 62
157 119 90
185 32 108
78 211 73
234 159 141
54 202 240
153 20 106
14 223 44
74 80 238
5 70 42
13 71 25
138 181 216
66 2 142
110 118 219
132 231 122
75 45 68
90 6 183
59 95 212
76 27 72
140 34 192
236 130 85
85 75 226
72 216 41
93 120 42
245 89 174
255 123 82
158 148 238
33 72 64
235 38 121
9 141 151
137 202 72
93 168 105
133 224 66
144 139 255
95 172 213
84 155 42
213 47 3
196 212 243
48 195 226
85 114 133
83 159 39
142 77 132
62 105 249
73 134 115
43 171 217
44 163 166
16 227 194
67 163 145
9 12 173
216 5 234
202 12 119
83 244 195
70 198 51
150 82 211
167 140 163
87 21 169
241 207 64
31 86 83
96 169 116
201 167 102
76 152 160
133 58 0
27 229 150
34 147 171
182 110 240
141 227 81
97 57 48
12 103 131
230 82 219
88 112 217
146 220 167
138 108 188
90 80 162
112 48 235
101 236 220
7 20 236
206 18 66
105 10 142
114 250 183
235 185 17
9 217 251
76 66 133
124 72 68
35 172 31
120 185 237
91 243 150
153 220 202
204 177 104
244 16 211
113 83 151
212 106 179
41 213 36
177 92 164
232 151 155
196 55 203
54 214 198
43 2 74
123 154 76
195 187 88
123 194 149
173 14 71
244 230 118
68 127 248
67 231 119
173 16 1
144 196 181
73 206 231
107 3 51
213 90 137
164 3 239
55 9 194
111 92 59
159 253 119
103 179 104
65 146 253
239 133 8
86 247 129
160 143 50
47 146 82
235 26 248
176 155 187
168 140 67
225 103 177
110 210 81
166 18 99
18 209 200
255 163 10
33 244 135
23 74 123
48 127 83
72 4 199
15 69 202
10 164 70
205 71 152
136 79 166
107 245 30
71 136 108
137 118 148
16 44 109
116 185 155
70 230 61
221 13 189
63 146 43
209 237 117
58 100 64
88 152 99
192 90 59
191 123 80
118 6 233
27 225 132
121 227 189
232 34 33
106 224 219
55 225 204
235 111 164
221 24 211
93 39 139
6 254 79
189 87 97
176 104 206
148 11 197
137 85 123
132 139 169
120 197 202
81 185 182
188 93 135
198 47 116
228 17 218
122 189 159
131 65 41
45 96 200
188 170 8
123 101 53
152 71 171
157 164 234
81 32 200
18 255 166
191 234 83
72 36 108
115 5 164
139 27 99
40 44 149
253 47 109
61 126 249
182 191 155
129 152 131
55 130 116
229 188 210
113 253 113
2 139 234
199 103 27
210 146 34
82 56 55
192 29 135
110 102 12
43 172 4
66 49 77
240 189 235
184 206 104
69 70 120
47 157 102
94 20 39
27 2 158
69 78 78
88 50 90
39 174 161
1 151 4
213 72 179
91 42 15
21 208 0
246 85 174
200 195 58
229 125 195
77 158 174
203 27 192
176 164 205
27 236 48
181 35 26
50 141 230
33 102 240
78 186 164
212 233 22
6 212 212
73 38 84
37 232 24
201 190 134
56 82 210
214 34 228
129 160 212
58 20 36
95 1 44
111 79 252
96 174 56
168 181 101
143 132 2
58 165 219
117 188 210
12 7 62
171 95 190
48 244 216
22 45 246
210 16 145
160 97 146
95 158 240
253 226 87
178 31 155
95 91 94
255 205 146
110 239 123
56 217 183
183 206 218
212 244 108
16 252 92
142 217 30
28 107 24
121 15 113
109 128 101
142 217 34
50 214 245
1 112 1
157 27 112
126 79 119
84 175 105
241 82 26
54 180 222
238 167 201
152 106 16
109 67 159
78 113 156
102 146 158
147 52 34
34 157 130
76 129 157
107 42 169
249 231 89
116 70 72
215 71 223
154 252 195
10 55 130
138 180 178
111 49 25
129 21 187
95 68 111
182 70 2
10 60 179
35 105 193
75 31 141
51 63 225
106 128 61
71 189 219
22 189 111
76 23 133
250 136 13
237 251 220
52 99 173
175 254 155
253 232 10
59 158 57
249 32 179
49 230 6
229 65 91
199 22 35
127 49 102
82 74 77
58 149 189
73 10 161
2 74 17
255 194 34
154 214 1
2 253 226
21 89 226
237 145 15
160 83 200
102 36 38
178 176 116
43 5 98
197 175 180
26 170 87
34 152 8
74 160 194
113 247 184
231 182 167
49 132 199
144 203 155
57 9 152
95 254 97
218 194 174
109 184 114
88 196 249
192 144 111
100 5 206
170 206 217
97 86 232
217 39 156
217 222 55
84 149 16
49 220 39
224 160 8
35 53 17
109 59 162
151 248 83
153 58 56
80 227 211
50 156 115
204 26 52
176 182 170
220 236 11
162 121 176
145 216 249
104 141 189
99 140 147
133 90 124
217 58 144
60 237 110
238 234 45
46 183 113
250 59 230
215 166 55
227 45 98
117 87 134
39 237 1
135 89 229
0 226 197
107 255 153
26 159 30
106 156 89
66 193 31
247 165 9
211 65 171
230 60 166
174 177 205
172 221 208
179 108 115
109 101 85
6 170 44
173 142 36
218 137 37
169 50 110
225 42 207
227 9 81
26 146 75
171 246 133
56 189 213
155 208 161
128 12 175
143 94 45
70 86 101
29 107 124
73 112 34
62 159 163
180 66 245
130 238 90
149 91 53
221 97 76
1 3 107
124 251 12
172 8 254
248 122 156
181 213 12
19 141 78
231 7 240
131 2 110
239 237 236
112 178 29
196 106 211
42 94 255
62 32 156
114 16 89
220 232 187
85 253 240
12 23 247
159 174 66
34 237 228
104 143 95
131 158 113
90 64 194
75 112 35
235 223 157
76 13 193
23 63 220
237 210 123
39 7 51
112 28 254
5 188 242
24 81 203
41 231 52
233 165 148
81 100 95
166 56 250
102 77 19
250 121 41
142 200 155
196 65 58
195 137 13
5 46 105
32 82 199
249 83 224
113 170 209
121 41 107
105 140 217
14 119 36
134 227 238
141 182 131
17 151 50
138 238 177
96 28 115
87 183 197
58 187 172
213 138 162
0 239 218
133 255 200
1 49 143
35 107 196
67 27 178
196 232 250
98 159 71
228 208 116
27 160 198
65 55 243
116 104 29
36 188 0
66 248 172
227 73 124
76 230 125
93 69 133
38 157 197
29 152 147
129 143 112
110 237 166
240 163 66
95 67 35
192 211 127
36 46 52
222 92 23
15 129 14
236 191 209
161 132 105
43 95 74
85 158 62
56 45 30
253 171 140
41 223 204
8 61 210
222 242 215
65 246 24
37 233 59
131 149 185
242 237 36
90 84 120
112 249 210
137 163 59
255 89 242
13 155 38
187 22 40
89 22 86
181 164 151
179 91 75
229 73 137
118 76 112
94 36 48
186 25 80
42 1 37
242 100 117
57 164 162
196 154 98
160 86 106
45 84 45
137 233 199
233 61 22
177 190 123
111 122 152
2 226 89
133 34 247
200 123 64
35 197 57
233 235 148
230 159 215
118 239 141
60 124 11
221 206 224
173 51 52
139 150 78
39 12 144
33 16 243
31 99 43
99 98 49
49 112 255
85 154 225
168 83 250
126 220 141
88 159 128
11 74 6
242 25 252
96 162 98
23 91 9
235 35 22
235 38 203
54 131 228
98 190 116
59 39 182
222 246 156
230 217 217
102 137 75
151 205 55
244 27 253
148 110 61
168 20 213
59 131 136
252 132 70
81 233 222
160 73 147
99 199 217
209 54 251
143 230 135
92 165 59
139 136 28
112 156 59
156 214 249
74 217 185
91 67 157
159 235 204
141 22 160
6 212 67
68 53 111
142 63 62
234 224 242
86 151 128
95 95 26
197 152 135
45 180 135
52 186 86
93 169 80
34 185 235
129 252 5
56 84 139
133 95 78
168 223 209
78 89 46
165 226 166
112 219 134
46 239 135
85 26 202
100 157 6
57 114 68
111 62 121
180 196 93
5 183 205
191 31 5
129 248 192
125 162 79
160 187 23
199 38 209
245 63 29
148 192 181
73 248 62
30 25 75
140 176 121
220 137 64
27 46 163
14 180 232
75 191 132
202 1 10
192 16 52
206 163 168
189 105 177
159 123 197
87 129 30
84 218 60
216 11 117
36 37 85
65 31 241
237 94 177
125 172 175
33 105 191
43 118 191
198 223 90
60 4 172
181 158 112
197 188 112
129 186 132
153 19 213
252 203 154
112 72 9
221 0 60
212 8 99
219 183 123
54 11 35
27 119 243
202 242 223
153 82 91
231 131 176
254 231 20
69 117 66
170 144 170
196 188 227
41 11 101
253 194 190
30 131 4
70 50 254
203 139 209
169 215 29
154 116 20
252 145 132
91 239 176
22 134 239
9 13 5
252 24 18
17 179 176
207 43 8
39 226 166
116 132 178
69 183 191
222 131 196
90 130 235
250 40 21
254 197 91
182 51 6
127 219 250
193 243 64
141 85 226
34 238 71
92 94 84
21 3 142
232 70 7
66 162 79
166 97 98
151 236 245
139 28 79
3 49 149
229 186 196
103 1 90
87 133 237
215 73 85
44 137 150
56 88 142
127 198 112
9 232 54
229 86 54
191 166 63
194 163 26
248 37 201
170 151 121
136 237 184
131 29 196
131 171 191
198 49 231
172 92 121
208 14 60
47 113 183
135 142 37
124 102 145
89 9 215
82 117 151
164 84 34
23 42 13
64 188 171
84 119 251
1 47 78
120 218 192
59 67 16
230 108 151
152 230 149
140 201 56
19 8 85
143 33 221
101 63 178
221 150 47
104 71 246
152 103 229
136 10 123
231 177 126
122 137 21
153 138 191
75 22 101
170 125 212
29 97 21
135 117 158
195 171 75
205 242 177
252 118 4
153 59 196
163 18 142
83 225 203
208 134 254
7 62 227
166 4 16
105 252 62
110 159 178
172 6 140
73 140 209
162 235 151
2 235 216
248 250 52
114 110 87
57 193 60
107 113 14
24 66 197
233 193 134
118 237 133
186 157 122
113 200 219
97 226 234
131 64 98
228 5 1
184 117 24
112 245 176
31 59 117
66 239 130
202 247 99
233 67 158
187 212 174
191 214 133
179 40 1
107 123 203
32 104 253
3 120 52
196 213 139
204 62 50
114 24 202
255 209 182
40 74 114
4 188 20
40 115 179
139 45 126
211 13 154
115 20 238
78 34 36
224 241 89
34 188 240
221 225 82
187 195 6
172 122 7
86 56 150
110 42 83
28 157 230
33 135 69
15 135 9
84 114 34
206 149 91
173 108 137
158 227 75
76 102 109
26 32 226
13 232 137
210 18 192
48 129 152
178 119 109
57 173 35
145 173 182
40 169 177
150 42 4
55 230 40
39 40 120
26 222 153
201 175 221
206 55 60
133 131 86
232 7 185
34 183 50
74 36 153
44 190 60
132 101 250
225 46 70
193 57 138
177 157 53
172 15 220
9 132 196
206 237 24
214 138 27
197 221 54
252 253 55
55 20 149
165 116 112
113 36 227
101 0 206
143 115 228
173 239 144
112 123 163
171 169 1
254 3 235
31 105 38
208 249 61
129 51 199
240 185 123
221 49 28
65 212 69
80 133 167
196 0 248
239 74 144
153 191 90
1 38 167
96 31 59
159 244 68
201 15 52
26 119 172
182 61 77
94 110 0
202 201 248
3 211 185
5 204 62
186 56 106
130 130 206
137 43 54
249 247 98
130 60 175
99 17 235
177 77 180
170 3 68
115 220 71
240 107 38
201 77 235
125 253 144
95 168 153
127 88 114
29 241 75
70 83 60
22 4 209
38 90 27
53 178 110
164 36 220
166 83 231
86 144 41
208 124 82
121 36 109
54 135 4
38 126 124
87 177 1
1 133 46
98 255 101
82 187 125
247 52 225
62 142 190
3 196 237
145 209 107
134 242 199
17 237 20
172 32 48
7 200 137
68 254 10
174 222 33
138 62 66
219 192 196
2 163 55
141 255 23
195 181 107
51 11 95
169 187 217
33 101 216
223 52 21
93 248 203
51 127 59
29 224 56
10 96 162
111 10 57
62 18 212
32 127 33
13 202 79
45 30 214
232 175 147
102 173 217
219 132 37
231 184 73
50 190 34
161 62 134
16 166 88
250 242 177
36 224 79
55 96 94
203 154 50
71 24 220
101 98 169
126 249 53
138 180 67
47 30 205
102 195 77
181 205 32
238 188 233
82 194 192
117 169 197
163 217 210
247 27 43
226 173 157
91 86 191
130 154 72
61 87 164
180 20 246
97 58 54
220 123 230
196 15 232
23 93 2
46 234 180
94 164 225
57 13 241
180 248 5
153 173 185
90 97 55
250 158 60
93 127 53
66 106 203
110 172 128
207 90 158
207 53 155
215 19 127
144 84 202
3 149 192
236 164 109
187 31 109
137 194 222
146 133 26
193 131 193
79 138 59
180 158 196
30 93 27
174 28 164
87 119 75
51 164 132
28 170 141
199 134 31
55 93 94
129 97 31
56 172 194
27 171 43
210 182 52
240 154 105
0 30 137
180 102 224
148 140 124
191 149 132
104 224 242
216 190 101
252 227 195
95 177 208
202 178 126
7 67 98
103 254 2
218 49 238
97 89 47
103 5 55
113 121 80
220 72 98
217 204 101
18 189 39
176 232 9
241 127 89
70 217 68
97 151 229
138 234 141
143 4 12
95 248 215
236 164 181
45 33 4
120 171 114
14 226 221
149 116 34
119 13 53
103 105 167
127 134 138
255 0 61
32 32 76
145 242 14
175 161 244
3 196 31
26 230 71
112 137 135
159 135 79
185 67 179
164 72 87
233 230 30
178 73 10
44 168 130
58 191 76
159 123 140
223 227 231
175 7 230
76 42 125
104 8 6
74 65 108
211 14 136
226 122 236
31 225 151
26 25 159
95 142 200
202 65 22
223 121 233
34 153 234
18 123 64
2 88 103
121 219 19
17 69 81
191 71 3
31 195 82
247 63 231
100 243 38
73 169 184
117 123 132
252 144 132
12 240 225
88 56 140
93 40 59
1 47 32
8 19 51
113 146 12
113 20 97
112 212 23
213 201 207
38 37 188
19 231 61
145 19 107
36 117 66
119 145 169
111 6 66
238 17 148
137 139 242
20 102 204
246 138 40
33 164 82
205 253 14
240 91 196
10 190 197
158 137 23
100 86 157
156 101 63
184 242 32
18 73 162
147 89 120
207 224 14
52 141 65
170 69 245
193 191 192
86 83 36
54 230 240
127 198 253
82 20 132
221 106 135
233 185 196
88 106 235
246 156 23
233 207 76
113 209 154
101 169 153
153 22 48
42 65 180
245 52 241
144 118 94
48 84 50
46 204 38
80 176 228
244 190 10
112 201 18
253 136 124
118 142 55
212 164 169
232 86 194
163 31 178
129 211 144
163 175 51
95 212 151
222 88 100
127 1 115
179 48 56
99 156 49
214 227 177
149 226 0
183 157 40
108 11 42
140 71 227
135 86 169
145 25 70
22 51 187
123 78 30
108 64 89
224 17 161
110 70 255
7 32 17
105 48 248
222 5 83
193 77 24
229 125 87
221 55 36
10 69 28
87 120 226
20 113 248
128 208 91
201 142 174
2 211 237
212 94 229
228 240 247
91 238 201
96 128 58
69 210 189
40 72 67
86 25 128
162 40 118
22 77 126
163 61 44
254 108 228
31 4 251
203 162 57
249 148 34
228 20 245
84 189 141
198 163 237
81 178 145
126 49 226
26 154 6
30 250 115
19 170 101
201 161 18
153 134 85
36 81 102
248 80 244
209 158 112
151 14 174
35 161 66
193 134 131
78 226 25
193 112 30
6 172 8
108 122 9
78 96 210
195 72 195
133 141 88
221 85 71
181 64 54
135 238 156
142 165 64
221 109 224
211 29 124
120 30 18
25 176 141
88 8 71
107 172 111
201 159 142
197 106 223
83 248 94
84 38 67
56 136 215
242 128 222
38 101 49
96 154 233
100 169 130
88 91 184
73 176 19
149 209 132
117 158 67
251 3 3
69 129 52
83 4 19
19 200 2
220 225 123
250 62 156
53 187 67
243 17 230
188 144 36
166 63 50
183 146 65
109 224 203
83 98 221
207 224 165
186 215 37
46 192 94
41 230 109
18 111 122
86 93 145
48 86 180
163 78 97
53 106 92
203 13 60
14 57 98
174 177 170
128 244 244
125 130 30
142 112 13
154 85 250
116 80 103
235 54 161
97 148 118
109 203 145
123 21 127
222 184 11
2 120 255
92 30 179
124 129 246
227 233 213
107 174 33
240 46 117
234 6 156
120 219 28
191 251 201
11 180 123
10 215 60
104 7 41
137 152 187
240 137 238
23 144 14
198 48 204
96 81 188
220 141 43
72 85 56
58 55 13
185 227 198
127 149 254
124 225 106
200 115 133
39 69 92
80 218 149
226 166 169
149 124 175
91 8 127
103 144 193
223 85 250
114 105 191
205 194 247
74 128 158
145 228 214
18 253 116
171 211 3
189 30 10
33 171 105
239 47 55
143 159 247
75 64 229
188 90 113
167 65 27
113 190 239
71 172 165
103 235 22
42 1 37
75 21 25
20 125 239
229 126 39
36 224 43
220 20 222
13 55 202
94 203 143
111 240 112
15 232 163
115 39 103
245 95 56
141 248 184
19 116 85
72 100 109
140 221 156
118 139 63
174 167 208
102 222 57
123 28 227
65 244 173
118 139 76
66 55 149
240 2 111
68 246 197
233 59 148
105 151 111
217 23 207
212 223 82
104 160 135
195 195 57
183 214 6
125 97 55
188 149 141
115 239 223
9 16 242
26 91 158
179 190 28
235 16 83
252 57 187
205 174 40
153 1 19
5 3 142
242 212 177
160 239 95
108 226 5
49 118 162
255 154 230
144 193 221
252 231 79
251 150 55
51 197 239
186 55 53
2 235 59
172 70 233
127 178 184
175 100 215
157 161 92
5 232 199
81 25 155
197 140 37
22 6 86
73 107 127
91 156 144
86 172 172
222 93 61
18 184 145
58 159 84
189 173 48
19 118 228
185 190 74
23 225 202
188 70 84
56 33 147
240 31 191
149 123 30
59 107 176
143 36 6
252 43 216
54 162 39
115 213 5
150 225 99
55 38 199
3 128 248
219 12 19
21 19 207
213 23 127
174 187 136
8 126 243
61 2 248
164 111 216
14 74 13
138 142 220
134 194 208
115 178 34
205 205 159
210 237 208
140 42 150
109 18 138
190 216 88
60 163 203
113 167 163
148 188 114
186 192 58
81 99 32
220 219 202
87 145 165
153 136 68
37 115 200
248 176 179
232 26 103
95 104 40
83 38 13
243 20 143
254 68 89
118 142 61
42 56 176
22 2 171
211 0 225
198 22 82
17 226 104
53 110 137
67 228 46
46 86 41
218 227 245
102 50 247
118 170 115
72 16 70
159 238 144
42 50 88
43 56 30
39 47 107
161 197 195
13 63 43
100 157 117
154 54 88
152 60 177
191 225 232
151 147 81
253 89 143
240 25 112
22 28 192
39 230 242
0 6 90
242 140 76
137 77 68
222 181 231
165 240 175
9 132 140
29 38 76
107 133 142
13 24 247
143 168 222
54 206 193
91 168 179
68 252 244
193 189 185
212 240 155
155 231 183
229 103 22
61 83 49
105 3 193
243 227 181
51 74 22
89 56 15
156 226 159
15 242 133
6 97 181
184 0 128
97 128 141
158 195 149
173 69 208
5 57 144
167 193 123
199 122 232
181 82 239
150 172 91
63 213 99
53 218 1
132 188 240
150 27 52
236 237 96
147 175 92
133 223 119
250 114 124
105 239 151
210 22 86
121 235 247
86 10 198
46 239 241
150 142 167
181 196 168
173 232 96
8 170 14
84 60 122
117 169 180
136 25 106
82 76 183
185 59 243
50 232 141
56 135 188
249 11 132
205 80 162
199 247 135
145 217 175
171 43 196
49 235 177
29 189 248
118 179 143
178 86 83
95 169 167
103 191 99
102 219 197
25 154 198
177 155 131
253 137 166
93 191 215
231 169 162
8 14 52
86 162 18
94 147 186
189 44 5
37 19 124
117 217 241
136 247 143
255 157 171
69 37 18
54 110 114
25 237 118
162 130 147
53 246 29
63 145 49
27 253 124
56 16 48
210 244 43
170 132 88
150 190 146
38 177 54
162 23 5
103 40 140
115 17 75
209 248 232
28 87 113
229 50 96
90 117 233
226 169 26
156 200 70
249 58 230
82 180 165
52 99 202
221 71 38
38 71 116
220 155 86
99 244 15
134 197 174
30 216 185
163 136 32
120 118 147
119 253 107
83 196 174
240 212 178
47 72 93
99 19 207
146 167 188
233 71 29
215 73 76
153 123 83
22 49 56
65 190 92
3 103 155
77 242 96
17 3 224
248 250 154
141 128 175
82 209 59
237 96 30
148 166 78
35 127 154
238 201 204
243 67 166
45 122 237
80 140 214
203 157 8
214 183 251
18 23 83
10 88 36
52 115 107
37 135 75
229 172 185
144 246 120
104 136 194
194 116 40
199 33 141
22 226 164
167 215 97
102 255 179
254 13 142
33 244 22
135 14 129
111 64 247
118 57 22
99 213 181
189 37 100
69 91 175
239 89 145
194 215 255
131 187 35
39 25 119
212 235 183
196 90 119
253 248 150
15 138 156
25 42 232
106 53 211
199 102 67
148 96 119
59 117 6
57 186 183
179 61 133
51 12 42
126 172 38
116 162 122
168 224 134
178 136 228
160 225 154
210 188 168
193 40 58
99 199 225
254 73 24
115 97 88
202 236 8
58 56 105
15 95 178
140 104 14
192 224 244
39 31 196
131 37 98
236 150 249
187 30 97
232 171 95
104 71 28
195 85 113
129 247 231
189 251 204
76 104 163
0 115 38
36 73 161
161 165 217
248 118 100
101 22 234
55 251 59
210 4 216
86 90 43
144 234 215
97 37 129
9 245 179
70 137 242
113 168 165
74 13 164
10 22 10
130 48 186
54 227 55
117 179 166
129 183 3
73 162 121
39 135 73
90 7 167
164 106 116
7 221 85
251 26 112
177 91 132
185 111 191
138 70 234
68 232 189
50 93 157
134 71 208
62 164 114
81 58 115
160 211 9
3 113 119
199 58 169
104 119 27
176 5 198
149 218 14
21 92 188
205 199 230
128 40 3
210 22 159
231 132 174
145 255 126
71 85 243
164 246 223
76 117 226
224 135 231
169 219 146
32 174 91
46 106 126
232 121 230
226 9 218
45 229 207
8 129 149
94 205 173
125 67 229
212 246 83
197 122 87
104 208 152
76 173 235
173 219 172
244 31 187
141 160 125
31 131 125
4 237 203
15 132 165
42 92 195
154 47 74
35 179 83
144 93 247
166 138 111
215 162 254
113 47 156
76 192 39
114 85 244
248 23 89
242 139 209
16 10 89
189 197 194
60 26 223
224 82 17
102 56 168
118 197 215
246 7 83
43 202 15
220 238 74
65 65 188
33 101 135
43 43 130
82 64 39
15 183 153
141 63 24
192 13 106
171 76 105
128 2 110
137 186 81
80 152 150
59 193 71
170 147 32
138 149 246
49 210 35
59 48 105
163 190 175
131 91 28
180 79 32
253 173 47
116 125 56
216 130 36
119 129 92
81 228 174
76 87 163
161 128 89
102 242 249
219 71 24
150 77 88
130 63 22
156 131 32
8 210 86
100 239 0
189 34 70
66 235 39
5 198 179
100 10 230
125 25 190
180 212 45
138 106 58
46 25 202
176 66 91
246 115 14
136 88 197
28 45 142
157 10 28
138 219 242
6 125 83
146 54 202
102 206 168
234 1 48
53 8 57
142 178 148
221 24 160
86 33 163
239 222 207
30 32 206
182 49 43
195 100 98
157 135 150
229 44 54
227 203 139
54 254 216
55 201 168
187 254 228
176 63 122
191 190 35
164 179 254
242 106 8
17 115 13
156 118 161
75 144 49
137 62 228
168 159 32
4 51 55
191 41 138
42 155 31
151 54 3
240 216 45
49 73 194
238 184 103
174 195 167
193 116 43
67 161 154
254 224 140
28 215 239
50 228 42
5 169 79
43 3 78
133 164 103
149 244 236
148 139 21
127 108 56
73 62 88
176 188 164
189 77 248
180 172 107
14 80 78
250 14 129
227 77 84
127 117 35
139 26 9
53 120 95
241 3 255
16 24 112
92 120 98
135 148 3
157 141 10
173 189 152
53 151 110
198 77 145
93 116 246
156 210 74
59 252 57
209 201 0
207 229 122
200 24 62
231 129 200
8 45 236
176 13 145
191 38 129
36 139 192
223 68 119
97 180 233
105 68 153
34 64 190
191 8 113
96 4 232
98 114 93
210 148 91
29 25 117
168 145 52
188 197 131
162 233 201
148 86 158
71 153 126
75 195 171
244 146 49
237 206 181
254 12 95
189 105 77
204 69 74
137 75 68
91 52 12
234 38 168
91 123 240
250 253 111
19 32 56
176 53 17
216 109 151
208 86 238
103 249 153
172 178 247
207 91 30
247 196 232
201 105 133
213 66 155
13 24 255
68 215 130
118 246 115
183 204 10
21 229 187
92 189 128
118 139 70
45 10 90
177 69 136
129 84 145
20 33 150
158 116 207
101 254 229
185 101 143
62 91 240
113 252 20
82 21 186
209 86 63
156 38 147
169 233 197
123 219 156
103 237 47
216 101 81
147 221 58
29 35 23
13 46 64
7 144 86
193 222 51
124 53 206
75 44 220
199 9 79
155 48 91
9 117 147
27 58 48
151 110 120
144 12 215
58 112 156
11 249 248
30 69 198
111 107 83
161 85 12
4 106 107
142 189 104
73 139 171
82 188 150
148 157 225
244 119 230
149 137 189
116 6 77
138 64 194
109 243 55
217 84 50
161 151 68
1 250 210
216 74 46
172 103 227
188 113 47
178 14 134
67 227 254
149 28 93
125 219 101
191 174 83
237 254 131
226 120 180
218 55 162
200 58 239
145 56 191
244 9 83
28 250 136
20 172 238
176 46 199
172 166 30
34 221 120
163 157 24
189 182 82
119 15 128
199 46 244
46 183 219
3 166 88
154 88 206
49 146 137
54 105 17
197 35 8
206 109 241
110 49 51
33 28 145
189 116 64
127 155 141
230 13 198
85 210 2
97 210 212
44 66 57
154 79 51
65 90 65
57 98 228
216 193 132
181 234 5
240 119 138
152 137 62
24 226 122
193 17 253
114 164 31
97 31 33
205 31 38
235 204 52
51 141 205
170 142 27
166 40 64
93 110 240
80 110 84
53 9 21
179 253 19
56 101 97
51 154 93
93 241 25
216 142 161
36 198 77
31 207 221
184 27 65
115 92 252
58 159 93
47 44 203
232 141 170
197 133 100
75 17 217
185 130 230
204 233 27
196 106 190
202 219 101
174 176 28
75 186 90
50 216 104
13 37 109
25 92 63
2 160 94
62 89 61
224 106 51
115 161 161
226 249 170
184 114 35
196 219 218
190 118 42
242 196 35
205 44 100
126 18 102
46 130 13
65 0 109
51 213 150
2 41 207
14 75 30
58 92 15
244 81 70
10 143 5
117 113 84
218 132 214
234 87 195
112 238 30
3 123 243
32 68 166
42 228 155
152 157 155
234 38 62
26 185 179
56 196 124
232 248 31
40 46 160
255 112 82
241 101 92
105 15 60
133 115 128
178 244 125
241 174 194
55 121 158
139 20 154
112 174 99
190 181 167
179 142 131
18 79 104
146 237 213
185 69 178
166 48 218
235 69 176
70 152 24
137 216 205
210 158 168
46 226 12
159 111 117
219 213 255
182 143 120
67 61 123
248 56 21
83 10 192
183 243 197
158 231 232
118 143 4
177 92 239
161 227 60
249 33 77
147 180 243
82 197 151
169 142 82
76 129 6
251 132 185
31 94 51
114 49 8
36 194 71
34 179 5
45 71 196
241 48 3
122 196 71
147 96 100
130 0 77
175 201 183
94 12 171
62 88 28
75 160 192
20 144 249
72 207 237
225 9 53
184 98 238
168 192 188
248 47 180
35 245 34
201 163 245
81 253 173
131 68 100
4 31 164
198 225 155
204 89 205
172 219 216
89 172 197
158 61 133
192 124 154
150 16 182
49 5 247
211 45 43
56 4 5
46 220 239
2 22 63
152 237 238
208 186 208
133 246 5
235 4 129
139 196 70
246 100 6
241 160 4
15 47 99
139 23 255
223 154 59
119 1 112
87 133 74
227 20 103
241 164 52
50 132 205
245 55 20
62 88 59
174 185 179
179 81 227
159 43 184
141 42 79
155 194 243
248 27 51
81 26 67
65 142 219
171 156 55
188 91 99
93 230 244
140 19 222
193 229 187
172 217 247
179 132 54
185 177 249
196 199 184
121 73 227
28 30 60
15 83 102
177 54 222
224 78 202
202 165 115
193 127 235
208 183 131
38 69 121
27 142 13
152 27 199
45 94 140
145 233 166
225 128 24
114 129 109
167 1 126
59 153 248
85 46 3
73 78 236
33 228 1
41 125 65
91 233 148
202 219 100
122 34 47
245 196 191
124 204 253
124 90 190
28 80 65
164 224 34
204 45 39
65 175 69
147 4 25
7 223 51
72 15 176
220 157 209
23 194 125
142 136 237
155 134 63
156 167 228
190 90 145
234 198 32
104 30 186
88 149 55
221 64 13
28 218 250
104 3 192
81 66 104
21 97 186
13 252 111
119 111 58
3 76 133
175 124 225
232 173 190
63 142 139
4 71 41
204 246 152
96 29 17
93 165 125
143 19 24
211 208 6
108 161 143
74 228 62
21 86 153
210 164 49
225 253 87
126 209 33
221 33 224
216 253 98
23 98 162
38 42 129
143 216 204
20 48 194
68 177 175
184 20 124
232 31 179
34 32 95
56 71 142
80 34 247
57 133 3
252 9 56
229 6 75
145 201 251
63 113 2
216 247 47
100 116 87
131 254 148
188 175 164
50 97 75
91 24 191
153 174 58
16 88 28
172 171 101
98 185 2
57 94 33
140 92 166
250 122 163
30 135 27
4 124 5
65 130 248
146 159 205
149 53 205
86 3 201
71 209 158
238 161 244
198 153 218
44 61 254
14 250 179
56 170 159
97 8 186
245 182 144
117 59 175
240 213 108
26 205 53
7 225 224
214 240 25
83 98 253
98 200 71
185 7 239
149 235 219
172 202 56
24 118 72
221 0 68
30 74 2
198 121 167
123 221 150
64 237 103
39 177 124
82 23 222
180 20 126
204 102 12
240 32 239
180 219 251
144 35 103
224 2 251
9 228 219
154 83 95
120 215 226
147 64 179
100 13 161
76 39 22
228 11 143
80 57 161
179 154 105
121 155 35
174 12 161
41 207 147
126 75 31
252 105 54
39 145 229
242 38 227
241 21 83
142 154 185
231 89 15
213 252 103
26 12 19
71 247 238
242 129 89
222 124 200
14 39 8
165 16 6
41 34 48
115 161 126
12 9 121
181 132 54
190 174 230
15 248 91
239 84 89
236 240 41
215 161 208
225 2 181
70 34 246
229 173 123
110 109 29
87 53 32
85 96 147
90 132 78
87 187 24
228 68 28
152 76 35
213 82 20
249 53 62
146 186 189
2 74 203
77 108 15
54 166 245
68 209 192
2 94 178
35 177 17
193 241 226
246 110 221
158 73 203
136 107 43
151 40 95
153 220 226
179 106 166
189 53 129
128 4 208
121 59 174
38 51 195
216 175 226
47 34 16
184 215 133
90 71 220
71 86 171
134 146 48
19 54 184
167 13 2
125 212 46
73 60 114
210 187 232
148 210 87
231 164 2
95 46 27
54 222 179
151 241 159
234 11 13
64 197 189
51 168 165
50 132 161
154 234 146
56 163 31
113 76 60
248 26 52
109 63 84
16 164 48
122 120 160
227 5 77
199 70 117
117 167 210
19 19 155
87 194 73
56 187 215
183 108 184
149 248 241
15 137 143
177 99 216
106 247 94
11 189 185
24 12 19
250 37 169
156 112 126
58 179 45
34 36 133
68 70 234
154 66 117
14 162 39
115 186 224
190 52 155
18 37 84
21 10 81
215 136 128
154 94 25
22 5 134
237 147 51
164 123 124
140 243 247
246 211 49
169 228 202
69 88 101
36 51 165
58 152 220
129 246 139
228 12 145
14 0 62
113 51 83
86 38 174
61 105 148
78 29 193
114 195 184
95 212 223
157 172 122
200 61 55
173 161 8
70 73 144
194 41 138
167 32 45
28 107 77
40 200 166
121 14 10
105 93 211
81 111 219
39 114 87
202 79 153
5 27 161
43 78 11
9 125 167
233 248 181
163 214 5
38 55 224
48 40 62
81 229 72
55 34 160
12 147 11
120 235 6
80 14 47
138 227 236
255 129 213
168 158 159
249 225 48
180 219 222
21 207 166
131 202 104
80 214 233
159 68 10
166 108 40
2 204 238
185 241 44
190 114 113
141 119 103
28 207 131
170 47 162
0 120 108
189 221 90
21 138 178
250 18 120
175 119 86
199 164 28
155 71 49
252 94 192
67 240 189
96 214 197
112 130 198
236 25 22
242 95 166
212 31 37
225 234 1
107 210 33
27 40 52
85 9 200
196 114 234
218 253 103
250 132 63
95 20 152
178 81 74
168 224 92
78 128 11
78 33 210
208 165 34
206 54 29
12 186 26
125 199 225
216 228 192
212 141 212
209 177 178
144 69 52
189 245 224
82 229 182
142 159 86
174 130 146
43 98 253
1 67 62
178 250 122
226 255 207
183 228 178
98 31 193
180 63 142
80 215 24
40 0 231
252 237 247
65 80 14
191 127 232
199 190 25
67 93 201
233 33 146
46 253 110
0 79 236
118 69 235
115 251 106
118 60 243
122 38 211
63 217 79
170 254 234
205 51 13
2 75 196
18 217 49
168 77 174
137 157 221
172 160 147
161 226 80
32 244 38
13 178 220
66 139 233
118 41 239
84 117 110
59 75 117
87 39 64
158 247 160
178 204 101
114 30 80
58 66 141
162 243 23
134 59 110
201 107 108
110 115 105
253 227 79
54 207 185
70 81 4
232 153 132
87 193 89
23 52 186
23 80 107
21 87 116
157 195 237
115 81 172
113 142 222
0 249 37
43 57 124
145 62 9
187 243 147
239 146 96
186 61 13
211 149 247
84 124 150
37 6 233
230 143 112
243 252 42
86 71 51
42 198 71
153 162 198
183 70 50
240 47 63
162 190 207
136 42 107
64 175 222
164 184 131
15 121 184
63 57 181
144 0 157
237 168 20
181 12 71
130 167 255
96 181 244
147 186 130
33 197 132
94 234 139
49 232 90
220 229 247
87 27 125
125 118 156
163 10 229
242 8 48
140 50 88
20 72 85
8 164 13
89 204 133
235 20 44
15 156 215
79 167 150
69 75 45
38 249 83
208 178 106
169 67 252
191 112 168
120 75 147
221 115 42
119 37 208
27 134 46
40 151 98
174 117 8
177 134 232
44 123 39
146 172 200
70 87 29
208 247 119
115 203 27
139 211 135
106 183 198
133 186 253
62 5 177
80 169 109
65 160 233
56 51 155
209 40 179
141 219 65
87 31 212
252 236 238
123 130 19
31 93 254
100 62 55
157 168 181
1 89 79
53 81 120
135 204 191
199 236 218
52 122 186
242 46 205
193 248 214
187 20 149
16 43 163
89 154 133
88 3 103
151 27 122
247 63 188
135 223 207
48 130 0
192 236 101
233 199 201
22 212 191
247 189 35
201 207 89
25 240 38
132 207 122
7 31 35
111 169 206
200 119 237
245 116 15
194 176 0
221 193 128
75 62 120
195 181 143
192 139 104
79 115 160
35 171 11
139 85 80
52 217 87
255 105 240
251 58 17
61 205 149
164 142 176
187 50 54
32 104 123
122 105 83
217 48 149
141 45 208
131 212 111
201 37 43
186 100 150
189 183 193
2 43 46
17 16 161
218 115 227
183 219 69
63 114 186
152 141 66
150 28 24
61 166 31
250 44 167
3 99 216
0 129 137
162 42 27
180 182 94
179 7 47
174 151 179
213 128 77
150 220 84
48 122 110
8 29 72
25 80 157
235 208 158
204 159 8
216 90 28
160 203 46
54 19 173
41 93 187
139 194 59
177 145 135
77 15 244
23 188 225
189 31 57
199 151 211
69 39 188
69 83 25
243 70 127
155 150 106
157 7 76
198 88 125
223 81 164
50 22 50
104 160 168
99 125 34
184 241 148
251 224 204
222 176 244
229 95 232
217 39 248
131 253 172
40 16 79
237 61 30
190 12 87
200 190 71
29 32 124
231 232 93
39 0 33
13 0 19
35 226 29
219 220 248
148 125 106
95 209 125
246 226 3
235 47 230
198 189 149
88 68 76
129 134 2
192 75 68
149 139 63
226 17 57
236 207 161
243 159 232
216 30 109
40 128 242
237 74 172
216 207 19
38 24 174
180 124 57
180 140 107
66 98 170
185 184 158
90 159 210
13 90 227
183 4 8
11 207 27
79 71 58
167 67 211
45 198 255
165 98 182
118 173 181
33 58 174
24 135 4
35 62 63
3 67 13
190 109 142
253 53 104
178 104 185
200 133 248
46 186 127
110 127 25
169 75 60
230 55 70
237 148 139
253 35 169
140 144 81
15 219 137
116 58 104
47 123 114
50 2 16
53 80 32
249 145 224
138 123 121
227 34 188
107 120 137
66 49 151
2 53 18
202 44 112
212 183 137
90 237 191
173 64 94
135 68 189
53 247 163
165 150 9
83 228 24
147 247 78
58 177 60
231 27 138
211 192 247
132 203 44
9 230 35
174 247 67
82 212 168
48 77 97
106 46 194
187 46 137
227 236 70
188 69 125
214 171 13
103 136 135
26 153 95
218 112 133
170 178 158
91 70 35
236 62 15
161 29 47
248 62 173
108 0 66
119 71 214
17 97 90
135 74 207
75 246 225
96 79 70
252 83 93
144 56 155
44 34 77
36 239 138
223 173 2
71 216 243
148 146 203
70 160 60
142 70 187
139 166 210
18 169 104
169 191 18
179 201 203
5 22 52
116 248 69
69 45 69
206 86 100
145 113 88
13 219 133
63 202 112
134 113 81
11 46 243
189 45 194
213 104 5
31 220 82
205 116 74
190 32 165
217 51 248
76 7 137
12 249 46
220 250 181
169 50 15
52 95 109
180 104 101
113 152 14
47 19 93
117 142 14
164 120 130
88 48 31
139 148 62
14 194 122
34 188 174
97 136 200
93 227 69
229 134 179
91 107 244
11 239 21
72 21 80
2 114 191
137 161 179
197 164 97
84 32 207
64 96 1
34 231 136
14 248 182
36 67 201
69 27 14
201 238 50
116 13 137
88 252 57
167 3 6
205 205 242
26 57 127
227 180 0
163 241 68
141 51 239
102 161 253
142 150 142
49 171 239
122 102 68
221 232 205
89 16 215
42 84 176
217 91 157
211 245 249
106 172 121
132 247 16
189 210 8
217 164 46
163 53 220
208 56 209
221 59 4
68 213 146
124 47 22
110 175 1
75 220 99
206 95 69
161 20 171
217 178 121
116 103 172
91 105 38
32 235 90
198 85 15
11 42 14
67 66 4
7 125 46
163 179 170
97 156 23
124 2 160
103 18 106
28 100 105
63 47 96
189 159 215
105 253 72
63 56 42
106 204 118
249 162 238
224 105 30
3 121 194
180 117 143
131 76 201
58 66 36
213 61 20
32 59 112
51 201 0
37 86 57
66 80 218
85 66 191
107 224 122
24 195 245
82 207 81
19 58 222
54 30 149
76 99 227
56 215 46
41 216 11
118 127 128
24 99 129
251 125 109
171 229 229
185 48 23
219 112 211
140 31 38
83 113 15
107 121 244
252 204 219
195 125 132
140 33 149
130 172 236
5 180 80
31 134 137
214 59 79
68 51 181
81 111 160
221 142 104
13 100 76
70 79 30
78 79 254
222 117 34
236 137 252
224 97 247
46 136 233
33 141 26
175 67 170
208 157 39
96 218 67
236 198 168
115 178 125
254 105 95
211 38 168
97 79 4
77 156 105
170 39 223
185 139 51
228 172 51
104 215 236
34 178 83
233 145 101
69 163 116
139 126 106
159 195 143
205 99 89
108 158 10
132 192 37
160 99 152
70 32 55
199 35 23
95 110 26
21 253 203
144 205 150
117 187 77
44 75 51
229 151 161
23 116 72
241 190 151
190 29 5
62 3 165
6 160 6
198 231 45
122 24 44
63 72 209
250 179 107
27 83 190
191 85 3
77 59 95
81 149 169
15 199 38
58 77 95
17 160 2
68 69 116
130 166 38
224 221 175
232 76 153
203 176 215
226 79 124
21 0 28
184 255 100
16 153 71
144 201 245
168 51 45
253 237 95
136 249 176
130 111 57
251 92 172
149 42 68
251 140 157
186 183 191
163 27 205
77 87 135
35 90 239
208 50 42
153 114 200
171 197 10
98 134 215
178 99 232
63 4 168
121 129 83
248 108 198
104 250 171
17 226 20
188 56 66
239 104 130
117 21 108
30 95 235
91 167 134
157 62 97
36 39 186
98 116 12
121 14 199
168 201 83
162 68 41
30 62 33
7 183 157
58 159 18
10 68 129
237 49 15
121 64 31
148 87 25
53 98 172
21 178 238
209 189 233
187 86 40
58 164 142
195 87 3
202 10 54
51 135 186
254 61 149
91 43 105
230 235 4
74 185 184
206 6 70
253 189 172
52 16 123
193 10 128
133 21 244
75 169 184
27 64 148
17 71 182
2 162 102
86 97 174
59 60 17
223 69 185
59 28 13
161 191 201
10 201 108
234 86 67
206 170 207
208 50 14
175 215 11
141 184 222
199 164 217
19 74 89
227 153 94
30 187 29
205 224 52
138 238 154
205 240 166
132 166 101
109 49 95
118 206 216
168 141 7
192 151 36
98 55 4
102 69 196
4 143 211
94 192 236
72 65 71
237 169 224
241 74 133
9 138 5
249 208 128
220 245 71
234 107 13
28 117 204
229 118 161
217 242 173
149 148 68
44 115 245
38 96 197
179 81 13
112 36 109
26 235 184
72 84 243
129 184 127
210 76 146
40 203 214
16 192 171
165 34 208
14 30 204
68 218 69
209 120 244
26 121 118
117 125 168
80 159 32
149 41 162
28 207 244
91 137 20
32 224 250
238 191 35
193 106 30
226 71 58
140 98 131
235 17 239
201 37 18
244 144 224
79 168 251
163 79 80
177 71 231
205 230 209
255 247 164
84 230 130
248 112 85
67 193 22
184 198 65
56 104 220
25 111 164
71 209 253
92 172 105
68 66 250
45 198 187
81 65 167
46 232 241
155 199 40
37 82 227
114 131 120
125 184 155
151 242 114
95 177 102
147 207 230
154 73 101
143 219 197
117 226 71
122 241 76
45 250 197
85 81 217
43 108 216
84 37 196
199 221 241
103 97 147
49 9 64
153 216 247
7 56 198
41 240 31
254 210 13
28 212 214
139 206 213
62 116 59
169 208 253
243 200 9
166 24 16
203 198 174
82 135 35
122 68 141
39 205 14
59 123 20
86 135 64
58 163 222
200 151 255
145 117 127
46 174 207
62 26 74
92 194 95
112 175 131
245 241 78
118 105 133
108 239 104
209 69 241
124 13 98
19 234 222
160 27 177
45 45 14
248 172 64
202 225 106
28 209 126
224 89 157
204 85 232
25 67 136
226 10 209
101 168 53
146 125 101
176 224 101
234 225 191
39 130 94
170 138 90
141 129 91
194 203 92
195 17 31
235 56 104
253 47 142
26 182 83
191 53 200
214 102 65
201 226 13
14 234 244
99 57 162
163 160 64
159 34 156
151 205 100
92 152 174
59 2 128
63 39 160
120 207 254
65 150 127
90 217 55
223 98 129
117 41 88
236 44 134
50 56 200
205 23 72
104 1 15
144 189 104
208 77 206
237 184 116
45 174 146
98 139 185
122 112 155
236 180 74
239 149 173
12 240 93
107 84 134
81 107 221
237 29 213
190 67 150
255 89 20
192 152 12
68 149 228
86 115 132
61 72 92
102 13 210
26 118 254
160 223 238
231 93 138
169 252 162
201 202 111
66 254 179
88 31 156
217 71 91
159 38 11
209 200 86
222 170 110
29 165 193
239 207 240
54 42 171
155 237 203
202 216 26
226 62 61
170 19 169
0 58 212
112 161 29
142 25 139
255 115 14
238 98 91
72 123 187
1 16 103
227 172 230
23 168 109
79 131 33
150 65 131
67 106 150
168 171 24
213 226 23
63 81 1
23 143 231
123 87 17
46 242 247
101 71 171
90 147 252
189 252 239
77 215 177
46 212 77
65 134 199
29 89 191
16 72 38
181 129 101
191 198 134
100 200 241
202 11 44
193 127 37
185 98 106
243 162 249
237 171 70
229 213 166
29 229 88
195 168 58
66 191 31
93 138 137
97 122 130
22 4 157
214 37 120
211 102 224
96 155 79
34 45 38
27 164 30
249 41 54
30 27 132
208 181 154
13 158 120
153 18 99
106 43 93
220 153 237
30 196 123
7 98 228
191 102 84
239 227 29
28 227 241
109 194 176
35 207 35
78 4 92
232 18 199
123 107 17
252 186 93
254 89 212
153 34 225
89 45 215
87 19 7
69 33 108
173 233 253
104 209 75
187 74 55
140 114 146
204 138 52
118 43 158
249 236 77
169 62 91
179 32 180
120 97 74
17 181 105
199 176 173
156 245 70
118 71 108
2 19 172
56 102 50
50 58 172
153 141 20
203 176 54
38 68 162
134 147 145
214 169 96
175 78 33
172 14 178
118 28 84
116 230 180
62 97 28
4 146 238
36 249 222
231 12 96
88 248 72
88 209 167
144 149 234
168 45 214
33 143 39
54 41 232
6 211 195
228 221 32
164 54 77
177 81 133
194 18 129
159 40 132
48 226 80
66 202 73
4 234 28
141 30 181
45 167 212
231 127 210
151 118 246
102 80 44
245 2 105
56 100 43
61 177 180
150 152 18
125 209 92
239 136 110
86 119 254
10 113 92
205 77 51
160 253 140
239 214 51
153 70 43
148 161 48
224 133 132
232 184 106
150 225 12
118 125 10
22 193 112
147 30 182
229 219 200
157 242 242
45 180 234
165 98 194
8 180 168
51 198 100
238 105 97
77 190 106
5 162 116
219 76 181
222 156 250
211 91 84
216 107 63
127 192 112
196 110 104
172 181 155
178 142 33
204 117 103
99 160 138
125 207 4
112 211 72
102 236 57
59 195 214
88 68 48
76 250 219
78 28 9
253 34 100
220 11 84
59 39 190
242 227 148
192 165 69
16 136 194
120 80 145
83 222 16
161 109 99
192 128 30
109 48 191
207 83 151
181 96 181
155 149 244
17 181 26
212 10 200
39 173 16
192 66 55
182 169 21
78 245 142
224 45 122
164 101 69
179 16 246
3 208 6
112 166 191
62 164 172
103 245 159
52 182 175
17 157 194
44 101 201
211 75 20
87 29 129
210 223 152
209 209 21
185 61 37
231 84 95
104 112 239
122 28 245
35 237 104
84 121 118
9 94 113
55 202 94
42 95 100
87 221 204
157 224 107
72 5 81
210 7 211
149 212 145
129 198 77
203 86 33
172 230 212
151 82 180
39 169 98
221 138 91
221 27 67
200 243 231
181 89 17
82 106 71
230 241 101
61 102 18
11 115 252
222 84 70
196 191 241
84 173 143
18 16 32
4 146 133
207 197 48
85 214 146
244 28 133
186 57 149
220 239 248
101 97 29
97 145 88
47 108 1
225 214 185
179 183 77
115 253 208
254 237 183
175 117 102
43 168 209
119 4 193
171 244 46
36 47 123
29 211 242
99 122 149
178 229 142
119 223 18
133 152 218
143 230 186
81 248 132
156 184 253
111 203 19
71 170 184
209 127 167
106 50 42
194 8 105
94 110 171
25 31 22
15 20 87
124 68 175
158 41 21
94 51 170
196 119 11
53 2 142
90 22 73
167 64 65
104 13 25
254 162 55
10 64 115
227 157 156
44 137 231
121 103 24
220 73 11
57 74 131
129 132 134
143 170 179
75 161 252
48 134 182
249 56 220
138 95 58
84 17 147
81 87 193
208 0 185
116 193 104
240 87 127
246 55 110
215 44 1
146 117 159
86 8 55
22 34 188
2 232 87
221 159 166
65 118 222
77 204 247
90 179 137
243 106 231
162 117 150
248 64 35
87 67 150
113 84 122
145 50 179
177 113 169
155 28 233
31 196 223
64 241 8
220 153 88
137 111 58
241 49 114
234 161 63
222 0 70
79 91 237
188 212 158
19 142 148
92 121 7
234 255 14
188 184 124
69 150 214
86 181 58
155 34 20
3 162 218
36 167 171
194 49 159
160 129 230
92 150 107
52 210 18
14 30 6
169 234 240
149 26 130
229 224 6
220 56 27
151 90 217
248 62 43
235 33 101
158 25 255
21 41 85
177 10 230
9 143 129
32 167 183
200 140 125
231 215 80
45 221 230
21 19 52
142 255 230
74 3 221
146 98 125
112 64 197
231 234 120
99 1 91
18 3 24
173 44 211
76 50 239
80 137 188
217 120 173
90 20 87
143 185 36
127 70 163
175 209 149
224 90 115
131 175 57
254 27 39
61 160 70
105 222 98
57 120 213
30 84 53
71 6 143
143 199 14
164 100 96
151 214 35
125 213 45
129 55 154
182 106 64
51 62 191
158 226 16
7 206 108
59 90 51
138 37 193
84 14 170
39 135 138
37 38 151
98 156 155
177 225 120
170 229 12
58 55 140
237 20 75
25 88 188
104 212 68
236 29 215
105 16 142
81 162 149
116 244 220
166 74 89
238 193 24
19 149 138
203 85 26
179 56 48
238 149 177
214 59 27
173 176 213
187 226 203
163 44 60
159 249 81
10 226 198
129 237 100
193 126 140
243 176 47
209 247 124
32 199 104
56 74 152
234 128 123
21 33 72
179 235 252
109 32 103
184 184 48
134 242 207
99 13 106
94 68 236
33 63 164
10 54 166
171 48 153
178 202 150
209 36 238
197 171 126
31 140 102
25 69 4
106 78 178
176 191 78
168 125 117
216 205 160
179 38 187
234 234 87
209 59 116
104 239 46
142 190 135
209 255 136
63 63 80
129 72 61
113 233 113
146 243 166
94 162 128
3 212 186
159 238 27
180 182 153
86 126 174
184 141 139
83 197 163
222 94 72
249 57 49
190 92 183
211 102 51
177 116 222
131 152 237
109 191 191
98 197 212
175 137 132
25 149 168
156 56 191
217 156 145
201 159 63
6 47 199
220 60 207
109 7 233
12 70 113
254 4 225
165 204 184
49 153 32
237 102 115
92 50 53
197 155 180
63 7 85
183 142 30
32 94 110
51 129 105
205 200 226
15 153 125
61 131 12
233 215 218
20 58 90
23 167 41
81 186 110
118 155 9
164 162 194
77 255 187
234 144 55
8 247 212
72 219 80
0 185 3
203 0 193
53 74 182
201 63 79
240 119 110
123 124 159
41 33 82
20 90 179
11 232 188
13 82 169
191 182 157
221 218 176
138 214 21
253 0 76
134 40 150
129 30 9
199 73 91
212 217 96
203 184 9
182 88 152
51 201 9
29 162 105
27 89 159
123 226 226
134 150 143
171 121 18
96 83 161
81 218 70
107 216 203
2 195 59
201 69 171
67 172 33
178 212 197
245 225 225
26 232 123
210 219 196
32 81 57
52 16 225
133 135 188
160 126 68
76 73 166
47 88 119
15 107 38
4 2 213
1 250 78
140 183 83
5 49 96
122 219 211
240 43 21
31 211 83
113 134 112
133 177 195
105 197 89
149 255 90
101 215 148
8 195 186
25 19 120
179 47 72
114 72 9
121 66 28
110 114 192
163 152 85
21 36 59
238 112 90
15 137 70
62 29 143
199 5 132
49 11 177
238 62 24
153 84 177
236 255 0
192 212 49
216 231 111
151 27 160
51 79 181
75 236 240
66 154 241
87 76 182
3 34 108
5 70 215
104 183 14
86 237 215
120 143 223
82 240 168
178 137 49
111 130 160
47 64 18
201 15 183
191 202 127
7 36 183
101 17 157
28 25 73
252 245 102
244 178 180
182 181 156
54 158 63
80 101 197
149 70 10
178 162 58
209 14 166
197 155 32
0 33 198
5 86 150
110 198 236
58 247 121
51 52 37
180 31 160
124 218 160
196 82 186
61 239 21
191 40 44
17 238 202
186 205 21
237 49 108
12 164 1
243 63 164
26 165 169
64 118 28
97 188 5
132 254 12
40 38 208
7 188 56
154 212 246
73 154 41
132 143 143
104 17 36
130 35 252
57 73 170
191 240 34
1 32 79
54 239 222
62 28 188
207 157 85
121 157 56
21 182 239
62 55 59
82 161 124
128 159 95
145 226 167
41 132 63
35 110 250
238 176 193
84 59 151
217 52 94
50 111 150
141 221 101
221 49 146
87 112 231
57 191 162
103 46 48
221 213 40
4 84 197
99 219 193
146 179 48
123 70 211
11 131 82
8 240 108
230 241 27
195 65 212
106 195 240
178 43 24
49 247 25
36 19 33
169 48 201
154 94 20
92 87 185
111 221 124
201 189 254
78 150 224
123 163 106
15 150 130
167 35 237
150 93 245
64 198 240
152 204 187
70 17 241
109 121 46
24 127 45
81 206 171
59 17 95
41 227 174
134 92 94
51 231 246
252 104 247
154 252 158
200 226 161
58 5 123
28 66 3
116 16 108
55 250 54
7 69 7
87 181 142
7 80 98
219 242 36
30 103 5
62 101 199
117 141 155
119 236 91
139 158 158
51 89 132
30 158 5
53 39 210
7 98 229
222 94 249
170 180 78
166 96 250
61 125 88
189 186 243
8 186 78
57 43 244
4 108 100
49 39 87
240 94 191
26 228 76
29 223 177
180 128 55
155 238 153
53 132 107
61 34 143
86 81 19
126 140 90
142 35 130
156 205 80
89 177 118
231 14 66
103 163 104
230 2 249
203 145 233
82 185 155
24 227 65
113 251 229
180 223 156
228 95 201
59 212 229
199 99 13
248 24 73
191 234 222
6 135 168
158 24 202
175 87 148
233 102 135
150 5 25
60 21 111
119 175 199
223 251 58
106 255 244
28 34 78
99 204 48
97 214 128
189 104 179
162 108 114
37 119 1
128 123 71
207 178 174
73 0 229
151 254 66
103 233 214
240 137 212
133 187 204
33 243 63
53 243 111
59 65 70
115 176 91
207 111 65
206 216 190
51 148 45
221 97 126
177 113 53
222 226 229
226 149 110
198 59 251
188 161 195
25 28 196
227 95 216
165 132 199
251 59 146
85 204 29
160 110 120
44 47 41
205 209 129
155 152 74
150 23 125
232 211 95
29 128 253
168 199 252
63 104 72
61 167 64
45 215 142
86 227 43
44 44 176
232 155 230
243 10 7
172 152 241
74 254 151
201 73 95
97 21 4
209 9 134
99 153 199
235 94 6
252 164 170
245 127 64
98 36 91
102 21 238
39 129 11
77 147 129
122 159 0
219 65 83
28 7 107
108 227 179
184 133 12
176 184 220
206 250 161
176 122 86
106 154 189
8 37 135
115 84 118
147 103 238
169 43 162
77 228 122
7 196 143
216 22 240
7 206 226
143 80 10
104 158 29
109 6 101
122 36 119
64 176 171
158 87 101
75 98 227
199 167 108
9 219 136
254 153 16
121 238 58
211 29 152
33 194 181
84 224 153
3 183 57
111 127 99
138 214 254
27 173 152
193 28 49
88 208 255
16 51 68
71 148 67
247 141 168
25 22 11
196 213 178
70 112 178
17 96 66
156 159 31
137 184 34
7 161 62
134 12 59
179 84 209
183 255 164
107 134 51
168 213 144
99 91 76
75 46 21
222 144 223
0 105 1
84 177 142
173 189 204
66 209 47
0 240 66
254 199 26
2 135 73
3 43 233
49 186 95
191 98 170
69 83 28
252 133 244
192 159 229
76 115 159
199 132 5
97 98 182
133 177 178
220 252 16
179 236 44
219 164 102
156 138 240
58 77 52
84 171 115
211 195 13
181 19 250
215 208 122
53 22 238
10 214 170
212 142 133
247 200 129
24 254 90
110 255 151
224 179 166
192 28 85
106 61 180
172 144 179
195 244 179
123 123 147
5 26 122
43 113 156
183 242 36
209 25 221
214 0 29
245 120 81
23 164 222
141 158 67
124 50 163
22 202 130
118 47 43
151 19 143
246 141 128
42 6 16
143 169 225
168 1 27
102 223 143
11 96 233
63 81 61
211 100 40
178 203 151
238 55 131
192 238 30
148 46 176
223 80 204
246 131 128
240 121 73
125 163 186
167 137 224
72 175 204
71 62 234
22 193 220
255 88 103
177 122 96
24 239 208
77 142 85
224 139 214
216 58 50
59 159 117
56 212 198
203 212 180
65 163 26
113 66 112
105 63 68
176 133 42
232 79 102
244 229 233
37 212 229
6 106 47
62 184 35
48 62 183
236 223 157
173 136 96
112 134 203
200 244 236
240 43 128
9 217 109
20 105 243
173 225 176
79 126 49
136 164 53
10 182 5
91 91 106
167 130 212
165 114 197
92 192 36
16 243 202
55 141 147
124 10 11
139 116 94
69 202 223
214 157 216
196 73 36
170 149 163
130 87 106
146 183 226
128 230 36
64 183 91
187 41 14
157 135 175
70 162 47
29 189 102
0 69 202
206 107 114
203 102 96
152 85 178
104 230 167
62 68 40
106 5 134
10 228 198
198 225 79
97 148 157
167 201 10
174 72 114
158 36 129
139 88 13
54 235 9
125 125 29
91 46 112
41 212 117
138 69 161
173 167 50
119 2 248
110 29 231
36 157 125
1 242 251
239 189 149
136 60 169
233 51 143
213 9 200
185 106 77
141 146 129
71 204 115
205 173 28
204 137 94
202 56 223
216 187 120
153 212 197
131 69 6
139 232 226
192 18 188
84 9 203
92 33 209
31 24 255
5 94 164
241 154 101
142 183 106
65 159 95
54 18 62
249 16 18
212 133 228
178 248 152
63 130 33
183 57 124
166 167 94
15 234 61
8 226 69
237 191 139
53 142 135
23 94 3
140 180 163
70 123 55
231 53 236
34 82 62
187 36 173
91 168 38
46 79 90
15 140 231
15 96 225
95 136 192
200 31 110
29 211 108
74 133 94
155 210 84
216 170 63
41 76 142
130 9 246
116 183 155
249 132 134
5 224 208
36 137 68
207 112 33
47 101 197
9 153 131
240 204 21
156 150 24
51 164 52
11 81 36
114 125 1
91 126 251
83 192 14
35 113 132
52 119 248
71 106 143
64 17 207
167 98 37
32 8 190
171 255 93
48 111 56
42 17 17
42 73 151
136 109 168
51 253 56
180 67 139
69 38 255
166 248 245
82 149 15
4 212 127
205 113 218
174 250 136
168 17 217
253 65 26
118 63 72
200 217 246
17 33 165
55 8 35
20 87 134
240 60 176
46 248 29
162 77 127
87 197 185
31 200 58
0 59 36
165 51 178
87 229 163
58 68 180
150 229 84
4 219 190
82 36 195
200 188 198
135 207 141
95 29 159
225 110 118
148 142 51
57 15 35
0 134 140
148 222 154
124 193 152
185 238 196
23 227 105
149 121 165
63 227 235
164 198 38
138 164 37
199 63 254
84 200 183
209 76 116
10 122 227
194 239 250
46 87 164
24 118 180
178 214 57
66 162 136
230 102 87
125 6 206
132 7 62
87 224 157
97 99 188
115 40 249
199 9 164
146 27 214
154 67 184
107 207 77
219 247 213
85 212 86
135 115 153
153 197 99
127 142 184
205 83 254
34 164 152
162 218 45
223 179 207
156 119 100
120 43 61
66 40 38
184 132 112
76 88 214
235 98 194
102 59 172
125 139 37
94 37 124
197 64 8
17 137 62
150 108 225
28 221 195
79 113 67
74 151 176
185 172 32
243 155 180
144 56 214
38 25 198
175 127 192
251 254 22
183 179 193
229 37 29
88 244 82
149 47 195
1 227 74
101 1 72
245 166 79
19 252 87
100 229 143
213 197 177
188 19 165
182 238 141
173 68 19
150 82 134
123 222 121
183 111 25
73 211 139
221 56 248
104 38 90
249 40 87
192 108 229
1 220 18
218 101 114
252 234 207
31 106 246
211 221 176
218 101 52
197 55 194
66 5 84
44 161 188
5 211 150
222 189 15
122 127 214
113 76 64
99 2 181
76 21 233
72 236 240
123 30 217
130 61 219
28 240 247
111 73 211
116 221 165
20 40 81
130 229 22
218 242 212
20 228 135
40 154 90
42 222 156
133 193 158
143 142 217
62 116 213
214 45 180
182 3 103
124 2 193
227 247 128
38 17 192
126 152 247
67 252 220
211 155 194
93 55 132
68 156 127
40 207 54
125 119 86
250 160 246
178 93 95
137 10 14
120 143 32
159 220 3
243 171 246
81 47 138
209 40 146
249 120 109
55 179 239
63 24 85
235 206 93
12 249 183
237 149 187
192 59 236
239 56 144
141 73 174
157 80 161
97 212 106
30 1 217
63 33 14
105 251 190
14 216 182
194 132 122
192 68 132
36 102 150
198 138 136
211 174 143
247 133 91
177 52 129
43 18 126
21 157 4
203 132 65
160 184 105
76 143 46
34 67 175
71 16 90
254 146 210
48 69 182
195 200 153
225 0 157
70 144 207
153 90 146
9 157 194
124 92 132
150 230 117
247 178 246
159 207 164
23 148 170
6 10 40
9 174 50
75 124 126
81 199 27
22 128 0
140 183 229
137 112 10
239 178 181
21 89 31
47 127 215
21 60 141
122 226 176
55 83 15
201 48 110
190 152 164
15 51 81
70 151 225
220 119 194
15 81 114
241 1 230
154 222 249
228 214 195
4 217 26
233 220 239
225 235 141
104 127 176
254 56 244
220 62 203
136 145 185
169 224 201
46 32 223
16 17 81
32 184 74
57 50 254
135 111 124
106 144 39
169 100 27
112 164 245
75 62 39
196 121 149
154 27 245
84 197 211
77 109 6
154 237 243
0 167 14
124 255 241
126 12 114
34 110 87
166 56 59
212 249 199
112 225 92
240 63 97
229 161 22
16 7 92
150 162 239
25 200 157
130 233 86
233 52 9
164 43 200
53 187 112
222 253 59
103 109 11
131 177 89
164 4 205
52 231 167
139 143 22
160 76 24
21 29 111
159 110 40
199 160 125
88 187 36
6 245 8
246 100 184
48 136 57
131 111 36
77 0 83
201 82 4
140 31 171
147 130 196
198 23 59
93 83 145
199 253 116
21 32 86
240 224 42
145 184 147
201 71 171
249 0 177
172 117 130
205 211 56
82 7 54
108 93 5
181 187 241
72 106 57
16 4 176
253 25 200
104 116 172
243 175 153
24 244 83
62 174 166
48 231 58
241 178 233
203 62 57
188 254 62
147 228 18
227 73 249
99 92 201
72 94 226
237 212 15
21 214 93
103 138 110
85 192 26
78 30 119
164 27 30
208 253 169
142 16 156
117 199 116
24 172 8
231 193 132
195 66 98
99 146 249
125 161 74
47 1 149
253 128 115
155 99 96
179 254 141
162 74 44
239 31 39
4 254 147
203 135 251
69 140 2
15 175 32
97 241 169
76 23 157
145 72 247
196 54 219
10 254 102
65 9 217
203 75 49
205 116 57
234 34 195
208 252 224
62 204 225
120 110 120
74 48 189
228 33 71
227 203 224
60 220 64
89 252 68
122 137 81
242 128 208
49 94 65
18 253 145
93 72 168
223 111 159
76 13 45
243 240 104
187 47 255
101 36 189
202 255 151
149 167 73
73 65 253
142 70 179
228 219 93
50 100 124
232 229 245
158 37 212
40 101 131
233 251 42
179 62 6
254 75 193
225 137 80
114 24 50
207 153 1
193 48 244
17 15 179
13 128 161
109 88 56
16 219 242
63 163 222
237 86 118
18 207 35
66 194 88
149 189 221
106 79 201
74 185 130
3 207 125
47 147 181
205 4 200
181 75 221
22 159 1
207 214 197
234 96 177
112 130 197
206 161 168
181 252 197
178 73 9
242 60 49
47 66 118
203 128 130
124 4 210
120 47 205
126 183 123
32 140 188
204 183 127
61 1 89
108 149 82
42 148 151
237 138 21
234 149 237
211 238 127
193 185 164
97 242 130
107 231 118
46 6 236
119 230 10
181 112 130
94 34 233
27 78 47
126 12 154
17 51 226
143 194 26
199 11 255
246 20 240
176 81 48
8 204 109
195 247 187
152 200 161
212 12 209
7 91 201
254 19 35
20 115 133
78 163 200
224 19 72
228 34 157
65 32 162
215 4 224
140 11 201
78 99 175
183 17 6
9 171 243
197 124 11
200 54 87
173 54 62
142 14 0
18 221 210
111 90 167
4 2 39
11 79 184
236 152 224
182 44 28
243 197 146
242 112 160
172 220 107
55 108 134
128 98 145
180 161 248
100 68 174
25 148 8
54 204 68
79 122 234
9 86 6
86 86 25
19 132 219
214 223 67
136 81 166
37 139 191
66 102 185
161 166 121
58 162 83
73 75 84
41 122 67
159 54 72
175 96 94
119 5 43
228 50 199
186 181 129
113 0 190
244 189 144
240 30 253
173 130 0
75 219 203
230 102 239
238 22 199
251 79 25
112 119 90
199 128 137
117 109 246
224 17 203
229 41 14
128 104 12
189 33 86
62 128 13
135 58 147
143 186 235
128 238 98
108 189 121
25 113 118
129 147 42
64 173 72
212 78 175
62 46 19
222 216 124
3 114 86
181 216 108
204 191 131
66 190 170
132 182 197
85 59 154
187 23 186
20 88 139
49 60 76
206 242 75
74 206 46
98 67 162
102 65 20
107 162 31
10 168 237
249 31 71
38 182 39
118 204 117
252 12 194
203 28 58
188 123 176
246 116 21
73 249 184
93 100 89
215 195 185
102 23 184
152 112 65
86 67 100
158 217 191
177 220 82
73 95 170
188 86 226
5 223 228
71 107 44
236 97 195
50 171 223
102 51 220
173 96 116
56 19 104
192 165 125
176 16 28
55 178 196
161 250 162
163 124 30
195 93 248
255 40 95
176 107 167
81 229 52
183 25 29
193 104 58
178 179 142
47 198 174
167 135 181
243 25 185
120 245 122
43 237 40
27 120 122
244 30 109
111 70 99
108 173 204
78 173 120
2 2 245
5 34 47
239 249 87
48 161 123
229 140 108
90 111 205
224 160 30
41 57 55
204 67 211
241 121 218
216 197 250
220 186 133
88 238 133
59 146 212
37 128 232
242 6 137
226 179 221
94 248 75
101 118 60
86 36 133
222 200 172
82 119 4
116 81 255
54 81 108
240 179 165
2 56 70
23 129 166
226 166 202
112 54 142
195 101 45
87 30 9
42 246 62
58 152 148
246 151 212
231 147 114
115 207 60
227 154 239
73 156 120
190 205 207
29 75 240
102 170 54
50 248 218
188 234 12
179 178 102
206 90 140
141 228 254
235 211 141
81 212 152
71 109 54
239 29 170
164 91 213
203 243 171
187 20 129
214 89 176
161 147 209
182 47 66
132 58 174
57 142 69
84 31 164
199 58 194
63 209 105
229 32 103
152 225 97
91 184 103
43 245 151
12 223 75
36 226 231
48 76 134
64 1 232
132 117 186
151 142 111
121 210 202
250 130 57
121 57 86
30 183 205
33 215 192
10 235 147
32 100 47
93 41 117
243 155 25
67 243 195
177 76 154
62 30 67
110 217 26
83 192 214
150 61 144
194 128 190
247 210 140
98 84 15
189 248 224
37 1 51
148 211 108
22 107 33
144 113 191
60 115 29
77 254 241
232 145 25
78 230 114
97 22 114
197 188 173
147 4 6
32 177 176
171 217 64
104 66 160
114 49 9
8 177 117
162 253 141
239 3 177
234 249 230
253 118 239
60 161 73
129 131 185
130 123 14
125 119 136
239 47 221
132 53 81
141 92 148
211 113 80
3 147 71
214 14 20
49 168 204
103 67 172
231 70 109
21 156 224
219 72 177
194 29 199
189 180 173
134 218 246
80 27 132
212 30 221
87 181 160
232 143 36
185 156 140
152 29 157
111 127 180
157 55 184
48 138 145
201 85 12
168 205 149
244 95 14
162 196 148
51 63 154
19 27 59
55 188 74
109 132 124
61 183 60
83 213 38
194 87 196
133 72 112
84 201 64
103 129 126
116 53 19
49 96 208
225 221 168
254 188 26
208 213 39
236 225 126
231 102 206
110 29 208
184 148 235
229 149 44
98 206 180
198 203 2
206 132 50
20 73 88
118 72 166
60 216 212
206 192 84
84 145 109
20 213 137
112 57 215
2 209 46
177 27 169
182 250 54
178 73 172
204 226 33
161 6 216
246 147 116
189 26 124
66 81 160
186 131 123
221 203 74
204 70 86
186 89 207
146 13 242
179 168 120
171 140 166
9 239 130
107 107 186
54 199 246
241 166 251
235 119 21
73 219 205
186 22 110
190 255 225
22 115 70
27 80 165
26 107 228
135 29 81
169 81 157
43 141 242
165 216 205
98 136 165
200 125 55
195 42 43
42 141 198
70 128 221
162 201 91
99 157 152
89 26 211
58 30 210
23 80 59
22 73 57
221 129 25
219 220 213
111 122 171
184 243 100
175 196 203
96 75 190
186 22 47
225 116 99
73 33 231
157 86 234
49 245 85
223 38 44
75 45 39
107 232 149
9 240 93
243 63 61
20 150 146
29 70 117
7 158 122
167 238 134
80 136 95
70 229 145
117 166 20
203 30 220
84 55 192
0 92 112
112 53 16
134 109 245
12 242 222
23 64 224
27 15 20
156 84 129
57 4 177
237 31 69
170 147 176
227 215 19
162 13 174
180 7 123
207 61 163
87 114 178
75 51 228
236 142 105
237 66 252
86 7 70
202 141 234
9 41 97
189 52 173
71 43 196
165 225 168
86 241 131
242 167 89
205 109 42
95 224 99
179 117 2
125 77 37
2 18 145
212 33 71
10 117 4
230 119 174
36 101 61
143 167 151
244 19 189
58 69 41
206 180 1
167 2 228
214 43 61
183 54 161
63 8 185
205 71 121
107 33 52
224 115 202
13 144 201
10 75 46
112 227 212
175 247 44
36 168 10
156 171 90
0 178 52
0 50 29
127 47 44
157 101 74
16 189 15
36 154 16
106 233 30
80 152 77
174 20 230
93 137 62
96 42 141
38 65 190
94 166 230
231 178 203
89 109 193
206 86 158
181 146 190
25 241 76
187 11 133
194 179 13
217 226 85
163 68 134
24 179 97
254 211 124
121 187 1
123 193 66
229 216 168
98 135 238
155 138 126
229 73 250
224 185 112
237 54 194
226 6 199
65 182 137
227 152 136
237 240 122
246 191 240
86 97 170
245 65 197
122 29 132
101 20 22
55 104 89
53 68 245
244 86 115
161 239 221
83 67 156
16 89 97
236 155 107
67 40 254
153 111 11
184 139 158
70 208 79
56 17 105
51 39 173
194 76 211
215 199 183
235 83 147
24 221 148
95 115 5
215 116 5
174 120 130
87 88 97
174 120 125
27 148 135
88 219 214
59 70 229
28 77 20
20 181 79
171 255 86
154 7 76
175 228 18
86 178 21
44 153 22
142 182 61
6 56 128
96 166 141
250 45 205
208 207 59
178 137 146
100 74 92
240 204 109
189 32 23
155 103 144
75 78 219
254 244 234
59 182 212
40 166 25
84 22 4
173 209 132
78 67 91
1 31 132
191 70 83
74 170 130
176 227 200
38 144 176
185 247 165
180 91 228
185 68 214
113 102 202
76 4 246
110 226 96
42 249 235
116 246 193
182 91 84
173 81 143
112 44 168
115 50 119
96 188 251
105 253 248
18 203 110
218 79 113
233 188 172
119 197 195
254 93 87
27 85 171
246 155 157
204 37 219
9 36 149
156 230 96
107 93 39
106 113 178
56 204 91
144 220 41
11 69 120
35 12 108
112 121 28
192 157 192
179 128 211
173 117 28
120 36 30
90 17 138
60 221 178
143 220 234
198 237 243
233 65 60
212 204 200
144 108 236
107 142 190
44 34 3
230 176 186
89 1 37
242 162 141
226 181 176
21 137 153
107 56 168
141 67 119
13 118 105
205 39 229
165 227 90
27 121 197
133 152 105
2 237 201
155 37 83
193 177 137
233 101 120
188 185 7
92 110 67
133 62 80
45 24 142
252 192 131
134 89 219
229 142 36
155 104 83
28 138 47
238 72 239
211 169 135
148 85 156
106 165 163
31 99 52
27 91 246
233 160 253
136 63 14
216 91 27
199 160 151
241 226 109
226 250 251
219 123 140
176 143 224
229 224 230
208 136 110
51 239 157
7 104 93
230 58 27
164 175 156
83 60 111
34 216 97
46 31 123
142 46 205
27 197 199
84 85 31
245 142 58
78 25 79
124 243 90
182 13 60
30 20 33
235 99 168
188 20 247
174 221 204
225 0 60
247 25 23
100 148 222
204 154 138
112 222 85
184 145 3
129 133 176
185 199 254
249 244 153
100 116 26
229 240 166
206 235 236
219 194 210
246 26 223
197 219 180
65 24 44
239 236 17
241 6 81
254 151 24
201 235 102
6 188 234
28 253 216
41 76 176
76 76 189
121 25 1
192 152 96
111 209 238
61 44 180
236 112 143
111 128 231
8 68 99
190 12 174
0 83 10
195 2 88
94 58 168
63 113 83
49 209 130
180 145 6
184 181 203
170 25 15
15 197 96
148 57 243
25 6 65
212 229 149
94 185 55
192 75 230
140 29 219
162 59 57
112 69 110
24 12 9
90 166 172
217 186 179
57 121 234
192 68 81
103 96 22
64 71 15
105 66 162
208 68 45
55 37 9
75 253 235
227 197 243
60 101 103
54 231 168
130 137 204
207 111 45
239 63 186
3 136 75
55 87 142
250 126 230
8 182 0
101 219 87
196 235 99
7 195 4
222 18 96
79 57 48
189 118 11
86 238 48
253 2 243
153 229 241
41 137 72
135 69 94
253 42 224
53 62 182
99 46 215
241 11 151
19 74 43
55 149 36
207 181 209
60 222 44
29 192 162
82 175 69
108 186 238
172 153 195
48 241 15
175 209 16
100 229 165
42 128 4
159 83 77
166 80 11
237 155 26
240 208 31
193 237 81
92 1 213
25 85 111
99 27 31
120 92 51
97 216 85
128 221 212
192 103 169
111 206 11
94 17 60
80 2 21
13 239 136
91 59 122
145 207 52
59 242 114
28 249 56
165 172 164
154 20 134
155 57 133
157 156 225
85 251 76
221 104 208
143 34 189
110 186 40
120 46 200
33 84 67
150 128 114
77 118 66
253 169 236
20 246 71
101 134 158
186 82 220
143 209 170
59 0 244
241 73 51
97 181 154
156 44 29
127 134 41
15 85 244
94 20 152
58 45 118
44 109 39
176 180 249
135 138 135
52 251 250
148 4 18
54 47 125
147 33 196
130 63 5
125 43 156
154 128 183
68 58 136
223 184 109
218 142 17
236 111 33
60 192 84
43 212 250
189 158 188
170 61 255
7 112 235
128 102 220
25 77 92
28 95 227
130 203 219
251 5 164
243 49 104
218 13 144
128 226 183
161 232 2
251 38 168
131 186 182
195 42 52
228 153 92
30 234 213
164 209 217
189 27 154
233 162 197
3 206 150
238 219 54
197 141 250
121 105 4
188 125 226
8 250 129
112 211 95
123 223 87
242 209 148
206 66 158
41 126 72
116 153 176
196 47 214
213 164 6
49 65 50
75 40 185
213 201 62
56 245 17
109 255 152
10 32 106
194 47 38
38 137 197
68 117 178
133 193 241
33 32 243
4 141 71
110 252 104
99 6 90
54 200 215
230 164 83
235 168 226
46 200 91
208 151 227
68 147 118
13 252 3
135 238 167
218 227 0
25 31 61
95 40 212
49 92 182
103 102 189
142 160 166
140 144 35
84 230 184
145 23 187
189 179 239
245 217 189
127 70 12
208 125 232
205 117 35
9 204 210
207 187 235
63 234 85
109 222 36
150 223 17
51 57 89
157 137 180
10 4 141
40 1 114
40 170 168
217 252 42
86 245 216
43 175 128
102 79 233
150 240 72
50 203 203
145 13 171
134 135 1
164 51 105
159 107 206
214 35 69
195 197 208
143 115 218
98 159 146
142 136 157
243 90 189
241 161 90
186 22 87
6 193 159
11 50 28
107 123 99
189 15 210
37 138 123
188 104 243
178 18 242
65 94 149
99 4 164
218 98 61
187 69 90
210 97 58
83 94 139
9 141 107
193 238 254
0 204 194
145 61 156
35 216 147
110 114 75
226 112 37
78 171 53
79 142 130
242 80 99
213 129 66
234 29 192
207 60 5
151 242 215
59 5 132
50 247 59
93 133 41
152 108 5
53 111 244
31 121 76
184 174 228
56 4 185
115 231 189
78 28 136
71 187 158
118 37 117
128 76 131
204 191 203
242 2 86
182 87 188
150 62 95
228 78 239
54 93 237
210 25 234
1 0 121
106 88 193
77 105 63
97 99 207
34 121 219
229 157 240
246 44 243
239 85 219
22 222 112
185 118 96
197 131 109
237 188 51
150 113 230
137 127 94
27 241 1
233 147 224
231 193 250
38 181 44
166 118 243
247 235 24
241 205 176
131 65 19
50 131 189
234 154 200
23 128 20
34 183 26
64 195 66
111 42 97
36 45 222
182 206 200
26 51 143
124 171 143
173 180 63
34 120 238
254 205 123
48 186 238
92 38 26
63 240 148
180 244 153
230 88 112
208 12 147
235 171 119
95 252 165
92 122 62
226 122 130
214 236 66
176 111 220
240 156 189
6 141 171
92 10 93
54 11 5
245 209 210
73 167 236
21 88 4
85 92 41
70 190 90
202 69 108
168 47 52
50 189 233
38 234 11
220 246 143
232 129 141
215 137 69
123 23 159
56 76 111
70 232 89
196 151 225
99 201 11
62 240 68
6 250 38
65 230 100
45 235 6
221 183 201
177 177 50
240 222 16
89 12 113
82 196 8
138 53 110
207 193 247
123 201 233
7 87 145
14 69 88
15 93 234
239 124 215
146 245 9
92 185 156
170 3 82
146 215 14
196 203 46
91 90 239
211 216 112
186 17 194
246 141 187
182 151 162
238 86 54
122 144 204
186 65 68
130 25 195
51 76 80
68 161 200
79 213 112
141 74 138
206 65 95
69 3 48
146 72 154
184 13 155
251 83 191
155 2 61
225 187 209
222 3 22
244 205 214
229 247 169
227 182 160
198 109 136
212 154 54
130 170 69
153 243 238
22 236 133
222 72 239
133 149 87
126 116 217
118 178 129
36 59 156
179 55 184
90 9 57
73 122 148
63 136 226
85 210 219
104 195 211
201 233 214
163 243 250
203 242 230
102 64 58
153 153 33
149 124 90
189 197 80
26 0 121
15 134 103
144 140 132
123 187 66
160 80 135
1 28 11
9 227 98
11 134 147
39 63 138
164 245 198
156 0 153
202 40 27
51 62 68
209 230 250
245 128 196
158 128 83
2 140 78
24 11 209
58 131 208
73 187 156
221 0 221
111 135 1
16 197 100
73 233 172
66 176 15
146 4 149
89 233 21
55 16 91
197 184 3
232 65 31
130 103 71
65 158 203
5 36 66
146 119 51
88 134 91
159 27 83
126 136 59
173 32 169
159 109 98
183 143 143
70 26 76
66 76 188
193 207 95
128 251 189
206 75 83
212 19 201
174 70 17
144 63 189
182 67 147
169 122 163
240 138 170
95 173 1
98 106 2
147 82 187
232 31 212
154 70 38
229 214 86
107 8 103
224 95 43
245 47 65
71 174 168
150 83 102
75 42 79
215 237 188
16 63 29
53 220 19
141 70 58
35 185 93
242 54 150
138 99 211
160 228 134
217 50 177
79 150 153
202 162 47
222 202 190
198 111 105
189 144 233
211 15 65
220 10 31
252 9 12
12 204 198
230 218 2
165 84 205
209 42 142
41 5 37
70 195 198
141 176 200
95 251 231
218 88 24
79 144 51
0 233 148
118 44 213
198 27 249
11 254 175
244 152 4
229 85 203
75 10 147
67 59 101
133 227 203
242 34 121
21 218 129
59 15 45
17 161 79
215 110 25
36 145 64
146 147 215
55 117 229
95 88 211
65 139 17
9 210 51
3 225 27
23 165 124
175 26 32
28 29 10
159 73 209
19 193 199
153 69 186
60 74 190
168 106 217
173 175 118
32 34 44
230 163 160
112 123 173
238 136 242
156 178 242
237 144 134
43 172 210
171 95 193
83 157 3
0 225 31
42 159 119
152 23 62
159 213 209
255 114 48
67 28 107
144 254 32
134 52 249
231 131 110
162 82 232
235 10 29
247 115 13
216 175 231
141 222 112
182 106 134
92 81 188
110 203 141
239 155 215
11 219 0
191 68 27
150 218 130
72 149 145
210 156 55
43 91 199
58 3 86
232 156 53
211 150 214
128 173 171
179 119 201
225 7 173
242 33 160
218 104 49
148 72 194
242 216 18
188 91 97
176 248 222
172 18 8
198 131 103
230 85 130
126 185 118
240 195 2
209 60 45
22 4 31
17 112 184
2 172 197
48 142 157
95 194 176
240 152 61
214 111 57
133 47 199
15 215 244
143 175 52
254 194 182
41 241 224
155 89 189
157 141 136
153 37 2
87 87 57
120 31 24
135 37 121
200 241 47
223 40 45
157 60 155
192 143 25
248 26 2
89 157 173
175 80 171
153 41 80
191 86 43
250 249 81
98 132 72
192 150 94
23 93 101
200 178 166
140 67 145
245 238 161
102 117 180
129 96 111
22 206 0
85 140 37
44 228 186
197 128 64
182 217 46
177 235 30
109 72 87
214 208 210
250 164 224
44 145 129
114 82 97
205 238 192
201 252 138
163 77 92
172 51 160
218 159 36
220 78 102
122 84 110
237 100 16
199 114 204
61 225 225
231 111 217
119 64 14
168 68 115
50 131 140
254 245 3
206 111 206
161 31 125
220 23 134
86 127 92
54 239 210
219 74 151
208 195 28
21 199 176
149 137 240
15 171 227
245 236 198
61 240 216
169 24 192
159 22 230
65 85 155
217 83 118
193 200 7
86 32 183
99 88 124
46 205 56
186 8 151
243 154 196
217 65 169
147 103 25
198 39 243
100 174 68
230 35 52
218 97 224
255 47 137
193 140 168
165 175 218
225 42 225
177 161 225
235 17 53
45 94 254
107 17 148
61 85 55
168 175 202
215 9 209
215 129 194
141 47 64
121 50 92
148 55 241
154 107 71
2 79 226
99 21 217
29 85 154
41 32 180
115 83 16
217 109 127
138 58 96
5 107 104
199 117 168
117 24 74
68 112 83
150 147 94
151 230 220
218 159 162
252 21 146
87 181 8
85 104 125
233 3 22
214 170 53
171 63 93
113 98 121
143 212 2
153 31 233
128 185 253
47 126 238
95 19 195
153 124 83
78 2 226
209 115 68
70 182 179
67 85 126
169 249 142
200 154 235
62 15 19
62 130 140
245 73 11
128 122 167
62 250 173
196 191 99
107 222 141
236 123 36
237 181 160
70 70 93
167 111 89
49 134 167
167 231 7
145 105 102
164 198 105
50 10 134
195 66 177
177 117 188
195 29 212
64 201 229
204 30 208
30 177 188
209 97 152
224 228 141
114 182 112
217 206 177
83 206 77
40 83 162
125 220 169
220 56 210
153 91 184
13 184 205
77 76 119
86 199 83
218 6 141
128 53 126
178 106 144
142 120 134
199 43 77
191 175 233
211 121 32
58 207 214
21 9 58
21 68 39
129 1 61
85 27 146
40 56 194
121 115 146
139 32 108
68 0 8
240 197 6
85 51 80
75 168 120
134 62 231
239 151 234
24 187 255
209 162 176
123 55 92
234 163 28
51 146 249
64 113 162
37 107 135
91 4 47
157 155 95
202 214 140
200 139 8
51 100 203
190 92 102
33 147 3
77 136 232
31 114 88
143 54 134
96 200 186
205 165 161
126 1 28
76 50 86
129 235 227
188 110 122
44 163 135
80 168 214
172 235 176
71 73 72
86 104 217
77 79 81
163 161 138
232 223 176
221 159 250
132 22 113
111 87 125
62 252 114
14 113 180
181 5 200
103 128 237
84 209 149
199 163 129
158 0 113
135 13 156
144 56 101
79 56 169
0 138 82
100 242 46
239 142 248
231 152 248
209 187 242
120 111 117
55 84 182
44 86 16
122 129 171
77 113 21
41 34 27
60 241 31
129 98 70
228 233 0
209 130 175
22 161 173
62 183 173
182 114 204
156 73 154
97 13 202
164 31 29
19 56 35
112 242 208
50 174 100
220 113 91
105 152 189
166 176 241
206 7 198
82 182 220
31 139 130
135 162 150
172 91 113
227 93 180
177 106 208
110 88 165
83 204 8
224 239 128
250 43 137
174 1 108
227 107 206
188 143 43
130 191 202
23 147 0
195 76 253
162 242 149
32 96 232
122 153 54
158 185 231
228 129 95
71 244 73
37 204 15
64 204 64
203 152 48
47 5 9
42 248 158
111 220 124
172 106 168
12 198 250
217 112 164
57 95 80
119 53 11
67 35 30
214 19 253
0 223 17
187 23 1
22 176 249
190 240 26
160 44 140
236 104 177
255 138 212
251 32 152
222 255 128
101 207 105
229 32 26
10 206 140
16 168 202
64 132 103
137 152 132
229 148 7
99 119 121
190 179 54
11 57 124
200 65 131
195 15 33
85 61 50
5 20 189
96 196 137
160 97 156
198 174 70
54 181 251
71 41 43
197 162 222
206 244 8
73 103 239
97 185 49
165 243 54
149 83 15
60 178 100
193 55 208
214 255 112
101 139 219
98 13 124
7 162 185
22 42 193
53 170 114
97 97 51
226 199 251
134 64 101
43 151 196
197 113 120
5 235 76
104 239 253
180 56 224
187 230 177
79 196 70
123 60 104
19 203 61
222 249 205
98 12 42
6 194 148
164 10 54
143 72 198
71 175 142
94 109 125
134 100 19
81 220 98
117 209 228
118 19 66
65 196 94
85 56 62
61 194 186
157 246 131
137 219 183
104 67 163
166 175 153
104 248 186
178 62 17
172 170 103
32 216 240
88 102 114
136 209 159
101 164 166
191 3 122
94 82 75
228 163 43
152 219 233
149 96 92
156 104 226
37 70 99
85 99 252
197 83 9
124 111 144
250 226 30
40 130 83
241 47 165
157 134 201
207 231 160
107 90 34
155 230 175
24 248 238
228 44 42
40 150 37
127 68 6
113 243 34
217 208 102
254 212 106
34 79 247
208 73 195
161 104 48
120 1 181
1 132 53
167 48 73
105 120 38
159 251 16
226 43 60
65 186 63
43 202 28
130 60 102
2 109 118
92 27 171
34 193 97
101 189 164
98 233 44
252 172 124
55 16 67
39 40 127
160 248 165
91 10 206
194 42 99
248 34 103
8 57 152
77 23 12
18 0 210
126 34 186
237 146 76
49 56 217
105 145 14
96 174 254
60 50 141
121 122 105
150 254 166
193 122 121
143 90 15
35 52 177
63 107 248
214 222 135
40 187 152
68 209 150
209 202 246
52 105 167
148 23 229
147 156 137
205 180 23
24 241 174
102 58 205
31 123 195
127 67 93
166 18 54
13 28 31
150 152 247
57 221 208
24 179 233
195 113 105
201 238 127
206 235 140
13 30 94
69 167 244
218 109 84
231 138 134
213 90 131
196 21 163
53 13 55
206 90 214
11 14 26
203 30 166
239 125 249
29 153 45
35 6 112
146 30 159
116 82 10
82 180 163
32 101 175
186 48 225
152 136 208
104 225 139
43 89 228
251 245 218
184 113 50
61 97 22
7 241 141
158 38 197
136 175 99
245 59 194
41 55 90
189 207 210
37 68 224
157 45 68
203 192 32
72 53 249
201 117 39
162 121 80
236 48 95
189 161 154
169 131 239
211 92 94
63 25 83
103 236 16
97 181 230
118 30 132
23 34 232
228 70 214
243 43 216
183 46 116
187 116 68
113 9 227
214 225 249
54 39 96
129 175 152
143 246 212
51 207 233
248 200 225
214 39 111
96 42 159
111 105 253
213 191 87
137 41 120
119 207 207
84 164 124
245 250 81
156 152 199
153 82 104
201 118 181
156 253 87
172 24 63
200 236 76
153 147 137
82 65 75
207 235 141
65 8 198
165 45 35
222 170 186
108 36 156
148 191 142
5 148 37
88 52 105
234 207 202
138 192 2
16 143 168
74 240 144
158 132 86
68 112 58
229 10 210
160 189 227
69 239 197
231 28 219
254 192 58
249 206 101
0 26 251
237 103 117
14 86 250
170 178 154
62 4 252
138 226 132
85 68 231
44 96 12
134 224 249
54 43 115
63 0 206
39 140 5
238 128 127
191 212 109
163 113 30
33 81 87
54 246 23
213 174 121
231 217 46
118 37 177
254 4 7
14 101 173
116 49 136
103 116 16
10 155 81
159 4 92
143 36 234
28 150 136
235 135 35
230 52 140
27 41 15
165 13 99
228 138 120
137 246 156
242 86 3
211 21 169
242 180 185
170 75 154
182 47 97
30 242 252
161 29 213
169 214 253
139 25 206
80 116 236
247 123 251
161 11 90
100 58 220
169 201 115
60 243 207
15 45 253
254 183 225
8 242 217
221 196 140
153 75 32
20 209 138
133 26 128
165 76 117
41 220 27
42 55 117
68 18 141
253 22 90
0 157 222
207 49 32
120 37 154
131 59 166
179 82 233
131 77 121
78 51 32
34 191 104
120 97 251
2 84 156
30 141 117
207 28 63
134 133 1
161 143 255
130 194 178
212 125 175
236 2 156
6 242 116
99 103 219
192 158 236
119 190 174
136 244 217
23 172 83
226 76 95
78 131 210
249 57 199
86 224 17
99 209 72
51 249 24
19 243 96
63 7 37
93 47 233
34 215 173
129 11 159
117 40 45
151 232 69
187 242 31
19 230 162
66 209 126
124 0 79
106 93 178
176 117 94
67 111 242
193 87 170
248 21 51
206 223 86
205 24 191
2 21 105
89 19 36
64 116 232
106 171 210
156 239 81
98 92 49
187 171 250
169 119 129
8 60 107
180 104 30
173 97 235
42 8 151
170 216 134
69 145 44
79 124 121
179 150 7
61 147 110
106 30 124
175 233 177
54 42 207
207 135 28
199 129 79
163 184 49
119 132 142
43 11 220
165 3 249
200 184 206
12 247 30
242 92 125
53 91 207
15 108 138
158 38 196
224 174 86
220 121 183
67 228 39
64 130 159
236 212 202
91 37 234
127 186 93
64 115 207
76 47 159
160 137 2
144 111 36
207 202 153
32 60 211
101 130 107
187 141 225
83 32 178
245 239 192
92 62 219
138 156 87
75 136 23
19 39 203
150 65 14
94 169 112
170 160 19
119 53 14
4 243 75
123 218 113
6 5 23
44 5 107
162 76 171
158 63 170
111 36 159
126 21 74
211 96 164
113 43 52
92 85 235
138 213 146
18 150 46
26 241 107
69 179 246
12 193 142
242 179 80
170 220 148
9 133 54
179 126 17
239 173 191
222 87 217
141 4 146
187 72 11
169 174 109
55 28 176
138 224 44
250 134 158
174 119 109
201 248 219
86 32 238
1 172 207
127 74 156
145 246 62
112 31 4
236 156 224
206 44 223
177 241 29
83 27 182
70 27 161
83 35 104
140 26 8
22 117 71
251 16 237
136 108 230
228 239 16
109 252 122
214 98 127
40 31 169
48 234 96
140 250 66
59 119 161
24 110 207
129 32 221
138 199 79
209 12 49
194 34 63
53 188 235
190 205 59
28 21 232
126 116 241
198 193 220
65 195 227
208 162 118
58 225 215
83 68 9
80 246 164
243 165 127
186 181 102
189 123 115
129 113 105
169 208 252
189 239 16
43 106 230
134 241 54
221 22 6
185 144 67
255 172 213
171 47 59
43 156 74
86 101 2
236 21 160
39 179 206
79 129 4
5 18 151
165 238 77
2 53 181
142 123 181
100 131 157
213 122 74
199 149 232
181 60 19
244 245 233
139 60 9
255 133 90
66 148 36
112 110 78
213 116 5
164 77 4
42 172 208
55 26 216
147 155 114
235 8 90
38 59 139
217 230 64
182 90 119
147 72 88
192 47 167
204 143 254
192 27 1
254 225 73
186 92 146
134 236 126
129 254 107
126 254 170
42 55 162
249 202 158
94 168 25
44 250 29
26 176 238
61 72 48
249 69 107
105 132 18
147 219 146
92 7 113
11 255 57
70 96 226
228 162 111
89 227 202
72 211 21
60 106 163
239 161 159
55 6 155
4 2 246
90 151 247
96 145 144
1 35 150
188 154 87
82 118 81
14 169 128
172 174 9
102 215 242
97 139 142
99 99 190
19 97 104
34 19 24
225 182 167
200 165 104
214 190 113
249 250 215
155 149 206
129 101 111
149 22 82
74 116 69
203 210 166
143 216 13
244 126 165
73 28 179
243 255 48
145 227 44
31 176 148
105 164 156
159 219 126
72 137 66
210 54 224
103 54 218
117 213 223
199 207 239
208 2 5
203 192 173
14 115 173
204 245 66
38 168 120
200 52 201
106 206 223
177 61 137
206 220 20
217 143 3
110 134 242
237 45 106
233 19 232
3 182 1
170 239 171
234 65 123
103 120 19
178 182 153
129 111 125
179 104 56
30 11 22
111 195 163
186 120 193
207 102 252
141 38 172
169 198 153
154 163 11
223 216 87
26 17 48
242 225 187
49 221 201
156 15 249
193 36 49
222 57 201
50 82 63
59 38 45
73 0 179
91 38 77
245 243 167
22 141 116
113 149 59
109 142 205
74 130 64
29 18 155
174 87 144
42 126 114
103 142 85
196 60 65
190 87 120
163 84 170
25 50 254
223 172 247
136 107 47
21 152 203
223 208 222
101 132 70
88 160 158
9 0 31
179 29 234
47 53 194
35 204 151
244 111 203
122 69 36
60 200 22
188 182 76
166 146 66
100 78 102
231 94 122
82 142 44
112 207 225
82 91 243
165 140 201
183 82 129
65 70 24
251 7 236
28 118 20
189 193 170
57 242 255
76 165 99
169 141 18
237 221 225
89 79 251
72 209 10
135 7 83
10 241 7
157 37 187
35 169 57
58 193 89
74 208 163
120 228 243
224 143 132
59 218 162
248 140 195
233 118 169
233 162 156
103 228 162
109 25 95
204 117 78
5 68 32
35 228 180
67 53 71
65 169 55
219 63 137
27 153 120
120 201 200
159 141 85
171 189 116
47 114 21
108 69 141
237 145 26
67 142 136
164 185 216
219 161 134
60 199 31
215 135 202
146 34 208
219 70 81
101 135 7
136 212 50
155 244 103
247 115 152
103 22 111
205 248 106
126 38 226
22 102 9
26 171 241
99 202 191
231 59 2
1 194 114
170 221 245
108 247 51
186 234 39
127 79 227
54 79 90
177 22 134
130 230 222
75 54 225
93 81 100
115 111 127
41 200 77
238 162 25
65 52 145
34 208 78
125 50 222
124 123 246
141 129 245
220 68 13
226 210 163
33 162 95
9 217 184
190 51 37
79 135 162
77 68 159
41 243 143
125 40 228
229 164 239
127 247 3
84 165 21
217 67 161
3 2 90
154 99 19
225 131 189
40 34 133
234 31 10
71 29 219
216 228 205
143 200 200
157 74 150
65 45 198
137 224 229
200 91 211
113 200 25
163 26 145
55 181 183
186 208 170
55 154 44
236 103 139
120 131 38
27 189 172
133 102 215
116 6 111
124 215 8
80 14 220
250 118 31
242 205 58
142 161 224
235 72 54
103 148 203
14 16 187
154 23 159
17 95 221
41 25 156
139 22 115
242 252 243
37 2 73
62 14 105
44 189 235
207 78 151
89 53 250
8 219 79
102 7 15
19 137 249
215 188 38
105 68 112
120 48 159
137 66 207
85 195 77
34 98 47
240 212 144
31 215 67
40 119 102
212 36 93
198 126 175
96 110 116
47 238 210
157 170 1
242 162 103
66 174 253
7 107 149
87 35 162
240 39 25
58 182 242
131 157 135
8 155 172
140 147 111
36 147 59
58 88 91
65 51 54
56 85 240
46 204 184
10 250 60
63 124 151
165 208 209
141 2 172
114 8 34
57 170 212
28 69 79
66 58 70
64 48 96
192 147 147
207 77 97
202 2 51
134 68 214
50 247 67
183 31 159
16 1 73
191 143 62
126 171 23
242 31 24
188 54 2
127 126 208
254 103 164
80 120 18
131 244 182
151 13 187
246 26 157
45 48 84
87 10 232
78 53 192
25 11 206
248 24 134
39 111 24
167 165 194
229 42 142
230 76 88
149 219 33
181 171 51
174 236 85
175 228 189
8 230 148
92 243 211
17 48 59
181 81 242
110 24 252
162 120 45
65 101 100
168 75 231
104 15 175
170 170 85
47 251 250
37 75 197
106 126 63
151 107 232
58 52 228
135 79 243
201 159 97
33 92 22
227 10 254
133 70 219
175 26 47
151 126 156
137 200 108
53 181 239
220 103 215
193 244 208
64 126 14
214 87 232
194 151 103
47 63 17
93 17 9
114 99 73
218 70 71
231 241 63
99 222 149
220 31 108
178 99 107
111 227 184
98 20 110
224 119 228
82 158 38
216 240 136
125 230 53
163 66 46
145 157 249
37 105 215
92 2 206
204 254 230
196 204 129
3 69 227
222 14 82
36 229 66
144 62 242
109 174 34
89 70 44
167 79 210
165 124 183
194 18 193
199 219 180
95 181 235
103 44 201
235 216 104
22 177 202
147 163 67
73 97 92
188 243 1
103 232 15
223 146 163
19 162 37
146 84 249
65 141 113
1 28 99
138 195 126
181 206 149
118 144 123
141 82 29
118 155 66
254 3 209
156 135 56
192 30 231
157 53 2
209 101 160
183 3 205
95 183 167
88 38 219
171 142 142
25 58 167
190 172 147
61 199 153
151 125 79
175 202 183
215 21 78
211 153 146
167 3 92
51 237 45
154 249 107
70 51 203
155 116 144
93 86 236
79 148 128
91 23 9
4 44 162
188 204 5
166 190 10
118 204 91
123 19 240
79 61 20
82 150 104
110 209 104
253 223 125
8 224 44
202 14 120
49 41 172
211 25 95
202 161 152
75 42 114
72 129 225
65 221 194
82 94 52
36 24 175
37 225 166
119 157 97
36 159 162
196 216 225
86 107 56
236 65 34
236 210 71
206 160 82
136 123 228
47 189 21
248 176 19
129 232 74
23 143 234
39 29 205
221 212 52
21 92 13
76 224 52
82 208 73
102 250 77
134 0 104
86 67 1
196 91 109
186 130 48
87 182 205
70 224 100
54 180 29
80 242 185
253 121 117
228 167 12
115 240 140
198 205 23
254 74 123
169 247 108
84 172 37
175 234 32
99 71 217
186 113 93
164 173 184
109 115 180
151 72 65
111 211 236
27 77 75
136 187 235
62 32 57
0 182 139
229 216 127
87 88 55
161 56 247
110 204 254
72 136 131
148 136 118
153 200 244
133 136 102
205 36 131
7 68 55
16 121 84
17 184 112
189 67 227
184 149 208
205 144 153
44 122 208
136 183 86
215 135 96
125 59 49
164 238 84
217 104 244
174 75 198
183 249 124
30 237 31
232 97 148
199 96 16
83 10 112
210 154 139
93 221 2
222 46 177
17 97 216
25 86 57
169 196 66
199 212 148
125 241 64
142 76 45
236 12 94
255 151 70
57 180 33
77 191 131
153 45 242
54 182 102
174 170 214
192 55 29
241 216 155
15 117 55
104 138 122
19 64 188
19 222 134
193 12 120
231 49 5
254 83 80
21 56 206
250 44 132
155 35 89
127 68 188
254 149 180
162 228 232
198 209 183
224 250 117
123 198 150
246 31 222
111 158 198
61 89 207
4 146 119
1 103 60
243 91 63
133 125 219
3 138 24
223 3 23
112 214 47
22 219 73
102 232 252
134 87 60
78 52 39
141 186 38
209 190 245
122 215 17
83 246 154
149 179 64
149 95 121
100 197 156
237 157 88
133 67 93
206 139 32
98 179 116
239 165 104
175 137 208
156 158 177
189 151 243
93 109 99
206 243 91
158 86 103
207 209 13
162 73 153
165 82 76
25 224 197
135 156 21
44 64 6
159 168 134
165 214 70
122 248 96
12 208 61
11 208 91
172 206 85
125 23 15
164 94 25
160 195 86
123 213 66
44 186 209
6 212 174
160 48 51
23 222 89
16 88 194
140 140 102
80 56 14
7 154 93
53 46 1
107 244 248
0 27 12
30 4 144
188 19 41
213 4 37
133 185 161
237 45 147
176 52 226
126 138 181
135 158 160
196 38 12
125 161 138
182 48 60
24 56 178
115 158 211
14 1 69
145 112 49
156 200 50
56 100 192
236 33 22
30 21 226
186 180 184
53 46 240
154 243 21
232 218 189
194 80 26
139 82 110
76 143 174
210 45 222
87 208 128
202 140 235
176 62 228
193 127 106
28 216 24
192 14 253
176 204 149
8 10 96
118 111 48
221 154 253
37 132 170
27 29 108
14 182 168
214 20 255
184 67 34
216 80 19
102 67 13
79 189 128
152 163 94
158 138 159
228 50 181
119 73 208
59 121 217
38 118 54
131 83 24
130 252 82
207 242 208
140 5 53
172 58 102
183 188 215
232 76 235
116 234 241
115 186 123
164 194 210
75 5 237
253 129 194
182 234 200
203 70 57
49 68 25
253 85 73
248 55 187
22 5 207
230 180 95
211 58 218
229 90 42
89 136 87
171 169 171
106 59 140
228 3 71
208 32 52
54 142 176
65 131 122
61 233 128
181 114 238
118 78 251
52 2 213
250 77 247
22 169 123
216 70 98
1 210 59
179 57 210
129 59 238
104 245 88
197 253 156
210 127 175
153 171 205
75 9 238
156 105 230
215 105 54
129 29 233
102 168 212
11 219 87
88 153 22
90 255 19
81 225 56
18 147 178
77 186 116
147 50 147
166 130 101
197 56 172
243 46 98
120 1 208
44 5 24
172 111 143
213 68 152
93 103 42
69 88 236
211 156 61
197 77 94
33 223 83
28 31 139
23 125 228
92 204 140
164 34 43
164 166 41
132 128 51
172 22 82
156 129 10
114 16 44
74 201 91
61 22 220
233 157 243
255 56 183
251 84 98
219 39 165
165 209 193
114 161 252
78 161 34
162 3 181
56 175 247
52 140 113
175 53 127
99 244 41
28 60 46
192 204 128
255 132 13
166 135 24
69 127 245
166 43 167
23 70 34
4 202 102
145 48 32
140 116 164
199 249 68
108 88 67
216 134 115
43 140 249
229 31 174
83 131 36
45 188 98
151 199 143
176 204 66
170 44 246
43 53 251
19 41 36
219 26 220
130 23 192
52 207 174
248 95 56
144 62 133
68 216 1
59 215 81
107 62 93
208 216 115
76 114 124
209 2 160
47 102 96
17 209 143
161 66 160
29 169 37
128 113 30
76 33 86
16 154 255
109 100 55
90 24 96
132 48 119
44 55 88
101 242 249
245 57 65
18 211 135
199 72 36
84 13 2
102 73 192
230 37 40
248 20 102
103 236 201
200 92 58
166 206 233
191 10 163
254 151 102
3 24 108
133 31 147
81 182 129
214 117 0
115 79 223
243 209 203
16 156 220
39 226 33
19 186 90
4 96 150
222 29 98
70 154 14
75 202 58
210 205 195
99 143 45
242 59 19
90 203 50
240 158 118
184 9 23
55 197 170
255 45 115
74 4 148
65 171 173
130 156 208
131 132 74
129 109 244
31 76 125
169 19 191
18 64 174
13 120 28
117 123 173
138 162 79
208 108 42
65 100 212
81 250 7
80 44 140
196 240 249
198 16 64
24 54 191
15 94 79
239 69 190
209 172 185
1 227 123
77 8 73
39 37 253
125 193 221
221 100 219
230 139 65
109 65 175
216 234 71
141 150 246
223 176 216
140 217 234
93 81 120
189 158 20
48 240 207
146 220 165
198 32 113
214 30 99
177 111 243
19 47 67
140 64 118
2 78 49
18 33 31
181 9 4
238 70 53
99 95 140
88 31 251
31 238 111
78 183 152
98 7 25
70 1 198
160 205 220
219 58 161
135 238 120
114 112 234
18 89 70
247 150 131
38 197 7
142 226 61
233 28 125
208 106 223
241 114 179
78 174 119
185 58 74
82 187 163
176 240 19
180 213 37
218 136 138
230 253 54
203 161 5
11 173 174
4 19 182
19 15 10
168 88 104
218 246 132
173 104 122
244 250 32
63 219 188
28 104 175
210 212 30
71 73 157
104 172 18
161 5 26
71 92 23
231 62 177
80 255 40
176 190 202
215 163 5
254 248 37
203 125 115
223 219 216
40 17 27
130 183 89
34 97 187
179 207 248
143 162 255
38 105 87
13 54 44
65 86 20
198 253 216
230 136 228
104 80 8
242 205 115
13 209 93
173 146 63
188 100 166
156 48 239
228 254 216
117 100 139
9 191 166
50 183 73
233 4 12
166 39 19
81 70 1
143 30 59
225 147 59
60 71 194
133 159 25
205 225 195
205 204 243
213 203 86
217 244 155
178 235 86
49 182 51
87 142 42
87 118 152
91 190 133
246 232 53
28 187 66
185 217 219
141 225 59
115 103 213
97 192 179
182 109 105
75 160 21
114 117 119
190 17 209
226 84 29
220 29 197
240 2 144
32 124 97
33 249 104
121 91 215
224 100 138
247 142 8
133 124 179
198 238 40
130 122 146
143 116 5
203 168 132
36 118 70
212 79 135
180 9 2
176 67 216
118 63 252
102 185 177
75 40 43
107 135 21
96 118 107
94 27 242
223 158 192
12 220 60
136 11 45
39 254 69
135 210 135
190 20 224
249 184 213
121 227 127
52 114 184
3 64 51
7 112 165
47 234 164
212 121 53
171 100 88
115 146 126
136 152 154
165 115 97
226 71 32
107 10 106
11 153 101
77 107 183
197 237 10
72 96 162
204 82 239
225 101 90
246 29 156
121 254 94
192 0 171
198 80 90
54 162 170
16 78 158
187 96 228
205 55 20
109 249 101
95 103 5
78 209 203
161 237 150
53 54 163
102 162 12
34 131 169
77 201 171
96 95 206
47 227 85
116 201 141
20 202 35
47 20 253
215 87 165
195 202 144
201 102 13
126 111 115
27 58 228
21 106 194
0 13 139
253 53 70
177 250 221
215 73 46
169 33 252
94 171 238
171 97 20
195 222 14
136 226 97
181 53 75
231 138 201
177 101 45
232 138 193
13 170 216
235 185 23
124 51 201
238 134 217
59 115 162
126 74 74
32 150 79
75 55 43
172 41 26
155 249 150
55 16 210
39 2 207
169 30 85
40 137 172
28 191 118
44 168 165
146 197 0
219 83 186
25 18 88
32 109 149
237 25 127
120 35 40
3 193 154
25 45 188
217 228 96
71 2 30
146 54 138
202 67 27
23 249 187
41 14 136
249 107 70
73 140 106
200 194 43
56 133 88
213 167 13
86 252 105
168 194 104
42 241 167
21 25 80
9 111 168
179 85 119
86 220 166
41 232 61
223 197 102
113 39 227
8 244 237
36 63 164
1 36 254
203 234 239
7 115 98
1 16 97
130 167 57
243 224 113
165 11 224
162 25 209
229 11 44
221 238 69
116 201 5
165 230 223
41 109 153
255 41 90
113 193 21
186 43 88
255 231 125
62 137 28
242 151 37
187 61 113
64 4 131
49 229 125
5 237 233
251 29 223
100 26 249
49 0 80
159 50 200
135 22 193
130 12 64
134 129 151
25 162 2
3 75 209
78 129 5
206 244 92
157 32 222
101 237 156
248 252 171
131 207 30
161 236 173
103 184 136
250 83 118
229 153 1
38 53 158
180 37 30
165 38 93
52 217 226
11 208 183
17 166 185
207 179 210
76 26 46
231 163 61
9 55 85
201 20 202
155 250 164
123 252 29
171 199 122
135 197 212
8 166 172
199 185 248
189 180 97
182 132 7
183 140 206
6 208 253
160 212 179
150 107 21
121 248 118
107 170 156
10 48 120
247 167 117
62 151 21
174 208 113
90 0 86
128 81 176
91 116 254
129 105 14
148 147 1
70 90 147
61 208 156
54 39 65
212 41 98
172 122 166
137 65 63
49 72 119
207 150 72
100 123 45
236 34 143
100 176 217
5 7 22
32 0 63
220 219 101
238 81 160
91 36 2
6 116 197
92 22 6
163 170 135
12 227 192
176 16 143
205 21 229
234 82 85
213 118 26
101 34 143
101 1 228
7 235 231
182 46 61
34 129 51
123 146 135
158 35 175
117 212 1
68 86 106
6 221 253
157 56 131
91 163 198
0 199 252
204 3 118
88 81 233
233 85 156
150 85 147
200 102 146
167 148 152
159 109 73
232 22 165
169 20 26
89 15 158
8 147 176
170 141 193
184 14 169
23 69 174
167 244 65
215 34 25
29 135 253
91 23 125
133 155 236
30 214 137
187 23 252
175 183 200
186 133 75
83 237 176
225 15 205
118 201 99
172 190 126
88 150 90
230 137 9
175 100 89
63 246 29
239 80 59
166 165 239
230 114 90
4 159 181
91 163 9
254 127 38
19 22 56
16 134 155
197 100 33
244 251 120
196 130 31
107 163 189
139 97 150
254 255 207
117 149 15
206 57 179
168 61 242
226 184 36
237 89 117
68 224 148
164 253 222
126 49 52
98 216 63
29 214 36
174 45 45
120 10 94
249 102 66
252 22 49
198 52 189
175 74 172
53 3 223
134 255 9
30 126 180
193 194 121
249 210 91
246 199 31
235 140 87
157 13 26
233 59 50
70 214 221
179 25 173
191 109 68
25 114 178
201 25 138
241 139 133
229 216 164
173 86 211
98 19 247
95 91 216
45 88 126
167 167 193
158 172 244
136 201 187
61 157 117
88 23 182
95 135 164
34 246 189
178 77 189
253 195 173
82 83 144
94 71 86
36 80 45
70 19 86
39 138 35
167 4 40
221 127 170
25 141 242
244 37 46
38 140 99
14 132 14
132 127 63
95 67 73
109 246 141
107 36 106
65 170 116
11 144 238
179 216 69
218 47 16
170 172 89
44 251 231
132 65 118
222 161 214
91 98 205
212 255 142
96 146 149
204 130 230
226 39 170
82 126 70
107 29 162
242 160 117
51 228 90
188 129 106
170 179 51
70 104 122
158 38 119
178 69 93
62 133 69
188 80 233
234 150 114
119 15 126
33 10 121
25 91 247
213 216 228
62 1 127
95 214 76
109 28 73
141 216 26
98 32 181
215 240 169
190 152 185
125 134 211
93 232 176
188 39 51
48 156 122
177 77 91
65 152 208
102 180 83
200 141 158
4 90 106
62 161 244
176 108 162
143 22 118
150 211 142
204 47 117
66 119 115
228 112 99
144 155 158
27 132 69
51 247 169
82 123 23
48 154 247
108 70 225
219 57 55
90 49 65
139 157 97
14 166 68
114 194 78
73 111 189
121 217 195
28 65 47
101 55 116
126 97 94
3 232 152
252 86 208
47 111 83
136 51 220
138 91 189
223 94 191
246 168 194
252 203 73
94 105 141
52 10 100
239 164 156
213 27 224
137 111 242
132 105 8
87 58 107
167 2 70
169 225 154
59 153 76
137 151 185
27 42 202
20 95 155
100 4 231
74 153 11
52 22 94
47 8 162
227 67 42
104 146 77
224 239 130
249 75 131
206 87 148
226 99 243
227 231 216
22 211 221
246 101 99
76 92 50
243 222 10
64 221 246
181 215 132
6 54 183
169 168 225
85 242 132
82 86 158
3 135 47
105 90 61
160 185 107
56 101 59
191 158 0
237 203 60
193 179 158
128 11 86
201 66 113
136 124 232
43 223 81
217 47 152
111 254 33
119 229 152
143 155 138
201 235 135
35 222 79
194 167 118
84 249 145
107 172 113
186 103 47
126 218 222
239 153 198
135 246 1
133 4 190
96 240 78
91 246 218
15 121 167
92 233 250
178 187 115
43 76 151
45 80 187
211 22 226
181 252 90
26 109 71
193 113 195
25 15 4
39 107 250
236 63 28
31 1 144
46 68 223
100 165 219
224 123 175
192 48 79
225 191 206
166 56 144
158 224 221
155 32 92
223 199 254
166 68 172
114 157 190
72 179 88
30 173 132
28 98 141
138 155 193
230 242 49
85 157 135
100 115 149
24 91 123
185 252 55
178 108 179
230 117 152
132 89 188
206 114 93
204 150 81
30 187 4
140 223 12
150 164 38
242 17 227
238 222 65
142 196 35
121 18 17
164 142 105
104 129 200
217 67 74
205 5 199
131 119 98
200 17 105
195 107 240
74 41 113
125 225 169
97 149 55
142 85 241
168 227 144
97 0 34
142 157 27
204 249 30
174 229 64
145 44 140
95 175 87
108 110 58
64 133 192
53 133 27
75 141 184
122 203 74
54 1 201
117 30 131
152 32 94
67 192 189
246 254 161
205 74 213
146 5 18
185 171 0
20 59 125
215 185 236
205 11 107
77 52 89
67 250 66
108 166 179
5 216 142
248 198 46
102 29 23
189 166 233
119 79 176
134 239 250
84 252 35
244 169 4
154 3 149
103 202 82
75 69 40
27 247 211
241 15 171
190 203 106
69 40 82
115 242 255
234 163 226
31 189 123
45 134 18
92 74 177
26 77 75
199 171 231
181 79 188
133 121 201
18 246 142
186 94 166
222 84 202
237 121 247
142 156 130
54 96 162
85 26 230
144 25 85
17 157 239
145 115 133
160 227 179
121 32 13
102 7 178
195 53 198
133 127 150
87 172 225
85 89 167
227 149 140
224 208 124
162 104 138
145 208 234
134 36 144
204 233 223
100 178 11
110 243 159
72 204 202
136 49 76
33 27 80
101 71 2
18 37 236
143 118 129
98 239 30
56 251 201
200 217 110
146 222 72
15 53 42
160 150 152
243 98 214
77 119 223
222 228 95
110 218 183
36 68 130
69 41 6
9 159 141
233 69 35
85 98 149
162 62 179
4 189 43
157 221 26
196 34 232
99 137 211
28 45 192
126 16 205
105 154 8
153 152 243
20 41 253
218 173 95
76 160 26
148 53 171
215 111 128
229 205 96
225 200 221
254 225 173
162 163 143
249 28 55
238 18 208
3 188 101
75 241 115
90 56 243
151 8 124
49 215 139
245 149 143
205 110 91
192 198 254
154 250 244
192 13 46
101 105 8
111 122 18
172 15 153
18 63 249
58 156 147
184 8 15
238 15 239
221 7 4
99 58 78
255 127 147
217 120 126
220 207 78
146 160 183
25 239 75
132 62 243
154 213 48
140 104 168
106 93 227
12 149 113
160 153 183
192 206 255
144 215 36
196 255 132
63 135 173
223 248 205
54 225 205
252 40 176
31 158 168
254 82 252
223 65 57
121 28 44
179 54 129
178 233 154
83 160 149
81 49 119
107 46 170
132 53 157
98 226 216
204 91 89
184 80 247
7 120 230
13 149 21
224 78 155
26 156 155
161 176 13
7 247 231
71 207 245
108 146 58
92 138 50
127 78 179
240 55 31
168 249 57
14 129 73
28 96 22
12 98 229
214 37 8
146 117 118
232 215 177
109 138 100
141 90 26
100 205 74
23 132 7
60 35 100
57 89 172
196 244 72
28 162 237
156 205 247
232 234 209
159 12 151
117 68 174
3 26 132
150 80 7
206 241 105
70 141 205
3 61 129
83 139 87
124 212 255
123 206 250
12 245 217
188 198 86
222 129 141
105 189 182
170 102 34
172 161 255
69 100 255
151 217 236
209 195 67
98 25 36
141 101 120
127 17 196
212 62 33
220 135 179
210 166 239
197 63 195
252 235 217
41 153 0
68 177 72
197 203 205
40 218 52
147 128 30
207 144 245
45 78 233
149 237 224
41 233 146
7 231 184
49 78 240
64 180 16
30 24 249
226 50 236
231 9 43
83 29 189
239 4 35
159 26 117
170 216 236
131 24 184
14 120 172
210 169 31
5 19 180
196 247 186
229 192 254
142 149 219
242 86 230
76 143 161
72 82 74
103 13 133
28 188 59
83 198 6
103 36 61
234 249 236
157 173 104
228 169 192
158 131 209
129 56 181
116 127 208
34 236 220
142 173 230
134 99 120
233 47 127
200 233 112
46 198 142
118 228 74
16 128 211
185 222 188
215 150 28
177 110 2
92 97 149
152 224 26
253 176 4
106 224 222
165 237 42
128 4 28
18 103 56
10 224 176
100 206 92
200 16 95
193 237 217
137 189 249
37 128 231
0 155 110
246 82 223
127 203 205
182 213 34
42 86 254
167 100 129
155 58 32
127 235 24
69 30 73
105 73 64
167 4 209
160 251 245
147 253 59
42 208 167
212 192 204
189 59 12
36 195 62
91 36 176
10 102 10
199 81 124
232 222 156
160 111 17
140 99 242
105 190 5
66 178 105
255 119 161
27 219 52
84 44 44
30 6 64
255 194 81
187 183 190
214 57 253
249 53 163
102 178 2
85 128 160
137 69 239
137 242 226
23 138 212
98 166 152
247 73 240
172 77 165
4 140 222
54 95 186
143 12 196
181 122 150
83 107 242
239 235 241
209 68 116
58 187 87
102 11 178
17 216 137
34 58 75
50 200 40
201 55 12
187 69 104
133 144 69
9 107 71
31 194 232
39 102 1
191 16 143
170 113 248
227 122 236
85 152 207
157 205 249
246 168 72
233 49 32
196 177 1
205 83 241
6 223 79
120 177 94
189 42 62
197 108 183
6 6 194
101 145 180
157 164 132
182 57 48
201 38 111
192 62 238
247 73 177
113 49 42
124 148 246
98 31 148
21 134 181
101 139 32
1 143 237
126 240 231
51 175 81
221 208 82
154 246 9
211 170 192
207 231 78
20 95 153
84 50 111
16 252 42
220 189 136
196 103 40
34 55 15
131 7 253
72 85 9
247 57 98
125 66 2
114 185 173
176 224 14
132 83 206
33 236 226
46 201 85
147 187 105
113 158 105
175 218 212
226 83 11
20 34 89
149 6 230
113 115 45
114 21 194
156 237 215
128 57 121
208 7 115
192 135 84
248 23 159
60 217 64
167 216 54
192 195 65
152 236 211
185 31 228
91 12 115
189 47 104
11 230 204
79 193 149
196 33 13
31 201 136
87 243 50
38 217 51
23 216 37
191 151 170
50 96 157
162 124 179
111 160 7
39 18 169
97 175 120
21 75 98
73 30 7
86 6 188
35 244 222
122 131 56
223 119 14
226 153 173
232 62 192
47 137 200
64 172 116
142 152 91
207 236 56
221 198 28
87 112 34
38 113 185
255 213 54
83 90 95
189 136 228
41 135 163
46 19 208
96 134 18
122 89 122
21 122 218
196 231 24
178 77 224
127 79 21
173 26 181
253 133 124
22 27 96
113 199 106
207 76 124
122 72 138
41 53 159
71 121 230
121 92 56
41 78 202
18 5 84
201 222 6
114 244 223
117 85 1
59 231 132
199 75 7
53 205 211
97 105 141
29 32 186
71 28 42
3 100 225
242 76 111
71 65 17
75 122 34
143 156 159
2 94 64
249 171 37
92 51 205
98 75 53
4 17 90
147 141 91
186 157 8
254 128 227
37 20 84
199 93 103
252 255 220
10 109 221
50 18 174
11 179 169
250 94 248
221 111 201
172 27 16
123 81 32
205 181 111
202 191 188
195 26 191
253 102 128
140 245 48
115 180 71
199 6 95
172 43 107
190 242 239
171 181 53
102 168 114
22 176 12
246 168 0
140 53 78
42 105 77
129 199 67
112 212 215
154 105 118
54 60 231
25 132 54
31 199 150
39 108 234
161 113 44
124 127 233
91 248 147
198 254 53
85 151 106
64 208 114
171 240 210
149 22 5
4 173 15
22 46 54
76 23 195
208 43 163
242 22 114
5 54 152
77 59 198
237 229 108
222 247 23
159 253 124
136 112 60
247 21 20
81 252 171
37 255 241
26 232 59
9 120 66
59 58 73
106 99 101
118 30 71
78 36 3
34 11 43
236 147 204
93 235 154
152 79 182
142 38 158
207 211 89
227 140 92
214 239 219
229 54 167
46 87 156
86 16 228
223 34 224
51 199 100
85 199 193
96 136 60
68 201 254
233 43 148
185 233 28
73 207 100
209 151 229
29 207 144
144 100 198
73 140 76
220 103 162
196 82 143
64 89 110
37 242 238
114 207 70
92 48 111
76 242 81
241 177 255
183 226 44
75 150 49
6 74 166
94 45 171
50 144 177
32 85 166
21 62 61
180 186 52
34 218 76
116 41 187
217 5 2
55 247 17
180 21 59
249 209 209
218 213 4
174 127 145
44 207 35
153 16 58
166 183 144
216 113 59
176 95 12
10 7 190
212 89 238
176 30 83
190 199 58
116 143 227
88 45 209
208 182 9
143 23 218
180 64 208
185 186 121
164 121 213
223 226 83
139 158 95
154 250 23
57 197 114
156 4 46
207 227 135
38 202 117
145 239 54
75 188 220
38 156 246
193 197 196
0 43 109
9 210 100
214 83 209
241 17 247
236 198 209
187 50 23
167 193 196
144 27 221
63 4 115
132 96 90
59 187 221
7 100 214
56 156 42
129 6 0
12 179 167
214 146 82
81 82 200
99 11 136
234 18 193
57 107 81
36 138 101
193 222 87
16 1 107
37 103 144
216 212 105
180 136 86
153 171 101
80 82 2
130 98 96
251 205 177
208 18 243
57 199 71
206 95 83
239 52 27
238 66 43
41 158 53
60 155 40
34 135 139
172 82 43
173 20 197
202 158 191
255 98 17
163 88 248
0 115 149
204 251 111
198 94 233
216 20 233
149 159 196
133 226 110
238 130 245
12 162 33
124 181 142
82 219 27
150 199 18
151 22 209
36 9 98
216 169 204
219 28 88
199 1 214
63 32 227
91 170 17
141 128 92
186 119 246
190 24 149
8 221 173
93 125 212
6 85 64
198 183 188
117 254 130
4 152 136
180 214 125
112 152 148
180 165 187
9 254 60
5 187 1
230 89 26
84 109 102
61 172 26
221 47 164
55 20 55
232 99 17
223 35 195
184 142 237
44 192 78
225 17 207
167 80 51
153 124 238
146 82 18
98 11 80
252 254 196
195 190 141
152 175 16
139 215 19
51 206 145
104 16 58
188 249 138
124 223 93
5 60 217
155 208 130
229 107 34
230 189 69
110 181 105
216 234 107
53 67 147
254 105 234
9 186 63
211 72 211
48 57 177
95 164 167
202 73 232
104 185 112
80 183 201
215 129 229
219 212 32
147 19 153
64 93 25
140 142 211
254 16 137
43 17 101
151 76 191
5 72 32
151 220 139
116 54 27
92 213 174
20 67 214
239 140 214
233 112 188
43 254 8
121 158 203
119 115 233
23 63 77
25 214 150
68 110 214
211 149 196
49 208 128
55 194 156
128 216 214
215 56 107
14 232 76
72 196 60
151 243 10
143 52 103
71 19 89
196 126 170
161 146 53
202 140 93
171 209 32
16 16 189
124 87 207
125 88 255
88 171 135
171 38 109
150 191 248
123 10 51
225 20 28
180 58 174
14 42 124
137 134 60
90 223 242
223 132 47
2 120 99
240 109 45
206 47 58
196 65 21
29 151 234
181 105 99
134 210 16
156 150 0
227 43 75
103 187 2
234 120 134
28 181 53
198 170 37
166 100 55
213 125 216
164 227 181
239 16 6
1 178 42
106 52 22
194 100 186
84 46 155
44 45 129
245 148 246
217 158 204
141 81 21
128 89 101
130 232 44
56 51 210
111 156 206
226 138 47
124 130 134
169 157 4
139 240 45
152 169 247
83 109 101
197 59 163
163 54 81
148 112 183
205 197 211
132 42 141
242 119 166
220 126 179
123 172 193
133 188 91
34 185 254
29 13 7
14 96 133
170 1 210
97 11 53
155 236 176
111 181 225
142 88 14
12 98 187
225 170 200
141 54 12
37 238 234
96 99 160
244 175 180
33 237 136
230 24 1
129 231 229
252 86 67
143 52 248
45 166 22
32 24 241
143 89 197
48 135 123
162 217 196
119 101 188
240 126 100
38 0 193
237 211 113
115 84 175
133 127 209
216 34 153
198 43 156
137 74 5
124 33 228
44 10 60
203 118 65
73 220 32
120 212 89
232 75 159
218 134 198
218 57 233
46 170 70
173 81 88
54 18 121
116 142 240
33 192 243
74 180 80
88 163 193
47 254 61
253 190 230
92 77 118
240 98 119
60 170 153
76 104 180
114 8 199
46 114 205
101 212 207
143 0 158
162 98 255
52 125 81
145 248 153
213 79 144
225 163 123
191 17 133
140 116 41
39 6 248
41 187 59
118 9 122
222 150 39
162 248 72
176 244 23
129 92 73
76 115 152
144 234 142
249 225 163
181 223 232
233 169 23
169 55 240
186 169 201
225 242 35
11 236 36
222 37 7
149 65 186
137 68 20
126 245 111
101 62 113
115 23 7
161 23 173
70 231 30
240 229 190
160 170 110
141 189 81
124 186 255
57 193 111
230 179 227
110 206 61
137 95 142
207 90 214
226 177 112
206 24 15
105 98 145
121 69 174
28 5 231
24 136 87
167 236 44
51 242 157
18 92 200
54 92 108
90 37 131
89 30 123
182 38 7
28 164 232
4 165 32
133 89 24
247 165 145
26 144 108
225 153 134
63 44 98
11 195 131
218 27 231
189 239 154
22 100 144
150 9 93
185 106 45
49 184 195
180 83 110
51 201 89
64 101 255
42 248 180
200 44 87
248 122 135
204 121 148
84 172 0
128 73 242
103 97 240
150 202 0
234 107 12
149 161 149
172 47 132
43 239 192
223 216 96
46 113 212
99 57 151
97 203 147
134 144 20
63 59 196
146 61 177
7 94 160
116 87 124
164 234 235
206 127 185
95 58 178
156 188 75
111 117 125
32 186 125
141 94 228
123 79 133
192 250 42
241 226 82
33 158 105
48 69 198
75 76 120
123 31 239
231 67 172
224 9 176
119 49 79
125 190 34
207 115 14
2 248 102
84 211 5
244 251 124
210 156 174
60 23 225
57 122 99
250 50 38
250 89 245
11 114 116
190 166 185
170 100 100
98 221 58
102 130 105
214 29 246
75 218 153
3 18 130
16 142 143
102 87 28
112 255 249
20 89 85
231 46 90
148 209 42
124 244 39
61 168 198
61 214 45
158 152 134
243 219 54
174 115 248
173 163 159
204 234 245
172 100 85
165 56 169
131 101 95
46 49 170
144 206 204
133 206 224
107 114 114
191 141 167
208 143 233
238 63 23
140 163 158
213 253 126
23 171 177
34 47 233
16 165 7
5 26 127
104 73 178
161 88 245
214 64 67
106 227 133
137 33 104
34 144 68
204 79 125
57 128 12
137 211 99
197 132 165
147 38 35
251 103 77
80 42 31
99 76 165
243 85 126
96 84 170
240 174 23
197 228 114
10 145 75
140 9 33
212 168 140
140 88 208
232 182 106
243 13 123
59 14 101
136 26 222
93 227 215
13 253 54
170 48 223
111 69 123
157 45 249
45 124 128
57 146 4
224 113 191
160 213 213
97 167 33
30 187 119
185 221 177
24 21 248
90 20 195
79 137 237
31 106 81
210 167 114
137 143 216
140 188 221
91 36 237
28 236 94
158 187 206
221 41 185
229 42 29
130 13 78
41 228 148
13 214 233
239 248 8
111 174 191
20 242 33
45 18 108
251 182 226
229 155 242
99 179 244
57 147 220
129 204 29
134 59 3
27 79 9
134 127 176
39 240 150
187 146 195
75 32 142
130 227 223
214 122 3
73 34 115
71 241 41
84 114 226
227 67 185
196 54 151
162 54 2
119 248 191
213 46 238
231 20 27
208 71 61
73 152 19
23 181 114
27 80 237
184 71 158
228 76 34
239 59 87
174 58 126
168 28 49
176 227 169
62 44 43
27 98 205
157 234 183
181 120 174
244 91 156
214 24 99
53 83 37
218 99 31
169 58 141
252 252 206
138 127 23
167 81 21
22 90 128
205 131 115
176 68 61
124 166 186
175 167 53
29 23 222
162 220 196
224 60 218
59 253 221
85 74 194
254 163 185
57 152 185
46 130 221
127 172 85
184 45 168
195 229 116
88 19 224
222 17 235
166 105 92
238 135 224
91 132 29
217 96 73
2 93 196
192 83 15
143 237 90
174 239 185
61 228 236
199 194 171
13 57 0
138 46 205
175 164 185
64 214 115
7 28 218
103 169 75
242 179 203
18 17 72
6 166 38
78 5 208
104 143 126
74 121 50
235 4 114
101 20 126
243 88 207
237 120 8
78 108 212
65 168 44
225 188 72
218 65 11
255 188 96
211 72 236
74 73 125
169 98 7
103 91 51
157 36 147
112 240 190
184 233 158
55 38 113
185 250 164
156 196 107
203 50 130
95 254 97
168 38 61
149 240 249
172 53 84
112 103 136
155 193 133
70 167 158
100 195 51
202 119 93
110 201 182
44 4 21
249 25 116
225 206 84
190 15 255
50 77 38
181 109 193
95 51 71
234 248 5
253 138 80
144 175 208
205 221 178
33 214 156
137 142 102
19 177 204
34 104 136
253 1 246
101 11 165
235 50 97
24 148 54
246 86 97
164 191 13
80 19 32
188 13 238
53 243 186
172 154 154
231 41 254
247 22 15
174 158 145
195 149 219
148 3 225
11 216 119
216 36 116
183 177 185
28 47 249
131 77 200
216 72 13
48 135 67
241 223 156
192 172 243
25 228 155
137 202 215
178 109 102
31 152 227
44 150 175
210 180 85
211 22 76
17 216 208
160 14 128
239 241 123
39 16 123
54 176 108
22 226 215
34 127 250
31 181 245
80 51 168
7 126 164
217 171 6
116 97 91
247 47 104
180 142 178
106 92 148
33 1 184
75 162 103
160 93 27
220 222 107
116 108 89
110 166 129
5 125 184
234 4 49
207 93 172
196 175 22
33 130 153
130 43 149
40 76 56
25 3 234
124 178 214
114 235 1
229 141 71
217 75 94
253 243 11
233 242 165
156 18 218
6 246 27
49 35 175
165 131 215
121 63 155
235 33 211
196 61 76
173 107 112
162 197 135
52 217 60
38 187 64
225 8 83
64 251 208
237 36 209
10 248 240
196 150 1
175 137 141
5 103 79
113 222 150
149 81 197
141 230 231
197 81 109
181 22 90
242 29 184
153 38 22
99 167 106
233 181 168
126 60 195
192 98 50
141 128 112
132 42 153
227 195 29
232 146 156
80 107 135
122 44 122
82 214 65
243 63 240
121 94 74
239 231 102
49 44 240
114 32 175
171 237 124
153 206 203
61 208 162
255 202 244
0 232 110
6 70 192
42 79 31
69 194 9
204 157 7
130 61 5
121 223 41
122 125 141
184 43 237
33 242 136
189 104 190
245 142 69
182 221 138
151 233 163
70 164 46
64 132 105
61 157 30
112 197 240
227 238 194
107 76 184
126 41 248
84 14 144
204 55 211
64 222 51
14 64 153
133 156 74
180 30 226
223 182 35
216 207 241
89 81 18
165 184 157
167 159 115
93 66 140
154 42 89
83 153 197
49 51 27
203 130 11
138 214 194
52 243 193
232 62 30
121 197 182
119 125 53
1 145 11
183 207 236
142 54 92
49 192 212
8 247 45
185 219 88
83 204 148
224 203 214
78 53 138
185 82 107
145 18 149
158 194 53
9 54 176
40 212 218
88 223 236
109 54 199
115 161 125
44 220 87
59 12 161
42 227 243
51 208 246
143 3 222
89 150 187
53 225 78
59 208 251
233 141 141
222 107 7
200 238 89
7 62 191
68 177 80
54 179 24
181 116 99
244 8 175
128 203 114
115 131 199
4 214 17
202 129 66
22 102 115
244 148 161
77 27 143
214 168 248
200 197 19
32 130 90
162 175 42
87 239 18
184 51 87
83 205 92
25 68 48
200 215 243
165 91 22
70 210 79
108 171 63
133 176 196
0 150 251
2 65 137
161 129 83
30 85 136
97 233 144
136 209 98
143 16 233
7 245 251
9 172 103
242 201 228
55 163 39
136 29 181
56 221 158
191 224 144
218 23 195
103 43 249
194 41 130
192 206 171
1 114 181
126 94 12
40 59 86
66 132 16
30 89 11
252 46 115
23 28 184
15 37 61
254 39 253
4 121 157
166 157 250
33 200 27
184 87 100
63 111 111
26 34 107
131 15 54
87 131 190
130 192 37
21 210 148
77 41 72
245 159 75
43 247 182
198 179 119
29 127 37
217 131 154
174 2 69
213 92 202
39 59 109
118 28 58
171 39 218
154 242 134
19 139 158
131 58 42
198 141 72
217 73 94
29 15 131
32 182 218
143 234 134
225 68 61
252 149 90
99 117 22
60 131 38
103 62 47
8 190 116
43 240 230
173 226 39
77 109 66
53 198 253
229 89 62
21 251 140
167 63 45
71 117 108
168 76 190
36 174 175
94 105 178
195 17 100
121 220 157
131 4 250
177 69 50
40 125 35
249 194 125
59 212 169
222 236 130
136 244 174
103 216 80
177 61 115
180 138 135
42 251 27
241 148 71
242 100 92
61 203 58
164 97 53
246 109 101
165 207 215
237 114 5
175 240 179
213 157 243
64 142 255
56 161 84
124 118 22
202 38 241
58 15 225
24 66 40
121 167 63
146 131 218
70 191 125
115 95 112
183 122 196
216 78 157
72 183 104
101 57 169
218 104 4
148 139 192
241 46 175
161 159 58
60 138 105
171 165 180
137 48 112
195 206 170
90 148 6
54 184 130
225 46 35
165 159 84
203 109 139
235 25 250
133 22 53
7 244 186
209 242 134
143 115 253
249 13 142
114 198 203
37 39 183
141 119 2
17 78 85
106 227 193
22 9 50
57 129 252
160 152 71
181 112 202
214 210 126
2 139 169
60 67 179
216 87 87
53 94 175
236 76 167
232 95 121
52 144 133
51 187 183
137 29 43
160 199 10
110 206 190
205 224 141
44 115 44
158 109 187
251 199 196
63 94 142
82 24 68
154 252 51
66 106 75
180 24 139
222 34 168
20 67 70
2 84 193
193 130 161
146 230 65
178 210 147
246 1 125
98 88 91
35 0 181
65 119 233
104 138 102
126 235 182
32 193 148
255 226 113
90 232 206
192 197 144
186 70 28
251 2 109
192 166 48
84 203 130
87 12 52
188 74 0
89 161 3
67 76 170
182 104 64
55 156 2
172 253 208
0 239 10
159 137 163
246 250 208
181 37 204
199 243 205
81 233 61
45 83 248
210 242 132
144 192 149
125 103 98
185 255 128
110 14 248
63 201 119
130 68 235
142 150 222
69 128 241
215 143 58
36 82 166
103 38 127
43 216 186
163 97 211
254 3 91
167 254 176
126 213 253
31 53 77
75 69 157
167 205 46
231 185 210
151 244 220
73 68 51
148 12 240
153 174 69
113 69 40
207 170 216
168 213 149
253 89 239
128 103 36
91 97 254
187 39 197
60 241 162
72 124 6
229 171 51
167 156 109
121 196 145
88 243 46
56 107 38
49 61 112
68 87 74
96 46 249
66 78 142
183 180 87
28 133 195
30 175 80
71 152 200
75 91 126
64 158 52
150 232 201
7 236 249
216 53 68
134 204 48
212 168 142
32 235 89
126 0 148
254 21 218
216 0 213
210 174 60
176 137 110
122 214 158
246 106 189
227 48 219
198 114 109
174 86 91
219 200 84
220 65 238
137 32 204
8 196 12
139 70 180
235 140 146
66 156 29
203 199 220
251 83 175
229 209 159
175 120 135
156 144 113
21 213 54
38 35 7
77 12 224
138 157 140
186 6 245
13 250 237
117 117 113
66 84 232
90 53 27
234 204 46
226 75 85
153 154 72
33 47 157
82 235 132
7 139 130
141 203 144
237 175 210
214 51 228
200 174 242
54 113 64
210 64 158
86 79 126
48 227 52
196 59 163
114 203 247
247 251 49
209 148 227
237 1 182
30 255 242
229 224 19
49 181 177
4 141 196
239 225 40
69 142 42
53 20 151
60 27 145
134 165 254
17 188 189
115 166 176
1 101 41
140 137 219
39 159 148
222 75 192
214 108 188
45 157 183
86 210 12
202 223 219
254 175 27
208 247 6
243 106 6
132 126 155
134 206 141
43 113 239
211 106 99
144 70 144
10 221 82
196 243 206
181 74 81
8 88 244
102 81 249
202 158 89
204 2 180
22 76 195
55 90 194
71 130 154
54 155 98
154 191 65
222 194 250
35 194 42
101 149 109
184 214 37
155 80 145
92 167 128
175 26 31
188 3 127
128 164 147
149 198 146
147 46 136
27 219 210
99 206 58
125 153 194
107 154 242
181 129 26
159 156 219
119 252 240
32 244 229
145 7 151
159 171 244
73 232 98
16 56 123
245 118 105
11 36 201
123 146 109
14 71 100
78 90 23
115 152 201
91 144 54
58 133 67
149 121 140
25 15 59
9 255 151
31 122 118
111 207 0
156 165 42
55 103 125
50 126 194
253 149 70
9 255 66
66 139 235
149 141 167
130 208 254
217 119 12
198 245 203
15 62 133
183 138 71
9 65 247
198 222 108
10 79 76
10 113 247
73 101 180
49 32 222
156 91 24
108 98 56
240 0 171
120 52 180
223 234 16
103 253 38
168 81 75
255 198 119
191 124 97
57 123 168
19 84 247
100 52 198
126 145 79
174 242 8
155 205 88
6 37 94
28 23 88
133 50 7
168 165 193
69 48 186
141 74 39
79 83 110
46 114 67
177 217 70
72 150 56
97 233 99
48 86 55
211 0 38
209 232 71
3 109 188
46 62 82
215 101 24
167 10 55
4 249 163
80 57 247
226 93 153
95 178 251
186 42 81
205 156 142
66 113 8
235 123 141
87 182 56
62 209 91
26 155 142
138 129 82
159 191 9
48 252 166
97 233 78
142 169 182
54 94 138
144 93 61
209 88 221
233 146 59
30 160 211
236 241 20
176 52 133
98 175 209
165 107 100
196 240 235
85 223 24
101 138 196
106 74 213
98 182 0
170 239 253
60 94 46
30 89 91
45 72 84
78 2 218
150 232 1
188 42 113
177 218 245
100 63 120
151 75 158
11 123 77
252 59 52
220 73 155
236 4 146
31 159 87
142 57 195
252 128 248
88 16 84
211 251 198
70 186 91
11 127 240
174 190 60
219 171 119
149 51 72
43 159 86
133 191 174
204 4 82
130 8 92
236 99 158
247 21 144
205 109 207
137 224 254
228 98 43
124 65 99
31 116 34
51 112 125
27 2 117
109 67 180
132 56 224
47 7 207
107 96 84
104 150 237
105 175 33
14 236 245
180 27 149
126 138 102
182 191 104
83 55 39
226 57 226
109 90 109
128 47 87
17 242 191
156 13 220
64 200 174
188 176 21
183 238 63
192 191 57
58 145 230
230 211 112
199 25 87
131 11 89
209 135 102
49 47 213
223 30 93
1 156 181
129 8 171
2 3 57
7 32 19
144 128 231
145 66 71
152 47 17
206 43 141
71 63 186
213 136 242
211 229 157
95 233 170
181 146 138
63 53 160
182 152 69
239 186 71
254 152 95
181 186 239
237 50 130
143 224 56
209 101 207
59 63 23
195 93 11
111 66 25
252 163 92
29 95 191
227 51 205
247 63 53
74 162 9
89 140 100
102 230 155
216 65 225
24 49 245
59 45 219
44 111 215
220 255 102
230 244 69
88 170 176
164 77 37
182 234 163
85 219 212
108 7 42
7 210 88
149 71 100
43 59 49
193 205 117
119 97 94
90 78 210
106 78 235
243 97 151
179 141 75
81 186 20
98 155 234
80 24 135
230 98 81
47 163 41
0 173 240
176 48 145
169 230 212
124 16 129
254 4 77
59 132 26
95 9 86
167 122 157
51 103 23
69 105 54
154 234 120
236 44 224
189 116 2
102 186 80
2 58 14
211 104 92
149 206 37
77 233 107
28 142 253
54 249 77
211 197 26
63 139 255
50 101 94
169 0 33
81 178 226
138 111 59
246 165 114
99 129 177
198 95 234
92 209 185
4 13 179
42 99 207
253 108 100
64 47 117
248 128 4
189 172 115
51 159 9
142 154 149
24 111 22
100 97 16
169 155 97
210 100 156
170 123 38
152 33 222
204 25 97
7 106 65
76 155 182
124 24 36
163 30 212
64 133 122
49 91 231
202 130 67
116 243 56
184 195 23
134 3 180
247 20 58
114 80 151
79 57 123
142 208 83
134 207 255
214 200 72
223 89 3
243 83 54
72 167 224
40 120 71
118 167 237
85 187 104
70 223 151
216 38 222
227 144 163
167 227 193
177 20 233
6 43 225
86 114 123
0 197 214
134 91 200
11 141 27
254 12 182
7 136 214
116 18 20
28 108 51
111 3 203
38 79 85
85 9 213
247 147 41
10 45 62
91 245 220
35 65 149
18 193 134
106 246 15
3 69 62
153 222 251
161 104 213
69 90 229
112 115 47
113 97 214
115 200 200
141 45 73
105 156 148
173 127 159
118 128 39
103 14 91
94 188 105
112 85 209
142 119 23
147 41 211
164 92 52
8 88 0
108 127 15
154 37 246
66 243 220
13 13 79
212 159 53
230 175 198
167 22 120
214 201 60
10 127 47
221 80 3
102 81 44
233 176 205
75 185 84
235 1 161
208 117 138
176 2 242
250 95 124
102 140 90
211 32 32
124 255 99
219 111 186
90 14 152
14 224 88
33 117 82
111 223 206
182 243 180
97 94 200
244 185 214
138 178 1
90 2 104
76 141 196
73 68 164
162 192 123
39 41 59
143 39 250
138 109 118
113 73 58
238 59 223
7 149 113
203 130 40
209 220 174
102 46 156
66 153 29
13 59 231
32 225 128
132 116 12
154 238 116
28 115 219
55 57 54
149 163 143
214 107 219
1 78 78
31 173 44
18 72 192
47 72 78
118 27 22
238 64 45
85 44 128
187 72 95
215 36 36
174 38 182
13 43 65
190 27 88
55 197 150
121 94 63
30 50 98
86 123 157
238 22 103
165 151 72
190 227 161
198 7 121
52 83 236
190 37 3
23 115 218
138 70 149
167 164 198
81 70 36
3 172 127
213 14 177
232 224 60
51 122 239
50 208 251
119 140 172
70 126 177
252 14 116
61 43 162
246 39 106
87 181 175
106 181 74
146 54 37
99 148 122
20 43 201
166 217 179
206 139 220
21 184 239
85 74 69
57 61 24
3 14 115
139 26 147
85 195 166
5 221 62
7 187 213
209 95 15
62 113 143
254 188 117
207 176 134
156 161 10
109 215 180
6 190 124
86 18 244
72 222 207
145 126 155
29 119 1
221 200 220
241 53 146
38 213 110
14 250 214
55 169 54
140 30 230
6 115 75
32 151 161
149 83 1
45 65 215
128 198 46
27 191 59
245 154 44
13 222 161
119 107 235
242 196 59
230 185 125
58 138 77
65 215 147
0 162 235
9 60 181
159 167 25
200 224 140
153 47 121
50 248 42
160 155 211
215 25 201
144 154 251
127 3 194
39 136 75
217 10 171
94 172 104
17 75 169
226 129 85
225 169 35
244 186 201
255 94 247
240 102 194
107 4 3
96 235 98
190 205 78
100 220 181
151 12 24
212 61 57
113 193 34
232 213 11
146 153 172
71 221 170
53 166 72
26 66 35
50 66 138
76 51 16
152 144 182
188 3 162
30 132 240
100 37 184
185 25 134
156 32 26
182 217 235
147 44 184
255 166 241
241 238 120
160 248 78
26 18 66
34 21 101
55 37 228
138 140 214
215 141 43
53 65 83
13 35 249
129 165 40
50 107 89
219 17 133
176 166 107
100 19 78
247 100 236
209 149 159
183 142 230
240 127 27
32 241 234
38 255 92
33 204 123
102 125 253
191 72 191
72 217 29
249 210 175
78 231 249
126 189 32
209 251 218
122 51 25
119 90 198
166 17 78
85 67 81
57 233 64
158 163 104
205 210 5
11 29 186
202 199 214
159 136 174
7 139 193
141 65 213
235 147 102
211 168 198
42 252 250
150 5 0
1 145 152
206 16 213
161 29 218
16 73 37
111 53 94
245 202 109
70 45 245
44 31 101
245 137 207
51 123 166
38 146 54
139 232 236
39 6 173
121 187 103
16 165 224
203 251 20
135 252 240
114 159 193
76 228 139
81 40 3
162 253 129
155 208 124
186 49 216
97 123 219
254 195 103
79 18 194
128 242 239
40 107 132
83 140 20
157 121 160
126 172 227
130 221 126
37 23 16
133 209 108
225 30 223
22 49 196
207 115 176
62 115 231
66 85 191
137 80 150
20 114 10
151 215 33
36 91 65
80 57 24
159 183 86
94 33 83
144 211 11
46 223 84
124 56 202
198 41 194
50 197 125
119 241 34
212 93 45
87 218 104
128 200 53
138 88 91
229 102 140
220 194 221
60 69 114
74 34 152
97 86 85
201 213 151
102 232 179
250 250 144
68 157 35
169 151 129
253 185 83
250 123 158
255 165 136
108 47 232
23 194 248
255 201 173
178 223 131
165 163 208
205 92 200
80 31 0
146 143 119
55 207 236
168 155 234
137 182 59
127 213 228
75 212 251
60 14 37
89 210 27
5 245 205
125 10 105
109 52 164
220 198 20
173 56 199
171 38 153
220 150 177
98 152 133
130 117 223
170 47 181
161 174 216
241 48 83
104 249 91
107 45 28
236 11 19
25 91 133
26 176 75
72 123 201
157 199 111
152 232 247
218 206 30
136 60 223
143 247 88
176 127 90
141 247 61
36 246 153
204 21 196
14 54 78
69 136 254
175 145 228
235 229 219
237 90 90
149 232 47
192 112 253
84 194 49
43 127 154
118 170 11
38 165 152
145 230 179
101 193 69
36 243 175
34 210 78
94 89 170
206 245 56
247 116 214
178 232 243
68 213 160
33 46 109
224 134 144
202 200 58
213 203 139
124 223 164
111 243 19
246 5 228
160 80 111
35 72 230
16 84 74
51 181 183
10 185 4
199 36 75
214 95 69
110 142 199
252 193 231
24 124 176
149 233 106
196 12 96
175 103 208
201 23 240
237 250 227
208 174 153
129 66 70
122 178 86
124 197 234
27 123 160
220 85 191
30 2 229
205 65 236
213 83 56
43 156 38
28 249 42
64 142 236
247 234 128
84 168 160
138 46 137
12 51 201
4 22 254
11 122 216
248 219 87
6 178 45
134 34 209
86 115 168
218 230 141
212 220 119
82 31 20
101 121 195
245 118 124
182 131 145
18 187 18
178 213 225
173 17 103
46 232 115
125 48 224
8 181 202
41 216 82
151 127 235
255 87 86
34 30 234
77 38 4
148 210 72
188 121 82
249 26 127
127 178 142
224 61 7
231 135 98
24 199 136
174 18 158
244 91 236
231 202 202
250 108 40
14 144 149
24 98 153
87 28 146
107 1 214
148 181 79
23 238 21
230 49 180
187 172 115
26 186 1
137 79 161
80 119 63
222 7 250
1 6 253
15 51 203
187 69 173
76 156 5
49 2 48
103 61 5
191 64 126
159 177 165
138 19 106
96 78 217
244 208 54
221 3 163
1 130 188
130 189 66
226 60 6
18 26 255
197 171 130
78 95 110
159 11 83
118 111 46
104 16 114
180 125 58
176 105 71
108 44 127
154 26 130
108 101 189
225 134 81
183 74 24
108 97 91
150 198 12
235 190 255
220 218 134
109 61 157
238 233 85
248 220 163
155 241 124
99 143 223
122 104 155
199 17 26
160 188 151
191 230 214
25 141 117
242 240 158
140 106 179
198 205 178
130 48 13
31 243 148
245 168 245
137 240 66
94 14 117
246 181 179
137 96 205
252 201 71
140 46 165
22 62 48
164 150 24
147 161 119
107 118 93
89 106 34
44 60 176
159 91 66
103 241 81
72 241 49
1 34 95
32 1 114
47 121 38
93 255 197
249 243 16
168 81 143
12 221 218
177 167 64
187 47 199
156 248 35
58 134 99
176 37 233
8 46 62
222 108 36
85 103 240
209 40 44
58 4 224
5 201 207
171 226 213
87 248 230
56 58 165
179 185 31
70 192 15
104 72 67
215 60 140
117 33 147
136 245 108
65 228 238
245 152 172
74 216 186
74 61 36
175 226 165
242 222 211
156 240 138
97 64 185
81 128 92
244 215 151
241 45 28
46 126 84
228 102 132
203 33 67
207 169 48
45 26 91
64 109 92
56 66 120
231 157 243
97 195 129
32 220 169
182 148 43
127 164 188
252 218 56
237 246 23
35 12 81
232 69 198
135 67 5
42 191 18
209 158 5
101 253 174
251 48 62
233 108 232
177 104 78
221 15 150
17 185 150
88 76 109
204 90 144
193 90 228
173 188 108
154 156 233
29 41 239
234 156 6
203 146 22
117 161 134
14 53 196
36 34 249
39 21 142
163 45 173
29 91 217
244 16 204
40 34 126
239 70 77
59 230 163
91 0 187
187 89 213
160 44 192
146 63 125
139 130 236
68 218 23
71 115 163
58 49 7
17 1 115
30 137 189
188 45 169
55 126 56
91 107 57
73 120 180
125 192 218
107 126 128
132 54 244
251 101 5
207 95 197
138 240 183
7 198 191
237 195 157
232 148 44
106 142 9
123 149 253
3 202 74
74 40 71
143 69 166
59 215 193
142 43 34
58 31 237
189 219 19
218 222 33
67 255 62
169 182 190
157 57 147
226 121 220
116 90 113
88 174 93
51 184 187
62 61 160
94 231 79
154 30 243
113 239 242
181 98 5
123 228 74
77 96 170
78 162 78
14 156 204
235 20 161
235 248 216
155 137 189
9 243 83
125 107 112
221 76 156
170 198 231
226 248 23
90 238 116
45 223 226
135 12 5
161 92 232
46 244 236
206 199 210
106 33 12
34 76 209
26 182 187
74 4 85
125 13 110
97 47 106
55 137 16
250 226 107
117 39 237
39 41 150
93 101 237
119 205 29
122 26 212
205 218 21
106 102 19
62 84 114
2 74 146
55 36 248
35 122 102
230 246 67
75 210 102
52 101 180
24 223 45
51 231 127
241 160 9
198 126 80
19 64 189
118 174 37
11 203 68
30 236 236
78 230 141
223 51 163
174 151 225
90 241 74
158 68 147
103 9 118
170 5 221
167 205 19
137 184 162
74 121 90
56 45 86
167 87 151
158 7 89
221 89 83
130 204 173
91 255 111
188 254 215
13 97 164
27 51 70
170 255 141
106 164 2
227 188 72
55 78 97
241 125 64
47 53 11
238 25 243
53 153 75
60 109 212
185 230 251
30 16 71
84 185 155
195 189 182
129 234 243
200 118 118
11 17 98
79 210 133
157 94 92
202 244 88
35 102 82
124 177 19
152 80 169
221 168 171
93 152 74
120 42 185
9 17 213
63 150 174
236 113 61
214 58 129
189 174 36
38 84 238
56 164 8
4 227 147
200 194 53
8 12 41
163 97 12
215 180 95
181 185 17
88 248 118
124 187 201
131 135 236
185 175 112
91 4 216
217 199 255
150 124 255
142 200 92
11 35 236
92 131 73
193 248 79
233 222 57
194 45 42
208 133 51
203 106 121
8 31 6
153 210 51
217 58 142
70 99 214
212 168 181
99 208 233
211 126 197
234 213 210
200 237 129
129 46 251
145 85 246
201 120 10
157 134 198
127 163 45
83 184 221
189 120 160
143 220 144
253 69 13
161 127 171
83 99 18
128 3 225
216 139 24
165 245 14
59 115 189
134 55 168
123 239 221
18 136 4
97 74 94
173 20 167
230 171 105
250 67 4
249 212 193
44 183 63
214 153 30
35 71 216
134 41 75
95 10 133
74 65 121
162 186 156
144 237 40
231 50 243
145 74 163
47 205 4
113 113 6
8 206 33
184 42 137
31 111 110
26 10 131
57 220 30
235 249 64
184 108 148
55 72 169
29 66 12
7 238 210
146 184 128
159 133 4
58 169 175
188 156 172
43 112 210
216 101 210
40 63 83
25 151 197
110 87 159
112 190 115
194 115 110
239 216 137
228 89 222
138 169 214
45 146 77
224 102 150
118 133 63
172 159 235
108 207 46
224 151 10
185 230 30
220 169 104
95 192 5
5 90 126
235 36 42
237 60 35
46 202 110
129 234 72
106 74 75
225 58 131
202 5 118
140 252 186
245 75 12
95 147 141
10 93 3
105 114 2
20 52 126
175 41 27
0 55 223
229 179 253
204 56 195
175 5 204
85 3 156
19 67 30
239 200 114
241 235 83
147 44 248
177 111 104
140 75 121
106 55 195
254 186 58
178 190 75
160 219 206
193 222 185
2 15 145
157 196 212
224 57 93
162 183 209
218 225 27
83 84 193
133 165 200
205 19 161
133 202 67
212 57 113
189 9 53
215 16 38
177 188 228
97 39 43
15 168 244
19 156 138
161 241 251
10 74 248
135 236 120
4 32 26
147 224 172
243 132 47
226 219 215
24 194 65
96 194 206
33 182 228
112 15 219
52 239 33
226 203 107
186 215 73
102 129 236
172 83 31
76 30 70
45 237 58
5 181 168
94 81 229
73 96 136
235 59 42
62 153 69
231 238 111
103 61 239
183 131 34
173 14 153
145 244 195
166 27 52
159 107 123
110 40 52
58 8 63
173 186 233
148 136 104
199 67 210
183 232 74
161 115 145
185 127 169
173 146 192
165 16 179
234 164 68
190 202 147
154 42 20
89 22 81
48 249 65
238 46 51
141 172 45
238 242 24
207 151 79
232 143 253
49 203 203
145 235 130
109 30 193
58 56 241
193 149 201
200 10 253
207 193 164
90 3 216
237 51 208
3 65 211
115 233 127
224 97 183
57 255 117
108 236 246
183 5 130
198 4 55
81 137 174
154 114 53
122 114 39
38 40 8
24 241 149
189 111 128
136 99 155
27 230 194
103 251 171
220 125 25
116 107 217
173 11 0
175 98 191
182 115 94
37 121 198
245 121 229
208 79 215
148 143 229
233 15 243
2 116 227
56 76 196
168 76 73
228 67 121
32 170 161
162 145 59
207 162 215
148 163 183
25 90 216
49 91 50
182 124 227
68 228 59
88 136 185
192 39 210
165 55 16
55 53 41
61 186 230
114 237 93
218 206 254
115 213 251
207 100 18
86 127 68
101 5 149
21 67 156
169 110 168
41 48 99
36 119 43
69 205 11
208 223 113
235 7 16
27 191 245
159 192 48
252 78 112
128 152 61
126 86 152
229 41 127
90 102 69
112 110 58
125 91 88
108 64 198
13 221 128
193 72 222
218 169 228
66 55 216
16 125 189
32 144 135
115 169 204
128 12 31
250 117 214
238 73 23
6 77 185
31 22 102
225 72 101
198 87 179
88 193 252
111 65 172
134 214 151
239 171 147
180 122 33
101 160 138
102 101 45
0 200 122
134 238 135
60 41 101
137 77 63
50 132 243
33 99 241
215 238 254
185 15 31
115 84 30
69 215 90
227 231 105
61 81 61
194 71 101
240 153 69
224 98 203
22 40 102
39 207 172
102 51 182
100 195 227
20 81 120
248 146 215
61 64 42
180 134 19
103 212 155
251 139 221
72 165 176
227 99 56
167 11 233
17 52 18
231 176 115
224 164 108
183 118 111
110 73 244
235 247 160
65 12 14
86 22 206
24 61 201
172 25 71
89 141 184
171 212 97
30 1 4
146 17 174
122 148 136
119 156 86
71 85 80
91 144 196
69 48 119
44 120 43
32 82 28
88 172 243
69 142 82
164 4 19
101 176 107
112 61 2
144 45 190
100 175 97
153 241 124
159 111 2
117 34 238
145 126 203
79 83 242
66 206 162
139 143 230
123 8 117
164 34 206
80 201 30
242 242 102
94 145 17
7 41 157
127 213 52
77 182 188
234 254 255
2 44 119
20 117 14
232 6 143
160 193 249
11 20 163
194 154 51
179 221 88
8 169 59
138 9 209
146 57 88
156 171 18
190 96 185
69 151 58
249 88 152
173 221 225
86 97 191
143 90 207
26 112 5
56 2 211
218 110 128
175 220 169
218 15 106
253 99 97
239 7 99
69 246 251
247 49 100
111 205 178
37 4 164
34 56 129
207 52 29
187 110 21
109 140 186
180 136 238
221 251 224
179 201 236
121 178 104
151 29 46
98 131 52
98 49 169
52 37 142
140 217 77
255 54 168
232 75 204
48 248 96
86 85 168
116 44 68
243 188 1
236 24 106
217 241 201
49 9 114
65 56 245
66 166 15
60 15 22
4 242 119
73 27 133
246 91 28
10 21 192
38 70 189
104 168 181
234 209 201
198 197 149
95 50 1
98 21 206
218 145 61
134 135 69
117 120 139
174 63 202
68 188 140
182 110 188
183 7 51
107 202 113
63 40 105
110 115 131
153 198 91
135 169 111
30 175 254
166 94 110
235 17 43
210 6 21
254 61 62
24 201 230
148 219 122
172 188 56
38 130 12
244 148 130
9 50 93
104 150 178
184 70 22
127 8 238
89 87 133
57 75 203
205 206 228
84 226 162
235 64 165
162 105 93
108 219 83
230 103 130
0 1 60
250 109 22
180 244 34
234 90 76
53 188 35
88 29 106
157 152 254
174 137 10
109 78 48
234 202 78
147 210 231
72 148 227
159 196 80
159 94 185
43 240 235
100 110 106
125 63 144
85 197 71
47 3 201
148 117 233
199 42 15
127 212 20
36 36 138
221 242 34
82 84 202
49 231 25
121 206 221
126 28 8
188 182 14
21 90 85
27 114 74
181 31 202
178 27 232
15 203 74
21 82 85
182 54 199
88 127 79
75 132 246
16 27 18
152 56 155
229 238 226
12 165 20
24 16 149
120 94 179
196 101 125
215 189 148
208 27 189
167 101 91
190 92 201
82 11 122
76 232 117
82 19 228
66 140 193
93 25 228
195 121 106
145 212 236
80 9 41
224 115 255
251 63 50
172 106 144
24 208 235
114 14 135
134 55 248
185 204 232
147 245 185
254 62 107
181 58 44
16 73 116
231 71 233
64 127 106
242 110 41
232 215 25
53 160 15
178 210 153
123 65 90
240 94 174
43 241 97
32 135 19
153 186 193
46 117 134
88 249 9
62 249 141
29 188 165
97 109 249
135 145 59
120 54 181
41 37 102
180 231 5
128 230 235
49 35 80
117 137 213
213 148 119
150 50 72
190 77 34
167 227 38
226 210 180
110 186 185
204 232 232
226 141 172
42 62 102
203 37 155
218 144 241
169 197 78
81 240 164
91 0 129
87 179 105
130 204 19
13 64 46
46 40 202
143 192 206
139 65 93
137 156 168
221 147 53
226 149 198
254 4 70
232 95 13
97 107 50
167 147 243
223 119 13
182 60 75
5 45 27
47 95 141
253 143 208
168 169 24
241 225 125
60 12 194
147 114 242
145 62 75
23 192 137
221 118 19
127 68 215
56 39 3
94 39 51
39 189 137
100 172 136
47 244 249
29 253 34
65 210 205
99 224 235
231 95 77
3 94 54
140 48 109
245 208 91
18 130 152
185 236 36
92 108 65
74 131 118
148 246 192
186 74 108
89 246 74
103 150 230
111 40 56
40 216 172
221 153 189
90 216 134
20 7 33
114 222 207
12 154 104
172 232 32
9 208 180
37 104 10
60 22 14
108 149 5
109 247 200
46 148 223
13 51 195
77 41 65
7 184 175
95 8 216
240 54 79
107 88 156
211 125 40
253 5 241
122 33 61
47 233 53
248 51 194
95 211 35
106 12 154
108 229 15
191 121 77
9 237 169
194 224 82
16 255 162
5 0 251
115 48 180
150 179 66
8 166 116
80 36 8
108 230 199
124 11 186
129 79 21
103 200 23
89 143 4
195 69 124
85 218 64
185 96 23
32 229 78
14 47 87
232 248 172
182 81 180
39 146 78
50 83 213
116 133 49
78 140 87
129 108 102
68 158 53
29 249 71
138 132 101
88 170 122
133 244 110
194 239 147
193 231 158
192 190 231
7 44 185
52 240 83
17 82 31
5 137 162
187 60 157
97 174 53
50 212 130
125 28 213
151 57 97
25 66 91
240 170 236
72 199 40
77 36 104
25 12 35
198 4 15
66 152 235
52 30 7
68 225 128
163 18 20
199 247 72
182 41 226
22 215 6
32 231 169
35 19 140
203 128 141
121 183 250
166 17 177
48 199 66
104 193 20
173 242 140
214 217 36
245 240 225
53 129 204
58 157 9
190 110 9
97 95 95
143 102 194
105 68 31
49 14 51
0 58 229
147 123 199
122 30 57
190 40 226
121 234 227
210 216 113
224 118 218
19 89 120
65 12 116
48 199 210
83 23 120
54 251 160
145 75 171
36 23 20
36 77 45
30 85 79
103 161 61
19 238 130
180 201 42
47 214 91
226 25 252
140 176 252
109 176 224
208 231 43
50 170 7
232 138 193
25 124 108
12 105 248
129 253 239
206 47 150
139 36 110
66 185 236
255 151 192
57 26 188
32 40 23
139 152 55
242 188 83
110 147 127
69 47 8
1 198 105
209 125 214
17 206 227
132 205 4
126 93 249
217 163 39
8 66 171
200 5 239
19 207 183
253 104 202
180 175 228
184 242 133
172 65 125
251 112 93
45 217 18
105 52 26
84 29 223
219 184 1
96 23 144
81 17 14
148 200 123
16 156 187
58 186 144
251 94 144
245 72 22
85 63 72
173 81 25
43 79 48
203 30 226
154 176 108
163 26 253
45 218 7
236 162 104
184 239 186
204 222 152
66 78 52
210 189 148
220 128 104
205 207 77
154 226 88
52 156 160
232 150 233
199 4 132
36 222 58
212 16 132
137 129 237
61 133 236
16 176 140
183 70 75
188 140 112
163 91 234
106 207 76
4 150 70
175 44 32
183 104 108
135 70 42
2 142 30
80 90 106
232 162 136
31 17 168
100 187 202
208 180 248
64 150 179
0 218 28
220 175 124
111 157 250
116 73 65
167 63 150
36 102 172
122 86 174
206 231 176
131 244 7
94 35 217
140 39 233
211 97 139
165 19 248
19 105 14
24 16 2
3 206 92
48 125 255
85 122 37
106 122 66
140 27 91
35 207 7
5 21 168
234 16 71
171 199 163
122 212 155
53 249 73
4 78 16
110 108 187
109 230 187
14 7 0
189 178 230
200 59 128
93 174 0
237 9 79
15 49 242
106 171 255
106 179 196
173 235 42
200 124 31
226 62 177
15 83 154
128 14 65
201 44 65
106 227 230
86 31 137
249 126 166
246 51 1
186 60 130
211 180 137
203 91 188
78 61 2
245 230 232
251 228 232
209 144 236
119 191 210
166 93 180
87 142 67
18 90 123
13 171 109
141 24 150
252 151 204
219 185 201
189 162 166
65 4 106
79 100 132
39 204 181
202 228 167
229 152 239
1 11 96
194 139 9
83 82 137
32 36 200
113 38 228
147 22 189
217 27 28
24 111 147
49 67 214
173 57 188
41 247 229
70 29 247
50 128 72
120 15 238
112 249 108
142 157 16
180 254 17
184 91 55
4 103 113
108 243 80
236 200 174
37 243 94
205 8 92
62 177 11
194 193 88
126 217 226
196 150 94
190 102 242
73 249 181
185 45 15
201 88 68
10 124 169
232 184 62
237 21 167
126 174 48
106 50 203
209 103 14
89 200 212
188 6 38
10 206 3
251 115 131
68 88 18
21 125 9
52 12 233
106 92 146
245 148 8
66 52 198
92 214 91
20 51 83
96 81 177
229 41 229
180 142 74
61 87 247
241 0 53
115 238 21
170 247 163
227 83 112
44 80 129
55 28 135
48 4 242
77 192 253
83 118 136
55 224 84
45 205 51
173 196 195
160 65 154
246 74 136
212 114 236
133 103 0
139 55 234
10 100 22
171 123 18
199 150 244
161 116 73
48 45 158
32 2 20
180 36 99
207 198 58
65 106 91
110 126 107
247 25 194
123 128 83
82 78 158
249 251 206
226 240 203
99 77 196
187 17 183
251 128 230
199 201 252
215 102 56
46 14 93
228 85 95
196 14 169
242 233 125
199 1 244
204 31 98
230 83 26
12 122 29
52 216 99
41 124 241
197 66 141
17 196 36
78 191 113
63 104 236
217 135 180
99 213 189
244 84 209
212 238 195
113 225 25
8 47 158
233 167 174
52 80 17
200 11 250
44 91 134
177 19 63
103 122 20
199 117 86
162 183 107
86 103 134
97 137 141
242 69 236
37 95 26
2 65 218
203 64 144
211 76 168
20 245 157
128 223 34
229 140 116
231 99 24
11 59 210
32 30 118
144 109 0
212 238 230
186 103 103
216 169 65
205 248 232
103 237 135
167 77 72
141 231 140
245 228 44
42 35 166
59 247 189
89 61 212
125 152 7
64 95 193
15 102 183
3 108 180
59 177 11
104 234 174
235 8 65
159 141 24
81 34 78
97 85 50
181 86 159
201 25 213
252 45 193
105 241 86
169 199 84
137 14 221
76 162 165
127 52 174
247 130 122
53 18 168
34 232 65
156 68 242
253 26 135
90 10 148
183 137 255
151 38 223
16 39 123
46 139 77
141 4 161
101 90 205
107 186 18
109 110 195
36 96 53
14 100 188
121 157 48
239 80 253
219 142 171
107 41 207
229 215 167
209 70 145
36 29 190
227 204 121
46 107 148
235 228 24
5 1 93
218 79 160
81 164 8
20 15 166
111 199 72
35 152 95
133 67 202
246 180 179
87 21 254
30 181 60
62 31 59
244 4 97
110 56 65
1 222 83
188 236 160
157 226 34
89 13 230
85 85 4
183 103 254
204 153 126
236 174 219
58 229 4
206 126 190
207 150 220
209 140 186
101 197 6
248 7 168
73 216 255
228 220 190
44 145 106
79 57 103
213 72 148
238 128 55
68 201 53
8 156 112
53 61 200
206 76 146
204 165 168
217 132 193
22 246 181
22 178 166
116 215 185
80 92 89
15 77 236
11 52 183
223 153 176
221 135 168
156 75 248
198 13 51
62 192 25
160 20 129
205 59 111
152 223 209
233 80 168
205 87 16
17 1 38
179 63 35
110 37 106
242 231 84
74 127 194
152 188 168
21 24 148
145 125 198
200 204 56
3 224 254
125 135 23
117 240 53
125 118 187
251 189 61
177 62 119
171 21 92
69 245 147
194 50 118
82 45 157
84 174 193
107 228 141
213 23 21
146 102 117
103 81 40
1 253 57
106 54 40
74 71 152
204 81 2
195 178 86
32 202 174
59 145 55
219 107 38
18 228 151
50 242 26
157 199 190
150 110 244
171 104 214
96 144 144
109 7 58
11 30 56
11 33 207
184 36 16
155 56 88
231 223 76
31 240 52
242 252 106
158 146 199
137 2 113
49 214 192
242 215 148
155 189 50
176 9 107
175 241 253
9 208 184
18 172 88
41 93 56
149 205 144
167 120 105
174 209 247
204 11 231
103 148 184
222 13 237
106 173 115
116 189 0
170 56 56
43 238 61
4 115 253
114 24 13
230 163 133
211 174 81
135 77 74
253 227 145
98 65 187
127 156 41
221 50 242
252 132 174
50 206 239
213 212 226
242 43 233
157 197 117
12 178 95
71 250 250
214 193 84
99 25 22
224 172 205
190 71 242
36 69 102
164 118 58
215 86 90
94 88 225
209 113 163
221 160 192
180 163 253
181 129 25
53 216 31
177 139 140
146 225 224
254 223 108
176 158 68
60 218 182
253 157 216
125 240 235
239 211 229
164 168 209
166 235 159
170 110 223
252 136 228
76 228 81
49 152 6
113 35 162
106 205 149
106 129 200
89 189 251
183 89 242
201 37 187
18 0 137
189 19 114
125 156 199
8 60 223
61 191 17
24 213 49
62 145 194
172 219 79
228 102 3
126 26 77
199 250 106
57 228 114
108 89 19
169 147 224
187 43 129
149 53 128
131 17 130
37 31 59
216 183 18
146 90 121
27 206 169
183 168 106
126 3 25
228 159 86
221 70 119
225 132 43
216 129 72
45 216 138
12 72 115
8 90 93
1 171 51
146 84 237
242 216 45
196 142 201
204 79 193
121 25 171
122 91 144
3 199 159
194 116 248
98 95 102
29 22 52
161 84 38
221 139 115
0 214 51
11 96 208
161 200 239
15 211 107
71 246 116
205 89 95
194 107 224
108 67 130
215 5 59
21 86 49
150 170 52
94 37 157
212 238 33
230 33 253
182 178 170
142 169 15
2 37 76
109 180 150
244 217 16
65 54 99
46 241 5
1 241 46
73 120 91
183 80 175
69 140 156
70 223 105
56 177 154
204 138 133
132 181 33
100 72 163
201 2 122
141 176 50
234 19 223
114 23 122
162 144 76
125 7 99
62 46 51
196 48 39
2 214 211
153 26 196
36 135 130
53 104 180
171 5 166
174 200 245
255 96 73
160 23 50
42 108 209
146 143 142
15 134 156
28 223 20
160 114 143
46 179 155
167 4 174
117 72 49
172 192 81
156 14 14
16 60 8
61 5 70
177 109 185
58 3 139
166 226 207
93 172 93
184 252 12
193 2 141
87 216 119
206 100 248
144 128 190
215 212 157
11 145 159
240 140 60
200 63 20
253 208 90
86 52 85
51 242 50
46 65 57
41 77 147
58 231 105
84 2 1
106 161 155
148 147 169
228 141 128
4 206 207
71 123 49
211 10 83
220 47 227
134 162 151
238 48 246
3 132 48
128 112 152
249 78 125
7 80 82
199 174 205
160 169 192
235 176 54
139 122 104
176 179 148
97 239 152
164 0 147
255 194 24
230 137 228
235 214 71
52 162 197
93 108 192
172 146 137
177 148 241
108 64 188
236 173 24
4 100 223
188 123 115
178 37 33
119 149 28
215 244 251
40 88 28
135 248 123
87 230 163
111 207 199
216 241 52
161 170 66
83 4 100
117 30 22
194 116 176
197 62 203
132 98 51
215 59 13
122 73 80
213 229 136
175 99 107
157 226 202
112 180 107
61 107 43
182 196 63
177 25 136
107 177 104
233 34 114
87 59 188
51 122 231
182 117 167
1 143 110
73 157 97
30 189 154
167 226 132
51 105 88
123 105 246
137 141 93
37 80 239
73 180 102
83 243 93
0 14 179
24 44 227
106 141 77
246 210 220
86 83 226
210 106 142
174 234 185
229 20 64
203 246 209
255 244 79
33 8 71
23 227 199
16 34 33
118 172 186
249 70 215
106 161 199
19 44 123
252 151 231
196 17 64
118 165 68
18 104 159
101 42 215
30 18 199
141 47 188
155 157 95
96 210 126
117 247 107
98 140 143
68 77 185
238 238 106
96 5 191
218 174 68
167 229 111
217 142 57
220 45 196
183 3 210
236 83 107
115 8 19
159 45 30
206 8 189
52 195 81
242 244 201
63 67 251
68 82 214
205 33 134
14 190 207
78 7 1
79 65 138
224 35 140
229 4 20
10 123 171
226 251 140
39 249 24
39 2 18
104 46 251
104 254 49
173 142 241
52 69 99
90 87 181
105 95 115
117 197 210
127 75 23
84 78 48
169 79 177
197 217 169
179 240 75
61 172 101
228 162 48
111 158 94
51 214 28
113 137 19
178 251 199
129 141 102
94 96 124
204 185 124
202 16 186
38 117 97
251 50 225
251 123 49
45 30 56
122 157 5
45 34 42
229 249 0
158 195 16
157 253 215
248 69 47
42 251 162
120 113 16
34 252 240
131 55 5
134 165 124
24 205 8
75 211 210
53 82 104
90 239 57
248 183 168
143 212 101
136 63 194
151 171 165
67 74 223
235 53 120
160 123 133
43 71 42
54 171 253
198 109 188
67 126 141
166 19 0
13 201 100
120 147 33
140 137 133
45 68 142
128 190 103
86 232 61
119 228 232
1 98 154
155 154 144
193 163 51
234 138 70
116 6 140
203 23 224
41 166 54
205 231 227
56 108 58
87 39 250
167 210 209
202 145 219
249 222 98
31 82 235
111 90 248
9 158 246
18 194 248
29 218 147
246 46 127
109 207 137
18 192 132
13 244 120
209 8 1
223 164 105
143 74 42
155 61 233
76 246 31
232 185 224
248 201 150
160 2 44
21 116 177
88 92 50
5 125 180
56 253 20
6 101 124
154 232 167
100 246 203
241 240 87
69 241 215
223 1 255
249 255 189
171 24 56
75 144 53
43 93 219
78 161 215
11 158 177
114 52 46
243 220 103
15 228 246
137 123 141
53 168 171
73 60 155
212 247 159
131 179 205
162 129 77
106 154 81
38 193 19
222 4 90
135 242 115
58 189 241
14 213 80
206 52 27
26 233 49
206 28 188
128 9 9
143 236 107
208 224 54
155 124 253
168 215 245
99 6 229
95 64 192
154 125 122
83 206 195
209 179 202
18 53 13
82 101 189
193 188 190
206 124 61
144 2 209
36 121 150
172 160 231
215 106 241
217 218 64
78 122 229
187 110 32
169 155 40
202 8 151
27 120 45
45 18 30
198 109 118
243 175 215
47 175 175
92 109 82
117 5 82
150 154 155
97 252 237
138 212 166
166 121 74
205 166 228
73 68 48
187 125 239
202 38 60
113 219 58
182 109 213
199 209 110
68 210 231
82 188 60
237 95 188
67 210 39
177 7 194
161 138 239
246 26 238
246 11 74
148 90 93
59 185 207
117 134 57
149 103 13
106 16 177
67 72 247
179 53 28
149 239 87
214 243 215
253 92 104
70 186 71
82 217 101
251 161 221
43 47 106
195 150 64
116 56 251
168 66 116
7 184 151
122 239 180
54 250 198
35 28 205
5 240 112
48 241 223
226 169 88
222 232 197
170 30 48
51 192 130
57 93 44
69 224 169
239 68 11
74 68 155
114 171 167
77 12 24
221 11 144
120 89 22
249 61 39
210 153 215
36 62 49
95 49 57
92 231 133
126 77 26
205 195 67
185 75 165
46 68 118
79 214 106
101 228 180
92 0 101
148 252 111
60 118 101
131 11 110
240 3 151
97 115 54
144 131 155
247 88 254
228 90 12
199 60 239
119 202 166
208 22 182
104 212 211
172 55 102
201 233 30
103 104 172
77 64 123
130 82 93
96 11 171
208 236 209
210 248 73
207 138 207
209 165 244
77 49 158
173 195 208
46 69 95
131 254 127
217 57 88
11 44 162
121 186 116
206 108 67
190 87 193
173 112 11
56 106 163
178 173 42
234 48 104
12 55 80
97 51 96
89 212 232
254 69 83
46 44 178
119 79 35
59 193 176
91 146 31
255 143 80
183 99 221
105 229 182
149 53 138
221 248 103
149 73 105
59 136 14
122 41 111
86 172 123
61 42 186
124 49 97
45 139 135
198 180 29
132 59 57
178 129 120
83 90 243
191 158 196
101 202 1
88 24 78
12 6 94
119 66 246
116 145 204
24 210 224
195 99 218
186 9 140
72 77 171
222 176 104
180 169 255
147 38 210
97 78 64
13 53 15
95 70 52
135 120 53
46 175 163
87 237 84
55 43 142
2 231 125
197 82 29
145 95 187
140 18 86
179 32 41
112 32 175
145 185 209
169 194 13
220 35 197
47 203 134
9 252 157
72 74 0
155 43 162
18 142 156
57 45 253
39 137 215
184 242 66
84 133 129
213 130 8
124 34 197
184 124 92
4 124 140
86 144 247
61 3 119
21 194 102
143 0 7
243 8 105
9 92 172
155 189 235
228 143 40
62 178 242
43 159 242
77 60 56
221 251 102
167 253 0
225 205 86
48 157 212
79 6 87
0 77 135
123 50 67
144 90 77
206 255 80
194 206 158
19 225 73
162 187 103
248 12 245
41 189 249
31 193 47
0 95 119
177 193 159
26 79 175
242 190 0
142 213 193
104 163 228
244 160 242
144 73 32
219 141 226
196 245 147
240 145 18
255 102 18
114 73 68
37 122 154
13 197 57
245 250 81
212 235 101
154 74 73
153 57 226
233 142 8
163 237 211
189 129 51
147 137 96
56 9 37
228 214 93
8 191 241
200 254 102
62 66 187
45 189 64
240 140 17
154 123 179
96 232 93
172 144 108
26 127 130
139 148 14
122 254 15
94 209 160
62 78 171
181 96 118
112 242 153
39 150 8
107 156 246
58 114 151
24 171 31
27 44 92
33 245 35
111 34 190
151 15 242
189 104 246
223 188 54
3 14 61
33 207 101
222 37 186
73 239 188
67 166 119
186 37 59
144 63 166
144 219 113
98 134 222
18 45 169
14 65 0
62 234 49
194 4 32
2 92 150
174 96 111
78 254 91
173 138 9
137 66 102
68 116 137
173 38 48
123 128 188
224 28 73
92 183 2
87 15 197
180 81 240
160 169 229
233 153 44
21 220 166
162 110 35
6 21 58
223 49 23
254 198 204
83 136 80
54 183 182
54 219 198
151 153 38
121 254 78
228 32 235
157 199 152
67 52 195
235 14 8
196 234 137
239 247 1
64 169 153
127 39 102
40 241 195
149 187 166
43 252 211
120 33 247
169 117 94
93 91 244
67 254 136
6 185 45
159 9 61
129 154 94
141 237 144
222 47 226
249 220 97
141 104 107
145 70 162
88 4 6
79 74 89
0 212 78
41 207 23
40 196 244
109 140 138
37 239 117
137 20 168
125 204 191
89 106 27
0 192 84
69 68 199
132 49 195
16 172 25
160 22 25
222 34 50
183 1 165
236 58 4
187 177 160
90 253 143
193 8 167
34 102 128
44 155 217
56 86 27
59 249 80
189 221 133
177 31 147
245 183 95
48 92 233
116 88 72
228 72 200
108 89 81
154 253 145
29 180 18
99 97 81
208 238 113
176 143 69
118 1 32
175 85 212
189 140 14
121 246 126
151 136 169
207 150 152
82 241 255
85 163 137
54 59 127
52 15 51
156 243 80
116 94 139
96 225 32
16 174 170
115 101 192
212 124 17
69 30 92
77 231 31
4 223 129
102 242 88
186 42 233
64 21 170
50 68 201
43 110 135
172 175 19
83 128 134
73 140 146
32 159 241
50 213 242
235 97 115
57 206 46
3 244 2
84 221 222
160 146 54
84 153 63
218 245 26
127 34 225
147 132 24
190 143 132
63 16 244
38 213 244
4 157 82
15 205 144
32 164 65
164 126 227
235 18 101
198 83 219
178 111 183
87 57 64
61 127 159
77 53 129
233 99 181
177 201 162
201 13 56
125 208 242
141 165 14
169 78 217
104 85 9
231 169 20
66 221 165
171 16 221
173 1 191
17 172 62
83 44 180
58 35 92
106 139 136
52 247 124
220 233 207
254 15 176
137 10 132
63 78 61
74 163 242
112 132 6
66 0 10
229 199 108
127 22 122
67 11 123
220 101 188
226 192 216
136 102 34
76 5 72
140 124 159
31 198 11
39 92 124
116 221 189
203 190 39
118 191 48
96 88 27
231 168 11
132 178 201
136 70 247
7 168 195
245 1 196
34 194 92
55 203 209
83 8 121
173 182 122
120 255 92
38 254 56
236 156 49
173 84 162
199 211 123
92 211 174
115 37 79
131 45 6
165 55 138
108 118 111
73 170 211
213 205 206
225 21 84
64 185 209
170 202 140
181 225 86
244 32 92
15 223 127
195 70 85
39 98 183
215 111 215
50 234 72
178 150 191
213 33 208
85 78 237
0 102 93
116 38 54
24 234 22
185 214 232
228 35 141
73 142 8
56 29 102
21 157 192
126 241 17
91 121 120
181 84 169
227 25 56
238 208 162
48 25 112
163 155 169
35 55 27
210 57 161
26 171 205
111 142 63
40 47 128
212 147 62
229 236 141
28 96 55
55 255 18
118 237 19
87 237 53
119 108 173
76 60 145
192 108 38
235 168 120
169 112 167
89 57 99
77 197 49
33 70 93
231 5 80
66 22 134
207 216 198
103 20 119
186 84 49
192 220 44
133 181 51
166 230 242
149 26 198
148 66 132
1 239 84
64 209 45
228 162 22
31 160 12
193 58 39
72 195 236
199 227 217
204 10 73
47 68 219
122 177 65
239 159 22
228 186 233
236 71 28
59 52 108
113 20 223
114 41 254
6 237 187
140 204 218
148 172 180
96 186 161
17 230 248
218 197 56
128 251 193
12 51 0
88 65 132
82 129 65
41 228 153
131 195 79
11 141 164
18 166 68
43 155 178
53 141 193
84 252 155
97 201 166
40 222 249
15 136 160
131 251 78
76 92 101
57 130 77
102 247 221
141 182 129
248 60 237
122 114 157
164 95 116
173 232 135
27 103 226
186 208 60
29 172 114
138 49 138
52 228 167
48 123 129
2 223 217
252 205 41
23 187 253
155 14 206
234 192 47
187 228 87
226 173 81
57 189 83
12 181 101
95 134 253
199 141 140
26 64 172
55 36 23
245 144 151
36 133 180
247 62 205
156 27 228
138 114 162
169 196 193
234 95 99
19 113 108
112 118 42
85 28 14
57 173 253
75 186 121
23 69 183
175 87 177
220 144 254
27 205 7
236 231 224
244 190 154
6 137 162
1 240 156
76 55 57
21 98 224
221 93 23
33 98 70
250 246 114
83 121 238
27 240 139
34 15 108
254 52 167
116 100 57
208 85 207
73 97 61
128 151 193
165 203 114
242 126 120
4 112 190
205 23 218
218 179 248
250 102 18
236 108 184
167 68 102
62 16 59
145 163 251
115 38 105
157 233 81
50 180 23
132 109 142
121 46 97
65 103 214
10 229 201
249 0 196
170 19 177
41 166 240
130 133 222
62 142 45
163 58 153
169 118 170
133 232 191
108 142 193
164 192 116
230 82 226
203 158 34
120 29 163
63 3 112
16 168 24
47 163 219
176 8 123
169 247 227
23 50 24
55 13 61
170 19 225
184 133 192
111 3 148
75 210 15
242 152 213
143 103 24
95 48 113
109 184 231
16 95 3
139 64 20
192 75 52
94 223 250
230 162 125
221 24 51
177 143 130
33 33 49
149 31 89
19 188 245
98 1 213
248 251 97
200 97 255
155 48 164
142 123 127
107 147 183
81 160 221
2 232 186
65 81 208
166 44 136
101 254 153
10 158 76
206 71 227
228 231 27
175 126 224
248 167 193
95 61 96
168 54 68
88 215 192
185 63 25
247 102 42
224 99 123
191 73 118
129 1 128
208 60 11
101 96 106
234 27 133
47 27 114
156 84 203
71 217 84
55 191 251
245 203 210
33 196 8
127 160 196
90 239 76
245 206 216
201 114 237
203 35 121
241 75 136
223 110 27
170 182 112
10 186 136
17 129 218
117 157 79
137 44 69
161 110 92
100 7 120
101 238 183
110 154 251
198 210 48
206 61 61
192 190 212
219 196 124
205 42 170
91 176 117
143 96 32
178 203 192
81 175 34
82 52 98
218 241 105
154 229 223
66 42 227
165 149 68
179 32 98
41 91 173
199 198 160
52 93 180
105 122 207
171 101 155
185 236 184
114 59 148
255 168 240
149 160 244
237 6 248
91 46 116
135 112 80
231 100 198
195 59 237
78 132 91
0 72 143
115 121 135
129 163 175
135 60 67
137 162 52
253 81 210
133 31 190
15 44 173
58 223 15
210 120 64
97 133 67
100 245 126
63 224 95
8 31 169
215 250 243
57 197 131
236 9 160
171 254 11
119 83 249
173 163 140
16 37 226
112 199 118
133 4 118
29 50 226
17 81 206
52 111 103
132 56 36
201 162 149
55 230 136
228 170 5
44 226 199
106 28 251
8 206 231
84 86 113
138 164 164
26 40 95
8 93 62
31 9 65
29 56 245
240 36 139
201 33 197
51 15 17
62 106 254
12 49 207
135 32 172
89 189 173
83 240 138
39 11 175
143 156 168
208 39 126
40 21 222
217 88 157
72 253 23
220 16 58
223 160 35
12 127 238
247 96 34
98 88 64
181 175 38
170 63 215
62 85 149
139 233 106
108 159 45
38 141 40
12 126 52
12 209 211
237 141 111
85 254 58
10 185 196
195 161 180
162 184 125
210 189 132
234 44 167
201 213 22
113 39 183
141 246 147
159 2 179
149 215 88
250 168 138
207 85 22
255 232 117
182 62 92
4 41 235
223 252 143
3 135 107
81 34 175
167 26 28
133 233 124
1 156 65
175 10 79
247 77 160
232 234 30
58 16 60
95 239 60
171 81 1
172 2 254
7 99 237
56 165 242
116 21 240
36 199 113
68 244 39
174 220 43
152 44 29
54 136 61
23 91 72
51 20 113
46 32 251
156 98 146
59 240 0
114 221 195
169 24 32
176 53 50
148 184 230
29 199 163
86 37 64
61 80 27
192 154 95
150 161 116
55 234 46
105 233 118
11 82 229
225 66 99
21 9 157
232 188 96
122 186 94
111 146 90
170 115 33
195 66 241
12 211 97
79 51 209
43 62 24
253 75 182
106 166 135
1 3 166
86 106 200
145 145 142
250 56 120
233 189 194
198 188 218
7 197 137
88 121 190
107 122 233
236 121 132
34 25 247
6 15 35
36 84 190
62 14 196
15 155 157
32 138 145
104 161 96
8 28 155
104 149 165
162 116 65
70 69 99
17 157 32
10 95 33
150 151 177
182 106 151
190 71 81
183 10 112
130 246 23
9 208 206
252 46 170
193 41 139
145 138 233
232 201 6
255 9 246
185 31 44
235 12 82
31 21 165
139 134 65
228 21 210
8 159 12
29 2 235
215 3 103
104 62 85
97 231 49
101 182 1
218 103 242
208 250 3
65 168 4
208 205 255
87 27 253
78 77 212
32 159 110
82 0 185
217 255 51
61 132 181
176 85 148
69 198 23
25 117 60
171 186 1
29 147 21
6 30 156
222 173 199
182 141 60
240 203 118
240 110 96
108 183 78
137 26 39
113 10 24
238 45 4
184 244 134
189 144 179
71 120 172
219 34 141
24 12 105
56 97 139
71 3 241
164 146 125
224 12 194
128 236 129
40 150 34
66 125 6
160 23 222
83 112 117
195 205 107
246 232 139
151 185 12
193 149 91
168 160 53
38 17 53
144 200 15
28 121 71
36 27 31
23 218 49
113 64 203
254 246 36
49 135 238
211 156 102
171 164 210
117 171 87
253 105 251
100 11 183
157 147 248
34 131 150
98 138 191
15 98 114
213 204 73
55 132 39
163 255 40
104 66 10
9 23 219
245 88 16
146 72 231
209 122 115
78 149 195
142 24 28
72 43 208
127 71 251
83 220 10
85 156 129
83 245 232
215 251 6
41 217 28
245 19 2
50 7 44
75 120 142
32 3 4
230 66 55
243 8 3
29 190 28
13 186 36
183 101 156
220 65 190
230 171 11
182 97 72
185 64 190
160 100 24
67 107 235
116 201 26
15 135 159
53 118 225
81 76 243
235 78 86
95 203 184
226 213 165
21 199 6
135 99 113
14 176 81
51 141 202
25 56 106
94 115 95
254 201 196
77 221 190
241 104 182
7 252 12
95 18 87
71 204 11
177 230 254
240 142 235
180 152 4
187 166 98
70 46 13
206 134 45
51 81 207
162 67 243
214 132 111
187 19 33
107 237 14
19 95 72
137 196 38
129 176 60
89 42 48
210 61 33
132 56 77
222 61 96
214 57 51
8 46 128
157 47 156
22 213 90
187 8 224
74 99 242
23 0 0
4 140 193
233 131 225
219 13 31
60 25 140
80 171 118
105 93 199
53 158 108
82 114 45
103 238 207
150 227 88
199 4 207
115 97 213
193 160 3
99 230 176
43 60 120
51 169 198
36 88 161
23 237 74
158 61 104
50 101 42
164 58 12
198 250 170
127 37 180
95 156 141
177 211 69
38 83 118
78 122 0
164 221 19
150 55 114
79 21 39
33 2 162
87 214 124
230 95 132
107 200 95
158 94 120
86 155 174
251 112 164
255 216 227
215 157 102
253 226 172
104 130 224
39 223 229
102 75 233
185 224 252
19 26 52
110 72 214
16 70 133
221 204 138
241 58 66
53 250 0
110 152 195
204 224 40
66 151 175
118 180 87
121 66 120
233 238 232
220 71 99
158 159 43
14 166 151
114 182 192
152 233 200
83 54 191
182 144 141
7 29 226
28 51 199
103 218 112
178 127 28
135 98 143
82 187 178
164 142 36
153 200 170
7 76 192
73 45 73
63 211 218
247 80 69
173 32 173
152 98 4
248 245 63
165 149 234
31 47 145
208 37 111
102 110 195
26 70 123
203 111 66
250 52 34
220 241 186
9 73 121
181 11 200
113 148 5
139 47 92
85 108 126
36 13 237
9 188 71
228 132 248
46 98 30
196 204 220
208 29 10
64 16 117
64 104 1
142 252 230
124 78 29
183 153 70
116 89 195
104 222 134
161 232 28
165 65 134
130 148 101
2 79 183
95 12 107
45 77 29
242 229 50
75 63 137
51 52 101
245 53 210
175 22 36
173 143 51
130 120 162
80 50 192
65 130 50
31 25 155
163 26 4
120 60 72
192 13 241
154 118 189
30 0 15
11 211 191
72 0 205
36 144 38
53 237 255
40 112 46
210 143 189
43 255 95
191 198 48
30 102 73
147 18 233
42 69 41
164 173 72
26 242 216
230 229 33
196 190 137
227 26 143
191 222 27
42 97 114
8 34 239
225 73 112
139 179 33
43 157 236
180 120 57
211 33 134
129 248 52
53 158 104
152 229 226
103 39 109
3 110 17
235 49 76
189 183 49
44 136 212
122 89 5
15 145 200
141 191 217
64 70 57
48 185 94
44 175 164
254 220 161
31 160 214
134 87 173
99 153 97
185 165 205
140 246 212
182 70 204
177 78 231
78 67 174
133 145 142
181 165 89
128 84 232
28 67 136
31 95 110
65 5 129
10 194 241
169 202 125
46 147 57
104 253 213
9 240 125
41 227 48
33 213 240
217 236 219
10 13 181
198 39 160
4 233 191
58 110 210
2 67 66
130 221 24
246 198 236
125 180 103
5 222 11
166 237 228
73 111 59
70 44 131
110 139 162
231 92 70
137 140 42
108 165 195
100 176 85
134 36 183
47 69 250
255 34 141
243 190 148
8 18 34
238 18 4
2 43 136
115 215 22
247 44 71
172 251 168
149 206 177
40 16 199
178 166 115
223 190 60
198 99 79
165 226 35
65 213 63
50 75 156
40 159 168
202 56 204
114 86 94
155 85 54
132 164 224
200 193 16
145 46 198
168 152 19
98 226 223
129 73 0
155 237 187
250 38 192
203 7 181
200 173 51
191 53 249
77 236 158
153 40 158
64 236 174
241 249 203
119 210 176
36 60 165
251 219 136
143 26 224
143 72 51
58 242 19
10 18 231
234 98 153
223 171 146
184 99 119
39 80 55
242 249 21
212 117 35
146 216 28
192 105 111
144 123 175
158 44 254
174 164 142
57 117 7
19 37 168
47 159 210
175 30 187
185 72 191
34 146 127
47 126 230
172 212 150
15 145 114
205 248 249
34 252 216
58 80 61
102 132 56
94 210 170
99 231 92
74 178 191
138 208 98
21 61 160
189 151 173
105 153 241
117 5 243
7 54 181
5 28 29
253 187 32
3 219 169
130 33 106
9 175 11
125 235 221
235 73 91
127 169 9
231 227 240
165 90 150
145 34 127
107 73 80
118 239 64
229 21 152
17 9 178
19 14 208
132 63 215
242 225 60
126 24 162
138 234 13
21 173 70
2 206 76
220 65 73
137 56 7
172 230 44
149 238 14
243 235 113
63 81 110
77 178 58
234 29 181
128 210 174
9 230 227
239 39 79
74 116 155
215 35 141
64 169 204
165 45 242
129 11 66
107 81 232
17 211 173
59 7 62
19 225 70
174 171 148
235 71 195
46 241 123
172 31 147
55 5 28
217 92 235
116 198 141
221 119 144
67 162 108
189 191 204
196 217 62
205 32 240
52 91 166
215 131 53
139 60 183
191 183 249
184 150 219
208 231 191
200 30 232
29 226 214
136 185 191
207 155 84
45 81 3
64 207 44
21 211 11
63 56 145
169 253 121
253 226 103
0 203 95
238 119 204
235 131 39
108 125 186
12 66 14
210 15 146
173 175 52
40 106 232
26 139 68
208 172 129
72 103 27
91 248 4
227 88 29
164 64 206
113 136 195
253 5 249
215 25 237
185 36 45
222 171 90
151 198 188
124 157 126
83 199 150
163 252 209
91 166 204
100 68 155
231 250 21
59 211 214
83 88 170
207 30 112
218 23 220
124 241 196
194 211 83
15 25 19
68 86 197
240 150 228
29 13 50
166 161 116
185 113 83
60 51 122
76 15 232
51 253 247
4 121 108
142 216 241
19 186 107
172 84 238
78 78 247
124 142 149
98 129 103
230 101 219
74 250 160
251 176 36
43 200 12
140 168 109
151 121 104
120 118 127
127 61 205
185 209 119
207 100 254
240 140 121
188 82 145
23 140 67
196 14 96
177 154 146
29 102 197
5 239 101
62 251 144
59 165 80
88 103 84
157 55 67
226 171 210
222 187 85
33 93 174
66 12 132
171 18 11
205 205 79
163 207 170
215 90 30
220 1 151
165 124 123
173 174 78
152 103 81
73 251 68
57 30 5
4 116 57
66 88 169
48 0 198
60 209 11
165 207 209
46 84 248
141 10 13
174 206 159
146 100 170
242 48 191
155 188 248
249 127 25
89 100 98
100 79 141
173 24 217
109 235 220
238 47 13
238 80 210
167 4 126
93 232 242
140 211 204
218 66 18
57 49 159
56 235 134
229 196 74
113 218 77
84 44 231
225 39 31
119 95 246
158 230 241
101 0 56
30 238 128
73 32 85
146 34 135
120 137 28
121 252 28
10 14 36
201 106 116
36 50 164
13 194 189
71 82 48
166 1 0
40 77 26
156 82 98
70 134 34
4 67 113
71 209 6
243 76 67
169 21 146
187 119 45
117 212 154
231 28 216
95 93 124
195 17 253
245 64 245
143 38 23
186 89 133
205 175 151
80 219 115
220 130 215
11 145 172
186 229 115
32 25 26
137 118 143
99 87 129
101 196 24
165 149 245
195 174 144
132 124 193
218 6 187
34 134 78
247 198 166
88 24 50
79 2 123
211 113 157
1 36 70
127 210 204
228 203 196
192 143 154
152 238 168
64 12 5
195 247 209
166 36 69
119 18 228
210 236 8
109 239 75
237 13 245
2 95 128
214 191 224
125 228 103
128 47 128
152 197 146
131 27 128
186 18 79
113 171 210
93 178 127
20 219 238
4 13 205
127 111 238
112 85 245
204 198 172
200 78 163
228 221 205
174 241 191
150 0 141
173 68 237
158 81 226
178 84 179
130 101 122
209 1 23
56 23 251
130 197 201
35 52 207
207 197 14
171 138 156
52 33 86
43 167 147
152 23 92
243 125 183
139 39 50
199 124 136
94 250 232
121 107 158
229 142 83
46 207 100
62 199 140
216 255 211
213 35 158
44 222 229
181 188 213
43 80 173
96 143 117
89 92 69
142 209 193
133 247 184
246 215 232
92 141 185
131 23 159
232 204 174
124 66 155
168 71 87
2 104 94
26 147 46
148 79 221
104 171 97
92 197 124
182 211 110
233 197 60
231 93 190
30 39 68
64 216 96
31 66 121
13 21 246
98 125 63
69 226 195
199 229 125
164 185 217
225 43 81
213 159 192
30 247 251
214 122 82
233 79 100
147 170 193
31 17 32
210 231 74
13 234 58
215 112 134
96 2 184
244 85 44
143 107 18
161 249 25
72 145 226
227 159 129
199 139 74
241 205 12
189 219 242
108 250 145
137 91 66
236 36 86
142 56 89
127 11 151
145 216 70
104 99 250
0 235 109
207 113 207
102 26 187
242 76 17
69 218 253
24 225 82
26 42 76
207 215 140
65 211 119
72 157 121
153 172 39
62 45 159
136 35 115
117 85 116
139 198 175
140 10 33
136 49 248
19 66 196
35 22 18
209 226 133
74 218 37
202 139 164
32 84 204
126 32 17
161 219 198
159 58 183
32 74 182
175 242 231
201 197 90
99 111 74
167 99 172
203 191 155
163 13 237
111 247 83
173 120 6
67 225 122
192 165 14
217 96 198
32 139 192
115 227 195
80 229 126
102 132 183
77 163 204
62 229 60
71 147 87
138 66 111
157 209 90
144 8 43
224 232 169
114 212 227
97 163 87
0 9 58
26 69 36
58 142 92
249 2 194
67 57 55
229 41 253
201 102 32
206 3 14
15 11 10
222 184 207
71 79 2
87 178 188
5 249 142
251 183 25
229 19 175
192 153 144
16 99 1
246 244 20
216 18 148
22 168 40
232 87 29
189 219 14
241 160 94
20 16 183
118 212 148
110 58 123
149 27 41
104 23 177
153 172 228
127 205 26
57 242 5
46 62 149
247 123 188
158 33 113
233 146 46
230 207 223
160 77 216
66 236 54
189 113 170
80 87 95
174 244 144
126 206 160
171 188 5
233 150 6
193 156 72
61 245 15
105 112 83
254 216 122
255 212 133
34 117 15
146 130 194
11 83 90
156 46 90
51 15 124
85 134 89
15 223 93
191 159 14
236 42 211
3 53 138
230 45 17
212 102 155
131 25 30
84 149 55
85 156 206
72 172 233
85 163 183
222 123 116
25 158 31
182 135 163
205 89 225
215 26 33
121 12 5
248 12 197
36 112 114
22 3 85
197 108 219
165 41 40
31 139 123
183 14 80
210 69 125
109 216 128
105 70 240
72 22 2
146 33 138
11 206 185
247 252 48
185 192 153
39 29 208
12 215 21
129 7 111
142 95 138
153 120 124
171 185 87
31 120 56
136 22 61
147 22 140
232 17 173
160 229 64
178 63 162
91 8 188
243 181 237
8 79 218
145 144 17
239 137 110
142 129 97
199 162 77
157 177 54
46 53 142
187 109 173
65 234 41
193 54 6
31 75 235
224 104 35
30 207 139
89 210 25
26 30 72
75 244 47
18 141 30
17 58 177
194 107 151
140 174 89
166 86 174
49 222 43
46 23 43
217 151 188
151 194 0
124 91 230
166 14 249
36 189 166
61 55 54
69 29 30
99 91 63
182 24 11
111 103 182
179 181 110
125 235 87
202 211 91
198 83 34
233 217 186
32 85 47
14 244 20
160 125 176
208 191 0
47 174 33
151 50 56
242 33 97
201 144 141
225 46 141
44 231 33
208 133 210
175 205 69
121 175 0
175 244 41
236 109 169
201 170 164
209 55 59
193 107 159
113 236 121
250 246 129
54 106 16
158 190 218
28 131 5
149 63 95
246 117 243
57 140 20
238 42 245
161 254 172
121 146 174
144 133 228
31 40 135
152 179 177
55 27 40
111 41 26
236 238 111
15 88 241
231 101 176
123 238 163
60 74 252
239 45 53
3 236 60
253 126 209
190 28 211
119 1 12
128 101 99
244 138 44
231 58 91
218 170 116
199 19 146
252 28 51
71 233 182
28 183 57
178 12 101
38 86 6
122 6 254
233 67 102
106 248 8
24 156 230
135 95 62
216 59 216
0 120 214
248 134 58
136 156 62
121 216 220
60 137 69
178 70 80
12 146 179
154 34 127
54 127 33
14 99 142
219 142 44
75 71 105
142 124 148
45 60 225
195 117 128
63 1 141
240 226 137
171 160 114
209 203 15
80 131 204
227 102 62
184 122 172
246 105 147
249 245 156
29 25 83
148 208 117
224 126 155
95 195 162
101 67 124
123 82 71
120 168 237
185 86 111
213 35 186
222 11 22
77 104 82
63 184 68
64 52 162
190 18 120
62 75 172
127 226 143
8 187 127
159 218 24
166 101 201
58 168 67
249 164 22
148 88 244
140 226 154
73 228 73
24 161 108
15 50 104
225 94 141
111 105 7
62 4 25
210 6 43
151 99 96
171 19 125
82 97 110
23 49 155
6 32 214
206 228 155
222 250 255
207 9 238
223 2 17
223 206 79
136 178 111
62 166 250
61 205 62
218 219 92
243 148 214
245 176 146
77 234 15
166 67 122
43 29 171
21 127 146
84 38 222
160 200 60
244 109 238
16 159 138
129 220 170
115 140 79
155 74 157
141 109 92
28 201 61
222 31 135
255 217 223
81 6 139
138 69 229
188 42 17
146 179 89
24 248 191
54 148 111
34 8 146
134 209 69
56 51 199
12 90 107
46 156 240
23 107 126
164 207 61
140 192 192
59 44 216
174 11 232
59 209 84
83 172 183
13 235 224
107 81 252
61 204 91
67 6 89
187 184 9
142 229 213
201 130 77
178 60 230
223 54 0
127 46 243
130 44 205
182 87 232
4 161 121
134 199 96
32 214 92
90 135 41
68 252 211
80 137 33
31 100 47
156 159 208
142 164 8
174 24 86
186 127 51
63 178 92
242 242 253
59 226 241
120 49 223
204 47 23
5 177 161
116 170 228
175 201 60
170 132 33
78 146 12
246 140 82
24 136 7
158 65 73
14 144 178
77 212 112
153 198 93
232 142 60
122 134 60
107 198 184
114 54 96
16 78 138
223 221 190
130 218 121
80 234 154
243 118 191
168 185 24
25 32 100
33 143 86
197 51 229
250 73 176
3 149 206
169 6 168
107 206 28
69 23 191
176 7 59
239 7 79
219 214 91
204 251 5
35 210 234
118 223 28
130 31 90
16 133 170
66 120 253
46 218 232
253 71 140
192 38 32
206 8 222
198 73 95
168 221 122
168 59 0
185 244 50
148 157 29
119 39 233
81 18 110
49 215 79
111 41 182
158 88 73
56 72 181
182 17 48
215 36 15
190 242 139
195 104 222
79 16 65
17 95 241
200 118 26
245 77 200
130 5 226
93 146 179
100 202 86
183 95 246
0 189 54
235 28 146
173 161 234
219 190 244
81 13 43
184 25 124
168 179 219
188 54 215
165 70 90
78 142 255
42 39 98
61 65 178
176 236 53
11 186 167
95 117 207
35 160 125
172 183 156
27 250 148
95 141 166
189 19 93
129 229 34
118 189 211
73 231 181
210 108 214
241 68 227
93 200 7
62 237 155
2 110 2
48 108 75
78 36 37
167 8 95
75 222 183
110 123 152
231 237 141
214 4 21
87 175 217
162 56 47
18 221 0
56 178 110
184 92 231
12 59 226
133 131 141
223 118 154
179 165 17
94 156 100
148 158 246
238 181 14
86 46 59
2 123 214
232 38 171
125 55 61
62 125 253
118 103 122
158 194 166
149 46 108
121 146 109
60 91 160
173 85 168
131 76 74
122 97 171
5 72 209
152 51 67
221 98 100
227 1 135
161 69 107
43 94 1
68 60 147
161 185 211
34 246 144
33 227 105
209 41 76
108 31 29
65 198 223
154 48 54
102 28 13
157 152 248
53 181 38
189 17 219
128 49 228
85 47 119
168 35 249
253 95 229
111 243 120
197 157 60
149 20 220
59 96 136
164 162 211
71 28 214
37 249 156
20 131 183
180 15 107
143 138 73
66 55 114
60 188 139
139 74 141
40 172 187
212 244 4
187 208 172
244 250 156
173 144 207
249 56 224
52 75 196
83 55 2
156 84 122
193 50 143
134 148 190
82 181 11
34 134 68
189 167 105
25 8 66
232 229 149
228 80 157
228 58 86
183 135 193
84 244 208
131 33 207
227 201 57
91 105 186
135 110 150
120 175 124
241 229 176
25 144 235
29 26 134
163 118 60
149 206 103
218 149 215
147 220 105
227 195 44
183 161 218
20 175 185
182 59 181
160 93 116
66 55 216
29 35 138
186 243 148
94 133 220
209 12 22
233 80 45
126 136 152
122 155 157
167 70 237
110 18 165
31 3 41
233 57 27
57 204 234
161 198 65
225 39 34
100 14 190
84 171 78
24 177 229
169 241 240
135 51 89
95 14 216
107 87 55
70 101 87
150 165 74
24 104 249
117 68 224
236 242 208
155 255 125
60 136 240
31 133 32
91 45 68
104 128 67
116 98 140
0 171 166
75 96 181
202 125 208
149 250 153
118 20 188
21 117 110
145 108 211
75 119 32
174 178 70
156 127 103
216 3 160
176 251 111
7 133 201
30 117 65
97 242 9
3 120 69
227 174 128
81 132 61
124 69 167
7 82 205
229 4 157
0 173 126
72 211 190
208 56 97
0 173 2
89 74 24
245 181 53
161 5 231
175 143 3
230 188 86
148 146 78
193 144 54
112 113 236
11 136 168
184 38 216
60 23 236
185 127 240
97 23 167
246 76 251
130 11 215
139 175 66
83 46 192
200 207 24
78 2 98
16 212 180
248 77 241
28 75 230
207 178 247
66 8 165
237 226 254
236 115 236
103 190 210
1 93 179
55 208 234
166 151 214
234 174 10
189 68 132
106 36 255
140 234 157
156 62 168
0 247 147
200 172 145
112 176 165
188 97 243
48 14 75
99 97 187
59 211 133
229 172 5
220 106 135
2 117 59
46 199 67
59 68 237
232 186 18
118 139 153
234 246 155
110 49 5
114 247 97
107 211 70
62 214 82
29 209 49
166 225 248
215 170 132
192 29 169
196 218 1
251 98 30
85 48 48
103 122 177
230 50 250
128 63 179
195 214 129
126 209 168
75 118 143
177 239 6
13 57 253
36 125 18
241 1 9
79 126 31
208 196 188
70 153 152
79 26 187
79 99 135
19 192 9
230 74 223
56 106 95
248 129 198
107 141 248
55 231 216
25 178 106
14 205 9
105 93 190
136 181 213
187 5 205
98 185 192
35 85 143
246 85 138
244 104 240
93 111 253
226 80 251
55 196 80
137 160 229
126 7 8
50 232 225
71 139 168
173 184 10
249 203 117
235 178 247
46 217 27
222 187 103
167 202 217
86 7 13
51 154 141
252 40 112
18 26 190
13 229 103
152 203 71
174 96 46
148 240 214
224 212 34
142 12 14
175 104 252
111 113 54
218 65 171
218 168 115
119 166 200
60 244 22
1 105 42
184 63 208
147 95 223
249 207 14
110 186 241
209 177 10
181 230 142
82 87 72
222 72 74
73 108 3
232 202 20
124 24 139
184 0 17
55 227 10
170 45 183
114 228 233
36 187 142
180 120 159
174 232 135
120 205 120
82 239 37
168 247 20
88 154 68
236 5 21
37 124 57
166 145 169
53 208 115
15 171 124
107 171 29
210 22 39
212 12 60
126 232 36
166 102 55
66 153 217
0 234 130
121 70 223
193 235 153
90 108 86
40 53 214
56 241 16
8 138 146
190 150 155
3 224 40
137 124 46
143 154 59
113 134 80
163 114 232
88 156 223
127 141 204
159 91 239
150 213 115
10 30 30
150 70 84
20 149 228
83 23 64
45 212 149
64 108 84
137 232 222
172 193 98
25 3 48
80 49 165
14 81 208
31 75 248
137 94 201
176 162 28
18 183 226
88 193 199
74 187 49
170 96 209
212 198 154
15 147 40
2 207 69
205 69 180
20 231 25
65 59 106
194 89 175
55 141 43
231 241 69
135 26 57
23 231 222
168 16 112
215 89 73
174 85 38
235 120 182
60 188 230
193 155 32
156 58 153
202 23 186
141 138 89
226 29 220
156 135 210
1 186 195
189 240 113
108 76 86
218 112 120
213 54 5
26 108 145
117 159 202
38 207 19
161 87 19
11 183 185
81 199 123
36 185 94
8 40 249
179 180 118
142 97 119
77 238 125
173 19 174
160 67 105
19 81 44
179 201 202
78 185 23
90 2 19
87 145 26
139 229 244
58 50 69
86 143 81
141 174 166
80 21 143
176 164 62
133 166 214
18 122 100
78 56 222
236 221 134
182 240 109
225 250 87
2 118 250
187 141 30
92 196 48
83 28 211
229 128 70
189 14 197
28 154 249
55 96 139
165 61 0
12 191 99
99 29 170
67 108 241
190 201 6
172 202 47
25 97 207
5 168 50
108 246 88
67 175 28
120 211 18
13 90 166
66 146 40
66 132 249
137 12 32
159 81 149
92 170 239
75 134 69
130 249 187
59 122 106
127 96 46
247 40 101
189 213 212
123 33 69
247 252 79
103 2 72
41 225 53
97 13 218
164 149 218
3 67 92
213 102 24
87 43 45
50 76 199
166 175 23
246 1 172
126 213 175
82 198 113
112 204 246
158 55 31
142 179 21
217 223 173
231 238 110
224 152 60
208 126 8
166 226 47
80 89 113
216 221 121
148 101 85
199 83 223
225 2 23
58 146 207
153 50 108
71 99 44
90 148 216
36 91 154
90 130 59
91 73 171
106 57 93
49 144 15
122 153 43
245 168 43
23 59 106
181 105 128
161 51 154
100 21 248
242 125 91
64 172 29
95 186 197
247 151 106
29 112 32
232 218 152
49 170 184
232 122 184
26 91 29
102 131 220
10 160 159
60 14 41
63 237 56
113 67 106
2 98 112
126 152 112
209 128 180
70 177 183
106 52 62
92 204 180
209 102 192
66 141 133
58 120 234
75 92 96
81 136 177
200 46 189
17 122 55
95 12 38
34 142 185
206 214 157
85 127 95
132 12 64
73 136 245
128 56 236
141 148 185
220 246 83
245 148 95
186 123 200
55 126 37
25 162 188
170 172 164
172 136 233
109 52 140
189 87 247
96 25 27
52 17 165
233 47 151
15 248 167
235 148 94
38 243 88
195 82 154
236 77 47
148 17 173
236 178 104
56 218 60
162 213 146
24 78 143
188 71 87
142 177 172
140 6 79
223 180 239
155 237 201
70 174 197
194 244 213
151 110 224
177 54 250
21 137 7
52 19 102
226 169 145
47 99 56
42 47 215
118 61 170
68 3 1
164 126 127
221 4 7
203 62 93
85 70 151
74 228 214
94 207 118
142 136 203
148 189 92
36 255 80
190 133 255
208 43 11
157 1 194
60 209 202
96 159 213
164 172 26
120 234 47
171 71 23
242 159 10
152 131 55
208 7 115
189 19 179
100 1 193
136 49 27
186 123 134
14 158 49
92 77 127
93 200 46
118 54 29
166 79 112
197 93 87
148 119 70
104 205 167
85 167 176
204 117 199
215 15 166
200 151 137
60 212 163
186 44 99
145 123 47
103 102 64
128 0 219
57 11 95
58 2 169
231 55 131
233 37 112
133 29 222
28 136 174
168 8 134
225 127 105
210 173 86
193 121 72
222 227 6
5 57 123
89 127 83
218 73 202
141 27 176
77 117 17
99 28 148
229 232 87
61 75 155
233 68 232
98 65 128
153 172 238
9 14 195
145 14 87
94 16 21
117 216 101
217 165 10
80 111 188
56 117 9
208 75 252
70 70 20
166 202 228
129 178 203
92 41 165
188 67 18
221 126 87
66 113 173
164 98 30
213 254 65
194 68 202
137 239 216
112 217 212
219 228 48
178 140 186
137 208 73
221 141 115
211 49 153
0 183 133
161 159 96
108 73 33
17 168 171
135 185 202
88 230 146
214 68 223
125 19 116
30 104 166
167 47 116
187 37 5
96 251 57
94 188 233
73 57 87
139 206 113
137 127 255
234 97 47
249 194 84
74 183 84
24 187 38
103 90 39
168 234 11
38 31 162
32 222 133
246 99 35
214 172 158
115 38 34
181 76 71
10 149 251
229 108 4
126 67 48
170 104 114
68 127 233
102 178 41
113 158 226
59 23 39
115 17 157
191 110 27
240 113 228
204 55 197
126 218 210
47 249 107
187 131 190
110 239 56
70 200 146
66 117 230
147 231 210
109 254 250
14 239 171
15 105 144
124 178 28
124 21 248
63 206 247
226 164 11
67 243 59
106 179 139
254 12 75
233 70 137
193 17 86
234 126 162
237 89 2
165 45 34
72 236 87
77 237 113
113 129 84
130 183 44
25 85 5
193 144 229
206 254 236
242 207 132
12 215 82
221 225 18
124 20 174
106 234 41
119 199 151
246 144 161
168 38 188
71 130 157
96 200 132
15 60 3
221 97 139
79 143 24
87 32 78
133 26 167
80 2 218
6 110 216
78 40 183
160 193 198
156 217 200
121 60 46
252 42 118
234 62 120
103 121 176
232 177 183
120 64 51
44 194 122
146 161 162
120 77 202
107 131 195
222 79 1
198 61 87
184 131 224
219 170 24
221 140 121
5 23 12
142 125 44
221 199 12
181 12 10
233 90 177
163 189 189
122 128 11
28 233 29
30 175 121
88 173 31
215 36 213
179 186 202
217 118 207
145 10 208
212 237 138
203 96 166
58 34 17
13 222 253
186 119 81
82 196 240
1 80 191
174 146 23
229 51 163
91 53 105
171 154 101
78 219 198
72 122 251
61 255 37
133 60 169
41 211 212
6 203 98
7 132 87
52 232 223
1 79 214
98 203 103
91 201 157
118 154 59
37 44 255
84 199 43
176 34 168
220 21 62
13 240 41
16 60 150
196 54 223
208 19 244
91 110 96
91 67 244
141 201 23
221 66 12
223 51 194
172 160 219
87 117 179
1 17 154
77 121 15
251 26 16
130 5 44
99 178 249
186 203 87
227 115 243
44 148 114
10 10 219
249 202 214
221 238 135
160 236 194
177 158 244
222 117 17
68 131 8
50 89 249
139 95 81
12 198 20
9 84 33
19 189 131
56 229 168
5 44 162
138 190 116
248 38 103
184 139 215
198 22 179
214 241 17
180 34 66
90 214 33
123 46 102
143 31 131
218 6 83
115 194 227
159 249 187
185 76 129
251 49 240
85 134 120
222 165 76
150 60 68
6 152 236
20 111 47
140 210 2
235 136 48
20 48 30
147 209 33
116 138 9
119 43 133
219 65 166
16 68 185
183 166 253
52 6 143
252 210 73
244 175 244
6 95 205
79 156 174
249 66 135
11 176 170
206 50 56
13 12 253
6 214 22
29 176 229
154 210 176
74 125 180
179 11 178
244 184 122
211 160 131
34 175 48
24 210 162
49 25 182
27 9 40
193 40 32
111 236 67
195 225 213
53 104 111
21 146 178
194 61 151
29 26 2
220 142 46
77 157 253
247 51 227
10 210 218
6 0 239
239 132 54
0 167 242
89 86 205
249 220 129
196 13 137
160 18 210
228 103 138
194 192 173
204 21 40
235 16 210
187 4 108
62 40 142
132 227 101
214 90 193
42 126 207
183 107 228
139 101 37
166 102 82
151 177 233
128 5 85
164 73 214
73 187 88
46 160 130
213 16 96
87 7 128
127 197 98
212 86 130
17 97 250
70 176 97
43 176 99
237 78 62
194 211 70
22 218 163
61 142 49
199 10 128
224 233 216
253 225 83
131 179 129
160 183 199
243 220 123
208 248 123
4 188 33
76 45 244
194 56 91
29 7 56
59 104 60
50 92 48
255 125 145
7 255 102
48 228 86
111 148 148
40 38 151
236 130 29
174 48 144
43 214 232
154 129 197
142 43 121
19 155 237
42 43 30
175 150 12
5 101 17
21 34 84
222 120 138
150 191 85
155 25 207
149 82 7
201 82 225
39 172 154
131 30 121
95 106 34
10 36 134
209 243 18
190 148 51
174 240 181
14 72 74
81 38 187
143 168 78
6 68 203
83 154 241
223 50 235
83 58 209
13 142 74
43 74 17
7 22 28
103 142 18
151 20 189
2 188 111
92 17 146
0 77 103
172 217 163
129 103 153
38 201 149
18 91 250
181 7 83
163 26 168
112 53 237
52 24 10
114 171 123
215 242 187
202 166 111
77 174 100
77 8 211
158 245 34
21 212 59
76 114 216
111 117 107
134 42 76
74 245 79
145 65 91
209 170 81
177 120 186
135 63 231
166 21 240
125 190 120
149 75 142
44 119 28
141 159 12
225 228 248
127 85 36
247 232 246
202 180 63
12 22 82
149 50 90
190 195 8
12 73 144
29 148 200
113 174 187
84 121 147
153 174 129
2 6 167
132 180 75
226 141 96
196 144 118
249 46 190
47 205 191
254 159 134
131 237 84
205 144 167
226 163 66
141 6 176
57 189 227
249 50 193
28 4 18
237 142 130
70 83 113
66 206 119
125 51 68
150 19 40
119 93 171
34 89 190
144 234 204
31 144 238
212 148 103
29 61 185
66 64 3
12 118 163
205 77 158
85 242 211
13 135 197
131 224 72
80 191 77
144 112 168
213 26 54
42 4 242
227 9 103
33 117 216
15 149 59
17 214 194
53 166 41
72 42 120
28 211 45
122 28 42
106 229 112
138 122 149
227 228 11
32 161 254
187 175 116
243 97 79
195 133 41
235 39 112
53 49 209
200 205 213
168 251 254
220 167 31
70 223 242
161 87 20
106 88 207
202 61 13
135 161 21
170 22 59
253 99 167
236 133 162
87 61 226
225 59 33
31 98 227
82 246 180
22 128 71
127 165 139
75 130 36
156 113 101
74 91 222
141 171 64
68 80 162
241 98 201
146 54 114
68 216 104
237 73 170
110 157 216
181 113 232
158 126 176
75 137 214
20 146 22
246 219 142
19 195 22
193 122 156
52 253 63
75 169 110
194 19 114
125 222 105
212 145 162
188 86 1
166 181 215
135 234 151
68 229 101
129 0 60
151 126 125
213 32 225
156 131 83
215 165 19
125 81 18
120 70 140
9 27 23
114 160 254
164 42 208
198 3 161
255 63 81
113 194 212
40 199 7
206 17 60
195 53 255
171 207 148
214 242 182
57 33 140
253 138 72
193 210 100
159 236 206
124 203 10
195 144 191
228 46 224
24 236 239
43 140 29
206 172 27
62 73 246
172 122 43
189 166 68
160 167 10
253 121 196
7 239 27
24 99 81
84 223 159
137 165 28
174 234 38
131 186 140
234 203 133
65 20 165
95 227 218
58 254 144
187 167 136
173 12 229
191 5 237
167 247 115
101 43 96
144 61 208
99 213 217
80 210 184
97 71 100
125 211 245
248 77 172
171 68 168
73 35 205
153 174 99
117 122 243
159 25 243
163 138 141
202 81 125
92 65 231
180 205 169
106 240 112
91 119 229
98 212 145
201 232 117
5 248 2
105 163 226
141 16 71
255 17 79
13 33 141
166 99 195
59 68 67
142 41 125
241 229 10
198 197 27
20 124 120
15 20 245
137 2 239
59 31 123
126 24 70
184 208 42
161 223 169
12 244 144
40 214 78
131 124 38
169 102 246
142 53 175
165 82 98
35 112 175
8 116 206
196 141 40
69 253 53
171 130 110
24 227 67
53 131 62
18 192 159
85 177 210
100 32 37
122 97 201
201 53 163
222 230 91
205 243 219
102 169 200
58 212 157
223 119 30
73 201 48
198 165 227
245 129 110
106 163 135
216 186 43
194 124 180
136 214 91
100 189 59
212 106 37
231 229 150
243 33 119
205 69 233
237 99 103
131 89 137
60 142 183
18 119 43
192 18 126
175 76 17
180 109 100
3 216 231
152 170 163
3 9 8
66 169 214
251 92 155
180 72 7
110 253 125
175 23 16
213 192 80
69 117 245
203 46 132
98 64 172
201 196 27
57 72 236
176 109 138
39 35 54
77 40 219
47 48 48
137 23 252
68 132 201
147 14 32
87 214 221
81 202 25
175 201 115
69 48 227
168 68 95
47 140 12
242 180 92
110 218 10
139 239 135
255 195 121
29 49 194
160 89 68
231 79 164
197 223 117
14 56 20
180 215 25
84 165 62
113 112 33
219 100 191
207 233 39
208 44 117
232 113 212
224 41 24
112 84 213
78 206 225
63 149 76
187 99 188
136 194 79
185 247 22
73 254 28
164 2 244
89 146 200
29 93 19
30 249 203
25 67 17
79 48 6
2 19 148
128 40 158
140 30 224
177 124 186
214 81 222
49 41 184
146 46 122
80 102 52
242 252 55
202 136 179
53 182 185
95 105 44
174 8 160
111 1 111
177 54 164
159 254 14
136 17 192
149 228 73
61 163 215
2 171 16
109 238 212
229 241 170
109 176 161
170 28 159
199 49 68
113 54 184
43 95 201
31 249 246
100 76 35
170 24 216
60 168 187
3 68 15
43 111 92
13 205 99
106 82 173
3 11 190
255 54 247
109 3 184
129 161 127
225 178 8
188 228 164
216 154 251
154 250 34
239 244 94
211 6 55
18 68 123
234 220 180
8 253 235
179 3 96
199 1 8
79 146 144
183 210 138
153 233 55
20 125 74
252 58 190
103 75 146
96 94 197
217 119 133
132 59 226
115 34 43
195 13 186
59 149 149
105 127 51
224 31 250
211 78 158
167 83 198
115 160 244
163 253 228
166 226 89
95 227 145
68 201 26
91 114 221
99 244 246
99 138 69
235 217 119
203 242 24
68 50 70
163 85 127
213 197 153
97 55 143
18 10 183
127 102 102
201 250 206
178 109 243
11 87 171
42 133 233
50 227 27
18 99 123
207 61 100
72 37 188
120 109 254
126 172 91
165 233 88
48 207 211
61 11 57
253 38 217
134 67 136
25 132 11
190 114 96
24 105 228
229 195 39
49 39 52
193 94 220
116 153 47
165 75 20
66 7 149
190 133 225
5 44 4
255 148 219
177 179 68
202 92 118
56 193 192
134 130 21
143 21 20
11 68 199
50 236 57
116 204 173
59 136 47
158 101 214
73 100 154
194 233 208
148 63 53
27 5 150
56 212 135
140 20 17
13 236 122
42 188 146
167 212 43
205 98 189
77 121 250
198 203 56
124 115 130
124 83 46
149 107 126
67 112 118
144 189 173
148 249 233
237 203 57
101 174 239
166 131 18
178 1 202
138 19 187
173 209 244
255 193 4
185 202 81
139 61 97
53 136 200
67 94 255
109 180 246
49 252 12
206 51 58
241 77 197
8 246 179
110 125 61
168 86 173
1 4 77
157 189 255
247 99 54
125 206 223
59 127 110
26 147 110
128 65 15
194 166 220
62 205 90
31 77 199
145 74 102
120 253 148
132 132 93
173 223 202
8 219 32
31 121 154
97 83 62
179 209 21
2 148 240
93 55 36
219 137 107
105 251 156
196 225 128
143 129 186
188 110 117
234 196 189
78 57 98
203 123 136
61 145 12
141 235 232
218 190 10
230 103 3
34 165 246
144 147 131
254 119 60
73 205 228
68 233 175
110 78 191
213 198 42
146 40 255
199 247 234
73 184 238
109 29 181
100 62 108
222 93 209
91 106 155
180 231 45
46 74 204
113 66 154
84 146 76
119 60 194
11 240 95
169 153 131
105 137 246
69 195 88
117 54 97
10 78 224
11 177 87
53 109 176
57 203 85
179 241 169
123 175 183
217 197 111
17 59 221
54 25 73
225 47 222
77 88 6
228 44 251
22 40 115
224 179 19
245 239 217
213 102 32
5 135 231
111 237 198
201 153 123
245 10 181
15 47 86
154 222 131
181 205 41
85 221 74
213 197 209
193 136 216
223 241 174
211 1 171
80 1 13
122 248 87
16 230 61
218 195 135
136 41 114
246 226 142
77 109 234
43 72 238
230 28 241
146 255 146
79 147 212
105 142 0
154 80 104
19 150 32
0 12 191
58 252 82
119 59 83
86 53 62
219 146 32
68 13 82
44 82 225
112 62 66
95 191 227
195 65 129
29 212 66
33 142 27
145 71 88
24 255 91
110 238 163
69 69 35
103 191 164
126 147 122
193 255 88
130 73 191
191 73 246
130 6 104
168 253 183
176 39 210
241 35 242
139 13 245
82 85 165
154 178 103
137 134 8
125 68 6
190 218 44
232 180 240
71 210 215
40 140 115
147 87 6
206 195 243
152 196 223
238 51 113
73 123 58
155 112 127
189 5 242
192 145 94
80 147 27
247 26 122
123 171 239
99 47 158
140 112 212
208 161 224
212 156 115
186 103 56
28 107 227
88 216 164
201 7 134
28 68 6
124 105 212
103 99 181
42 190 39
47 119 93
116 157 155
147 10 91
0 175 226
94 96 137
209 198 212
23 56 24
51 52 38
224 144 178
202 238 251
32 133 122
54 44 250
3 253 110
94 139 65
194 53 106
179 249 73
163 11 249
92 157 25
153 98 170
8 113 169
214 138 95
187 49 79
219 195 254
134 104 0
191 68 192
58 48 64
53 116 35
30 204 35
86 4 128
156 193 149
30 218 188
87 253 126
60 69 99
28 192 143
225 237 139
129 178 50
251 187 177
69 229 189
7 80 159
189 156 77
140 251 132
158 101 152
33 195 241
179 185 21
94 33 131
187 216 55
210 98 205
189 151 191
33 48 226
10 82 26
194 189 30
208 134 135
220 171 92
164 226 33
18 217 217
197 197 39
114 41 196
94 233 100
60 112 238
159 68 109
103 211 216
28 162 30
28 204 199
152 111 91
78 76 3
225 39 62
49 80 44
4 238 182
220 156 111
41 96 69
39 201 26
78 81 81
1 184 156
23 17 130
248 61 76
132 227 90
215 205 80
239 78 141
55 121 35
250 213 134
143 196 162
192 126 245
191 171 7
50 66 19
190 86 144
149 105 164
161 211 10
116 151 173
18 127 22
226 147 255
102 30 194
2 6 233
165 55 203
233 162 142
19 48 132
255 252 121
176 23 226
23 26 230
119 32 98
40 157 20
95 15 216
41 34 137
24 74 98
54 220 7
203 38 225
236 68 195
8 57 175
162 76 34
176 129 220
215 57 241
197 220 173
63 55 55
218 210 67
241 92 144
120 36 143
195 214 113
154 240 154
217 176 108
100 250 37
181 167 149
143 209 194
100 231 77
82 13 217
106 31 196
64 135 48
83 207 186
201 235 162
133 211 48
64 203 215
66 64 88
136 105 162
161 91 70
214 82 182
115 73 121
255 42 208
105 47 178
51 207 87
62 98 242
79 78 167
79 120 224
187 121 195
182 128 168
170 35 13
17 87 16
63 201 190
77 133 233
160 68 80
118 74 161
94 161 75
76 86 52
235 102 116
147 176 122
150 131 40
81 98 24
5 247 72
115 239 151
172 249 147
9 228 7
62 162 60
9 125 6
241 90 176
252 117 89
187 188 47
246 170 228
244 35 92
117 41 105
162 53 190
2 62 246
53 22 33
75 129 210
194 254 236
20 60 196
110 94 217
27 89 40
7 63 243
165 249 113
47 137 219
200 149 31
241 128 25
17 143 50
0 36 231
185 34 25
180 225 145
139 202 64
179 27 9
165 90 59
34 212 19
29 71 111
118 100 42
100 16 255
207 202 221
212 91 180
49 135 69
103 247 190
146 174 139
126 27 45
60 201 235
31 144 6
58 105 225
204 120 74
196 201 207
98 249 114
196 212 17
193 216 147
162 168 123
168 11 229
27 51 38
255 17 83
27 65 80
253 199 104
37 140 117
148 248 1
246 223 151
40 136 86
54 193 193
94 2 151
51 126 163
249 208 186
246 208 140
113 193 33
153 224 101
246 171 165
5 240 248
9 244 225
32 68 189
237 128 171
119 179 99
40 105 38
248 214 205
252 177 211
74 144 27
55 73 114
234 158 85
17 21 195
28 24 194
208 186 83
58 171 206
67 162 65
128 44 174
38 91 109
163 192 170
216 52 113
168 239 27
188 163 140
114 97 152
44 176 136
201 62 221
234 124 178
236 202 226
238 169 218
162 206 108
214 18 27
207 170 102
35 14 41
153 146 255
19 127 92
97 208 198
138 192 130
11 83 71
235 157 121
212 168 194
44 23 134
16 149 31
100 177 168
61 33 85
96 66 165
146 252 182
49 231 117
194 160 20
187 90 24
144 150 114
105 254 68
1 91 118
50 54 7
78 238 93
14 32 111
176 220 216
76 34 67
212 243 93
56 179 57
112 240 114
179 136 47
249 17 184
235 93 110
102 166 158
8 57 189
122 144 41
98 221 249
252 120 183
63 32 125
104 67 76
18 123 155
102 160 54
134 202 209
221 193 146
65 113 28
34 2 222
135 225 120
81 205 218
67 66 111
237 105 172
246 1 168
14 88 58
230 246 139
239 7 137
119 195 194
183 152 0
154 206 229
52 143 211
98 134 67
166 202 27
172 2 37
178 156 211
85 116 249
119 121 41
167 248 176
15 213 110
38 102 4
29 20 120
42 133 110
37 21 162
174 124 83
97 86 201
127 181 187
104 103 255
100 236 35
223 74 27
92 206 67
158 196 43
49 179 131
227 68 157
187 7 212
240 248 61
46 134 132
157 10 86
36 126 148
61 237 205
219 89 21
159 58 131
103 21 105
98 58 220
162 250 103
143 198 198
82 118 119
107 69 215
132 210 19
199 157 107
191 234 131
218 32 185
147 114 99
99 248 161
63 182 129
116 191 225
202 55 129
179 108 41
64 88 56
119 123 197
128 151 124
237 228 69
154 183 198
160 182 242
21 242 38
143 126 130
30 227 206
20 210 167
181 91 196
81 225 45
73 127 212
189 113 109
232 24 134
200 107 29
199 191 40
228 231 103
214 34 2
66 121 70
156 93 221
13 90 163
54 125 157
85 217 115
216 89 46
225 23 89
103 48 249
43 189 68
223 155 209
189 186 190
39 28 92
213 136 107
146 248 212
10 91 181
214 140 96
182 102 56
26 203 143
208 53 40
168 192 104
32 89 179
185 203 180
156 30 104
69 103 188
106 244 9
195 58 176
218 27 59
229 156 222
252 80 218
132 145 61
141 58 153
255 146 102
60 72 82
81 37 204
243 30 133
168 151 61
96 66 128
64 3 214
121 155 39
129 102 164
28 12 146
8 214 2
247 217 186
17 21 48
73 216 243
251 40 63
37 174 28
79 154 99
156 75 244
151 78 173
244 202 124
136 195 2
59 143 200
0 63 134
121 177 239
107 215 10
20 169 228
192 223 49
214 114 65
195 27 36
63 177 207
208 58 239
134 120 234
125 221 14
19 226 159
34 108 162
210 104 59
47 17 123
251 157 92
216 135 40
153 232 94
109 151 251
78 76 118
67 2 6
97 128 215
17 56 200
180 215 106
105 103 238
173 57 195
133 154 16
163 48 121
191 223 191
215 57 107
131 175 1
174 147 36
129 78 82
253 25 217
220 60 219
24 74 17
207 222 141
58 57 156
88 101 94
223 101 196
98 130 240
249 26 57
52 200 77
141 147 223
4 245 223
244 189 193
87 44 177
123 212 66
213 41 114
48 19 94
200 61 222
101 49 50
222 103 101
170 197 236
106 171 15
39 43 147
136 185 5
61 50 165
20 254 233
33 57 155
233 150 225
44 220 161
254 32 82
38 245 128
175 244 219
103 218 254
195 131 49
193 69 23
124 248 6
77 174 116
37 81 238
53 90 237
206 93 33
50 134 244
132 186 241
132 175 254
30 189 24
144 66 64
67 242 117
62 63 150
242 8 206
45 13 213
172 111 151
169 84 239
217 125 21
45 154 56
67 116 51
145 200 249
246 248 64
178 76 209
98 118 5
88 110 186
98 186 116
4 23 237
143 39 112
250 118 129
66 103 9
85 82 139
142 190 153
112 93 85
59 105 172
9 141 140
230 13 155
1 205 111
255 119 199
237 9 153
150 61 170
243 25 13
231 152 155
230 80 95
46 247 58
92 229 237
73 74 192
205 123 226
96 152 0
206 189 229
113 150 29
17 223 109
227 186 223
3 39 222
149 190 25
199 112 194
144 223 250
86 73 22
132 67 22
15 165 43
89 28 234
129 108 8
255 189 36
104 72 197
16 157 20
125 178 165
56 34 242
77 12 127
242 177 240
89 98 9
77 64 15
31 2 125
170 185 95
61 71 136
101 229 110
101 36 157
234 136 83
128 208 61
72 96 49
181 146 113
234 209 175
45 77 209
208 20 9
40 118 157
42 171 54
224 31 168
164 167 125
88 30 117
165 59 255
40 81 203
184 250 101
75 169 163
188 179 82
67 149 54
143 78 124
146 140 220
0 148 155
202 141 221
196 234 162
67 91 95
227 221 200
146 228 248
42 212 103
183 51 204
169 117 230
87 153 50
57 254 182
74 241 195
195 17 65
16 35 202
232 74 114
20 47 9
48 214 15
249 133 239
29 145 221
138 122 76
107 89 194
147 124 243
158 167 168
242 10 162
249 5 219
48 60 196
241 14 80
219 124 161
29 63 184
58 56 107
106 13 217
29 242 52
46 6 207
67 119 122
102 71 179
33 25 242
115 223 189
14 158 154
170 108 234
115 18 91
174 105 76
92 239 166
154 11 111
14 37 58
149 165 136
243 20 20
170 12 251
239 17 177
111 43 118
102 128 209
70 218 31
183 171 208
248 118 93
19 113 48
185 142 3
14 146 251
96 85 40
198 133 16
41 77 29
156 21 63
236 88 155
37 14 41
48 127 44
225 193 59
248 227 101
159 31 46
58 119 199
188 20 25
71 106 7
20 79 69
226 49 188
246 43 193
58 183 150
126 208 159
89 241 48
221 14 97
145 255 191
40 237 64
197 191 217
205 115 70
50 81 93
59 66 119
205 160 129
136 70 199
42 35 103
247 199 77
203 14 225
97 113 147
80 78 187
77 90 5
43 68 52
206 13 36
240 221 1
32 190 203
175 208 229
179 140 164
54 85 133
128 222 171
2 71 220
41 241 239
34 80 243
99 22 224
110 73 69
97 28 167
109 217 102
114 238 128
60 67 155
98 162 219
58 119 56
60 0 184
48 234 237
160 106 61
23 132 153
214 40 86
18 210 60
16 151 130
223 128 17
94 27 129
148 161 98
241 7 199
237 45 225
59 198 131
175 161 66
84 20 177
129 253 119
238 164 204
105 158 178
155 188 29
102 244 139
26 239 219
194 38 153
223 149 4
103 240 114
130 147 204
96 32 140
3 80 19
185 152 248
34 25 191
242 237 114
200 52 117
248 95 87
207 240 124
254 43 235
174 137 122
23 155 171
24 164 225
91 144 116
30 149 186
27 119 19
78 250 234
228 89 123
54 40 170
161 253 229
18 225 235
110 144 213
50 52 27
89 102 17
55 184 45
248 155 55
207 9 94
100 144 83
162 180 119
115 187 237
219 169 136
244 118 226
160 146 24
4 107 186
133 62 185
93 44 240
57 137 42
76 255 204
120 130 162
12 230 208
93 159 246
174 45 115
15 49 206
114 82 94
32 73 55
85 10 137
81 18 189
227 90 187
14 32 189
56 250 165
151 197 182
46 104 124
124 26 225
137 131 242
142 38 233
190 215 55
106 253 228
253 148 144
147 31 236
126 195 252
112 113 194
47 118 59
248 156 95
163 225 130
11 33 85
75 55 56
251 54 43
197 43 164
119 34 145
156 125 84
163 148 59
32 90 23
20 252 175
106 20 188
25 137 163
1 159 246
203 248 41
215 238 164
222 218 66
224 237 167
214 246 24
127 215 244
213 195 31
106 183 51
59 68 57
78 47 199
173 208 109
142 1 116
142 245 68
156 167 10
80 195 184
72 243 48
134 65 139
169 80 110
13 218 47
137 55 172
35 63 196
31 3 238
64 148 135
61 132 78
32 15 216
24 59 79
36 243 83
209 197 162
86 196 120
245 111 41
186 123 139
210 229 156
73 172 198
240 33 153
173 184 138
42 145 134
245 86 13
29 11 6
18 178 6
101 14 55
151 150 137
30 19 131
225 63 35
36 86 129
186 236 175
233 236 7
77 214 161
225 75 86
35 40 40
225 66 8
228 84 216
210 254 36
178 96 205
167 19 3
14 29 200
215 113 54
159 205 188
206 157 18
129 232 194
199 80 116
6 41 167
141 72 113
98 94 53
5 49 98
171 115 23
88 119 92
111 125 251
150 11 153
114 134 63
113 206 57
219 159 32
168 30 93
69 70 71
218 213 2
162 13 246
29 132 174
51 167 155
127 120 13
10 83 9
142 218 147
173 21 147
229 17 73
43 117 110
244 132 13
35 128 141
178 70 197
19 224 75
42 67 37
165 117 112
10 209 164
169 171 99
201 196 58
9 99 227
18 215 151
244 130 31
178 102 99
127 18 108
182 253 167
81 146 158
243 57 73
156 95 160
190 30 161
48 93 175
192 73 52
142 233 60
173 45 101
118 249 223
206 166 111
199 92 128
149 241 34
253 6 102
77 182 113
212 222 218
210 86 166
98 159 34
106 19 80
167 169 62
153 44 169
99 104 196
211 134 17
72 75 67
120 105 18
3 193 103
66 151 59
130 15 224
105 51 250
88 45 148
207 223 211
7 31 181
135 195 83
210 145 148
72 203 79
135 49 112
238 199 183
112 58 75
164 50 230
34 192 154
20 188 216
205 173 145
193 236 78
21 34 221
7 169 131
111 87 218
187 64 48
135 233 103
205 218 21
99 179 0
187 44 163
112 213 19
140 12 154
108 135 175
174 204 92
155 89 70
207 124 167
157 213 2
41 137 10
246 18 252
71 220 152
199 153 138
240 147 255
41 184 208
212 42 36
183 92 160
215 56 1
65 252 198
29 11 219
33 149 146
170 132 155
88 143 90
54 15 152
148 139 88
27 101 169
91 4 172
1 111 25
132 64 179
123 81 231
0 185 179
194 2 190
234 236 136
119 233 211
121 97 218
196 102 174
90 216 254
246 176 167
100 230 64
244 92 150
87 144 104
122 20 216
43 251 9
12 245 34
113 43 131
250 154 186
170 191 34
15 19 190
43 239 167
50 62 41
232 4 163
226 198 17
109 156 63
130 196 44
219 115 179
140 196 31
140 133 64
43 81 93
136 53 27
116 206 89
59 93 217
138 162 163
205 212 95
137 101 27
148 187 207
15 77 95
95 87 206
96 109 218
2 198 130
129 21 87
191 254 109
240 5 111
189 215 112
144 50 83
38 166 39
68 79 233
84 253 115
85 41 13
80 161 42
141 157 46
134 68 201
99 45 204
166 33 79
54 153 232
57 13 141
184 6 168
5 6 90
176 242 126
148 75 11
42 50 178
138 130 99
60 240 155
92 238 19
49 75 70
123 101 129
20 128 157
201 113 250
82 100 166
23 251 194
92 193 80
200 9 243
28 188 198
78 32 101
71 132 38
223 41 22
133 39 246
4 124 179
34 59 7
110 205 134
174 250 49
147 73 209
157 132 108
73 136 140
9 115 149
212 56 96
174 168 17
123 229 104
219 47 153
143 249 230
187 46 253
122 117 2
87 106 133
88 58 27
201 17 50
51 136 150
251 13 229
83 164 220
223 46 97
182 22 22
90 205 137
66 107 63
140 72 130
41 47 254
222 42 147
203 159 3
117 236 9
94 144 39
200 114 217
51 179 108
71 100 160
105 243 245
221 26 254
144 101 249
220 57 199
17 121 190
150 154 41
154 207 148
5 57 146
230 49 80
10 19 166
244 219 88
88 240 224
148 235 16
63 83 164
208 254 66
214 75 70
122 252 32
169 48 227
112 30 227
68 85 69
127 228 87
211 171 9
236 214 243
60 237 147
70 138 152
202 94 231
50 96 89
151 71 39
245 193 63
72 0 177
40 36 230
199 227 109
115 123 8
190 163 42
10 182 31
37 176 169
120 99 255
167 156 167
163 134 200
35 243 12
18 89 61
214 150 59
236 143 74
18 208 134
95 247 68
243 46 18
37 70 159
76 161 22
189 120 227
128 61 153
36 177 215
15 21 153
40 96 128
140 197 184
87 41 18
133 83 221
249 60 213
197 31 82
22 48 217
206 77 86
88 165 232
164 9 219
20 234 166
113 67 141
20 87 15
7 140 174
136 224 212
46 216 228
233 177 13
177 179 223
230 24 92
232 95 10
189 72 128
134 76 252
59 135 55
106 40 8
253 182 19
123 103 102
4 12 66
213 207 114
226 140 217
227 66 171
168 36 240
37 67 81
239 36 240
33 59 245
73 20 165
243 30 37
151 94 194
151 29 172
43 31 13
133 49 20
102 243 194
177 76 86
203 147 235
95 255 40
164 158 233
225 84 124
111 86 146
48 184 196
167 189 37
94 85 74
213 0 226
199 48 13
2 66 174
184 164 83
18 250 249
161 42 251
19 25 68
9 41 133
212 51 117
169 202 121
105 237 73
187 110 124
26 145 136
229 206 55
7 230 103
112 81 24
215 167 62
171 77 3
204 145 185
35 176 59
194 176 86
217 222 248
29 140 97
164 25 188
81 135 32
132 148 41
226 250 167
232 4 184
1 38 117
237 20 118
229 55 104
36 185 36
81 255 46
232 210 22
197 124 201
157 154 50
0 195 227
62 215 231
186 127 37
114 49 252
53 226 179
220 177 184
110 62 71
200 8 88
186 119 142
246 160 0
175 104 235
245 123 26
50 219 233
108 123 57
76 213 130
10 207 30
2 5 79
225 118 165
79 122 105
116 211 117
2 53 33
195 82 25
134 121 7
38 28 220
250 103 210
29 38 169
69 144 130
131 73 11
166 159 198
198 150 75
200 138 12
160 128 249
246 114 108
151 8 79
81 164 115
53 127 21
105 246 111
7 141 200
68 14 209
238 136 48
203 80 160
252 251 0
18 181 233
240 5 125
79 130 9
247 155 232
96 36 244
140 21 77
99 204 72
49 88 190
203 16 82
20 28 142
38 85 126
60 26 110
203 89 222
46 145 40
160 147 179
104 165 127
152 63 33
245 27 158
42 230 152
207 68 97
21 252 28
139 211 82
14 254 226
196 130 108
174 234 56
42 15 12
90 222 48
231 131 144
78 252 226
127 95 249
194 62 253
240 150 103
23 168 117
171 47 232
250 113 11
96 228 130
52 194 47
215 65 103
14 192 106
142 7 14
49 216 244
184 94 49
20 80 64
62 84 56
105 122 61
249 242 235
178 76 24
119 48 45
182 29 235
176 218 160
134 207 63
139 30 189
41 2 184
97 253 245
225 80 95
169 61 97
1 106 183
171 69 148
241 87 22
51 152 168
210 62 149
205 1 147
66 240 16
112 11 254
234 232 119
190 29 250
101 108 219
113 157 223
207 98 202
204 252 213
230 192 145
127 143 120
12 6 183
68 94 243
35 82 229
175 61 176
124 119 84
186 203 201
189 112 108
152 56 96
103 115 69
255 85 136
47 86 252
187 189 43
114 187 156
0 1 174
170 3 208
13 252 156
128 96 33
23 95 50
136 163 81
112 142 120
132 100 84
90 161 207
198 86 164
22 197 148
23 184 62
96 109 97
143 228 124
30 80 228
140 164 158
25 129 1
208 7 70
146 93 40
186 12 70
34 12 216
6 59 44
78 28 4
169 120 237
23 93 114
177 114 63
241 208 153
45 37 13
150 146 33
205 110 100
7 43 175
179 254 31
160 21 102
244 222 98
142 147 251
158 178 86
186 239 30
7 146 172
88 103 126
2 92 112
189 167 151
6 74 116
186 125 133
185 105 224
195 230 145
224 43 50
108 125 154
241 89 137
78 236 91
242 194 30
52 183 203
198 218 173
81 223 113
97 93 47
255 124 4
4 35 183
1 48 212
128 71 105
23 87 138
13 175 18
190 105 208
169 3 46
76 20 201
140 82 27
54 70 152
54 156 115
26 240 190
162 100 112
50 64 104
170 87 175
233 200 54
243 176 34
124 37 35
48 86 137
72 214 102
64 0 167
86 38 59
238 233 38
4 135 219
171 171 200
168 152 65
139 34 77
205 10 207
150 48 96
9 49 234
225 64 70
79 20 198
230 195 119
36 182 78
88 162 124
29 145 81
193 220 141
15 234 167
152 47 208
143 11 180
13 221 229
131 229 7
24 251 79
144 12 157
232 241 214
94 56 149
6 86 52
99 187 88
231 14 96
114 168 163
217 109 228
0 1 5
40 187 108
57 242 145
233 226 218
77 123 184
137 4 23
92 129 63
100 113 96
194 186 157
245 34 28
97 76 96
18 195 175
92 82 82
100 3 203
95 73 106
29 236 105
223 10 57
127 95 110
132 255 239
95 118 36
161 132 94
90 7 23
58 111 152
175 42 23
50 174 193
154 84 185
68 66 127
209 191 18
160 205 19
201 221 220
221 236 114
138 255 14
233 73 182
41 54 182
137 126 16
224 234 83
78 89 221
218 228 88
13 2 2
249 213 197
215 80 240
224 191 180
105 240 237
213 85 151
128 66 174
115 103 15
237 216 86
43 121 243
32 62 161
194 172 134
163 121 93
247 193 194
183 61 187
11 234 242
134 82 9
119 146 41
12 141 28
135 164 38
14 64 209
16 223 50
143 206 91
155 66 162
71 224 116
208 11 115
95 52 89
247 93 55
228 53 174
129 85 171
202 3 105
102 70 244
23 114 141
139 128 81
169 240 151
52 76 176
54 66 141
208 33 36
141 104 224
23 3 150
104 169 251
3 240 233
144 73 143
43 152 245
140 76 104
236 195 141
27 46 9
216 184 103
225 249 45
94 122 238
100 255 153
217 84 162
47 198 126
8 63 205
237 118 228
207 45 217
177 85 253
62 231 220
114 56 208
92 225 120
32 174 1
206 249 157
40 56 82
218 228 119
74 35 196
95 136 160
253 87 59
180 145 185
115 77 119
158 23 109
25 223 66
23 233 25
62 124 164
170 108 122
203 206 233
43 191 166
177 42 152
141 18 219
213 37 186
95 225 72
124 144 243
103 46 64
154 251 77
245 145 137
21 209 39
10 68 106
93 217 161
253 207 32
115 169 212
39 133 150
106 61 74
243 25 199
131 188 94
181 214 36
59 144 154
108 228 91
242 87 190
24 2 178
112 3 115
26 217 171
44 58 234
92 233 83
228 182 83
24 170 82
69 132 187
79 174 209
82 93 76
120 136 41
60 214 251
205 11 52
215 72 172
180 225 232
145 58 249
184 47 7
141 151 173
4 40 197
104 181 207
43 52 126
238 230 144
54 173 24
21 99 235
21 234 151
215 57 60
46 142 9
10 66 158
253 110 94
143 217 110
207 7 187
204 44 237
50 220 50
24 46 93
69 130 151
6 232 8
34 134 9
114 62 214
137 179 238
46 103 27
172 173 33
125 185 3
53 109 113
235 253 15
238 49 218
215 67 80
74 31 158
13 176 227
118 38 253
127 39 10
76 113 104
196 76 174
190 95 86
23 168 81
140 86 56
199 125 81
79 133 194
236 206 95
103 73 16
105 8 171
3 165 166
254 35 65
71 7 204
254 47 27
250 187 39
34 57 165
9 212 184
39 89 103
138 138 227
204 67 220
5 32 184
223 188 97
91 78 182
117 182 180
35 38 200
184 170 82
236 24 71
63 29 23
194 53 93
106 196 201
102 153 32
242 44 12
158 195 41
171 246 49
3 237 15
194 238 172
37 126 38
239 233 186
134 158 2
237 105 36
89 155 154
34 221 177
104 114 138
32 246 239
140 97 99
232 156 225
80 33 236
13 243 18
223 198 6
247 77 57
163 150 186
74 41 144
198 249 233
203 194 60
109 220 192
17 144 97
136 251 159
72 135 167
243 171 188
58 144 66
192 232 53
107 226 183
162 207 29
70 213 175
107 80 250
39 126 139
232 254 101
42 135 71
248 7 32
211 162 251
246 73 202
204 33 8
152 10 28
20 21 116
74 121 124
208 13 15
71 151 168
45 234 31
142 29 145
50 98 76
220 58 97
146 75 37
12 76 4
30 144 104
116 91 136
30 28 85
76 111 86
15 3 225
89 35 233
21 192 246
185 141 248
243 223 206
14 36 127
44 43 136
3 120 60
66 64 96
127 191 22
64 224 17
55 170 151
109 180 172
146 75 59
165 25 60
166 23 156
229 35 202
173 185 62
8 66 202
194 213 65
47 148 124
243 110 150
66 232 34
11 250 106
199 50 124
8 135 153
91 18 12
47 15 212
128 144 159
93 54 24
118 162 124
26 67 112
111 65 13
10 48 141
101 142 228
227 182 127
55 228 54
254 1 183
109 124 254
36 121 55
38 32 80
227 89 183
142 44 140
242 143 53
190 109 103
189 138 32
172 137 194
118 7 122
158 98 25
4 210 211
2 146 238
20 3 94
186 243 227
227 52 109
151 100 146
109 68 245
138 157 82
18 91 228
196 57 10
190 109 70
15 234 10
189 253 10
199 75 215
97 174 46
96 100 92
70 120 144
109 28 37
82 105 22
131 138 6
139 20 101
32 195 234
200 161 193
237 248 173
193 10 211
193 1 138
250 96 220
249 124 227
94 64 167
98 42 28
93 38 106
130 118 39
0 13 191
116 152 69
96 149 47
141 48 170
22 92 145
141 193 18
73 82 87
122 140 92
148 163 100
41 240 22
177 221 164
160 152 71
201 141 110
219 100 107
5 183 74
89 161 175
45 213 102
49 15 193
56 188 111
145 140 215
168 128 195
22 117 179
28 220 183
14 42 150
224 120 29
252 6 213
243 7 53
194 156 40
38 202 69
130 112 140
18 7 137
56 35 165
180 6 242
171 117 53
248 13 98
192 119 42
152 40 157
73 232 42
37 85 161
6 164 3
45 211 192
96 86 83
0 48 230
8 164 127
164 227 246
99 3 82
226 17 193
234 53 134
218 119 193
9 5 249
218 237 158
180 33 200
96 3 10
188 78 45
127 112 243
29 168 150
24 233 199
176 46 26
233 16 111
68 2 71
87 154 129
223 243 92
57 230 207
114 131 138
196 37 246
14 63 144
51 161 69
147 40 197
206 85 104
29 23 114
202 255 208
183 191 229
153 88 175
207 216 225
172 194 90
146 237 139
71 2 221
59 24 158
110 251 117
35 152 38
145 118 234
95 215 152
219 182 214
2 126 127
1 78 152
13 241 50
18 62 65
119 102 11
74 19 113
36 198 230
77 8 41
39 23 80
160 136 82
50 147 170
136 187 2
184 15 132
55 63 130
249 211 19
191 240 2
204 78 194
187 84 123
107 224 238
74 234 199
25 192 55
216 93 33
249 226 19
129 69 255
31 209 136
12 250 189
233 168 15
225 248 48
11 31 223
32 192 53
43 43 101
30 81 170
190 45 229
37 252 84
242 4 120
224 22 176
219 135 152
125 31 244
67 20 62
128 73 14
240 69 52
215 104 69
66 52 252
216 120 12
19 242 233
39 132 244
237 9 5
22 12 208
128 4 170
212 108 241
76 169 102
154 90 130
224 246 236
198 159 179
130 240 72
234 27 246
219 49 56
23 154 57
243 176 23
210 110 170
83 243 206
188 27 123
143 126 107
206 222 225
254 30 196
52 98 13
82 153 197
230 176 153
129 112 252
147 157 242
169 97 232
204 102 93
66 231 6
250 136 135
57 124 176
239 146 127
146 145 70
34 150 11
26 64 103
8 25 162
104 66 117
205 162 166
200 29 107
159 123 56
133 220 33
211 77 0
185 90 48
104 87 43
140 130 116
194 191 159
201 114 103
225 104 15
127 238 227
199 167 177
156 228 132
196 213 255
35 162 124
121 102 15
142 82 253
195 8 184
113 142 2
201 6 118
92 200 51
86 72 149
118 14 38
112 165 141
5 113 57
21 209 105
138 171 57
67 236 165
69 251 196
103 30 13
174 241 93
175 109 134
145 39 67
55 44 139
48 150 195
235 184 120
82 230 188
209 146 181
37 70 217
212 238 75
245 18 97
119 187 24
127 19 190
198 10 108
125 255 66
75 71 9
77 17 239
66 113 105
185 2 54
85 163 173
135 83 118
152 24 142
216 163 13
246 50 202
162 244 204
81 36 159
91 112 59
241 56 212
102 109 89
142 56 191
140 94 247
180 28 209
129 58 19
22 185 8
65 41 6
105 209 141
162 46 174
180 3 216
252 25 180
25 146 145
219 53 138
182 130 28
116 75 207
212 49 102
157 124 12
47 26 83
177 92 137
15 83 144
68 176 136
219 205 213
148 38 103
190 68 67
195 56 222
209 222 174
44 67 199
73 12 237
231 87 165
85 109 160
126 117 111
7 211 243
226 91 245
138 220 106
120 249 145
83 200 46
181 7 115
4 80 191
172 19 228
80 174 77
22 153 22
153 142 135
162 45 158
51 185 137
115 242 165
2 189 69
181 35 74
99 222 124
46 182 86
7 109 255
84 46 167
194 187 137
240 57 171
97 31 134
66 130 242
200 0 26
65 189 224
51 171 196
226 31 109
177 55 207
127 109 212
88 19 208
154 189 94
203 79 175
213 44 37
192 8 104
18 133 14
221 59 79
251 187 220
119 189 189
195 233 167
33 37 136
94 185 40
241 85 167
192 103 159
155 226 61
232 132 238
196 37 214
44 92 224
201 250 129
195 219 82
190 97 228
45 241 174
103 239 171
157 58 82
76 97 242
55 61 172
46 155 80
167 209 25
225 234 162
180 52 116
189 172 122
41 122 8
119 190 215
136 249 42
181 246 10
62 115 28
16 113 52
171 110 15
15 71 113
184 158 101
61 59 130
7 42 73
247 1 236
175 220 59
240 142 26
247 175 89
221 144 149
100 157 144
232 57 45
101 30 138
245 81 239
229 133 188
118 10 57
198 84 162
153 71 234
176 158 165
80 223 198
142 152 115
127 191 25
211 191 155
89 141 14
23 137 151
10 144 57
210 204 15
203 241 66
2 234 173
169 138 171
61 72 144
2 126 203
181 181 11
130 28 184
165 200 193
22 168 112
38 211 30
112 199 140
211 5 113
244 62 18
234 110 93
159 228 113
145 51 51
246 21 189
163 162 109
138 18 183
179 22 85
101 201 229
231 237 197
120 125 194
240 184 214
50 117 128
131 68 166
144 16 55
137 37 72
116 16 143
19 28 92
130 86 23
106 140 96
158 216 221
177 109 57
59 235 223
52 47 94
197 131 162
192 213 114
47 88 99
218 73 247
153 62 120
252 39 231
213 54 231
186 182 38
161 73 165
52 225 155
29 152 100
236 229 235
146 58 13
67 181 161
125 126 236
13 210 218
143 152 182
220 247 49
70 119 11
34 193 144
171 51 162
143 242 130
151 210 113
133 201 61
115 95 139
178 101 189
249 83 69
26 80 145
130 68 0
101 143 72
40 121 61
33 110 186
76 167 221
167 213 245
43 111 215
136 229 169
108 250 173
224 113 67
144 64 255
119 48 25
182 74 148
190 146 18
49 85 18
231 214 48
21 173 180
143 44 96
191 37 121
139 113 20
115 217 221
35 151 71
191 30 239
108 218 203
148 0 12
151 92 141
238 124 103
144 41 248
117 188 193
26 201 225
72 28 189
247 86 6
182 163 28
32 238 66
65 126 39
161 81 64
1 198 57
241 232 66
200 96 183
203 180 6
172 146 188
250 147 52
199 105 7
74 115 83
169 109 126
252 86 80
239 123 226
48 183 177
227 202 222
69 74 93
251 48 38
55 2 239
174 7 49
41 221 33
82 117 197
40 188 158
91 12 66
227 104 3
94 3 211
130 188 31
51 17 89
101 222 12
146 112 218
40 212 207
39 162 132
88 89 19
227 209 249
95 156 211
211 82 255
245 180 224
28 128 236
139 192 144
149 133 107
253 77 70
221 86 7
221 209 232
62 170 246
220 163 87
221 18 86
125 57 6
126 204 133
79 145 53
48 232 101
236 77 245
214 89 202
93 172 70
137 204 230
85 135 14
19 173 113
55 214 52
91 77 79
43 73 101
124 85 227
168 121 182
229 94 198
143 223 124
226 24 201
44 163 190
21 3 194
36 110 87
195 226 3
180 184 190
171 74 204
160 62 108
184 45 218
140 173 172
232 198 183
81 101 221
73 58 64
22 172 115
5 3 154
152 244 105
4 160 47
229 101 181
225 31 40
73 54 94
206 239 9
87 175 121
36 18 127
234 53 24
3 19 236
233 181 116
37 4 77
229 57 63
132 97 194
122 95 146
96 53 140
240 64 251
12 12 5
92 74 213
192 23 216
51 18 165
89 253 152
27 235 71
173 169 46
26 252 28
249 62 8
162 26 87
36 69 113
69 117 219
166 237 180
133 28 78
223 153 148
35 88 237
229 25 160
171 95 15
242 103 169
184 96 232
226 63 180
135 15 228
192 71 239
104 104 237
4 126 24
243 160 162
232 123 133
103 163 114
227 13 219
198 177 23
34 244 241
240 183 18
81 102 60
40 149 197
112 13 237
202 27 161
239 182 27
179 169 147
3 34 227
199 114 148
251 145 0
9 178 77
40 19 176
80 5 144
189 223 32
245 192 145
1 206 80
51 169 64
240 145 140
167 19 32
130 5 168
119 38 162
227 8 52
229 36 114
36 164 217
153 214 53
255 171 9
7 140 91
27 244 93
184 180 85
124 116 152
233 76 93
225 164 93
165 100 129
245 251 28
156 165 53
9 255 231
103 94 128
202 63 15
195 160 58
153 81 162
214 248 47
251 206 174
73 153 29
213 194 224
193 209 4
15 201 184
64 118 100
4 145 213
182 215 101
251 169 111
13 4 198
149 0 70
123 113 227
79 202 243
11 61 65
129 45 194
62 51 64
223 50 118
156 140 48
209 95 183
175 92 11
125 115 174
139 109 108
58 17 42
156 230 95
84 45 78
190 115 19
105 209 27
191 252 12
14 79 194
243 84 221
53 59 6
93 5 198
246 31 212
142 26 155
169 222 231
141 22 30
99 45 251
110 214 134
198 124 156
83 22 175
15 244 152
67 144 79
182 10 115
12 168 124
131 223 6
83 242 223
205 68 115
1 231 241
180 74 144
107 223 243
104 159 146
217 95 247
5 247 103
56 190 77
112 242 242
37 140 97
252 154 202
35 213 169
104 216 224
11 162 37
97 85 245
224 78 142
8 122 116
133 131 74
245 228 139
248 24 224
33 10 180
99 176 78
204 133 248
154 135 5
78 54 218
218 142 201
76 202 32
147 202 153
12 27 98
243 139 117
208 229 115
52 74 153
26 56 24
122 209 50
124 248 15
153 137 105
244 238 252
69 96 127
148 133 52
221 206 148
104 254 142
122 7 107
67 25 35
124 205 154
121 252 251
215 103 43
32 104 106
219 189 215
240 83 183
119 121 125
31 36 15
31 33 196
177 148 134
134 48 109
127 34 100
62 136 243
154 12 181
144 24 113
135 52 9
173 39 21
86 224 62
167 238 234
127 138 205
86 119 112
125 65 94
108 127 186
246 146 34
90 99 38
119 224 240
165 75 71
223 187 205
150 84 23
187 89 200
228 151 63
131 241 129
162 43 25
16 129 176
177 152 137
202 191 207
226 7 215
121 160 223
14 158 156
52 93 11
105 40 71
128 44 164
191 96 70
145 100 120
2 218 178
176 100 3
73 144 67
197 241 49
198 85 116
78 199 153
134 92 117
143 144 16
38 209 66
81 99 177
195 83 126
129 3 130
255 7 94
73 108 30
102 174 245
32 4 130
66 59 136
57 82 197
120 119 93
171 54 192
244 195 80
31 79 201
55 180 189
143 162 227
20 88 254
137 89 249
6 195 167
93 132 208
153 143 26
167 120 225
13 85 91
228 120 12
30 7 223
61 16 99
56 169 186
25 39 150
3 148 5
121 26 75
31 66 134
66 34 216
54 234 20
201 114 146
14 40 6
107 116 133
215 146 35
239 6 179
128 242 242
172 112 221
60 188 242
227 60 14
24 184 120
116 134 68
39 55 165
222 74 158
53 254 61
169 90 47
160 78 129
101 182 42
66 167 1
135 214 169
2 2 178
234 177 91
84 185 220
205 36 34
121 221 126
102 190 146
100 220 146
108 168 156
196 237 92
217 177 255
35 236 149
157 168 98
92 131 252
247 62 51
74 30 77
124 39 119
77 46 191
94 205 54
37 130 108
63 49 40
67 234 146
230 198 60
26 194 194
205 88 59
181 88 32
148 121 128
213 7 58
88 17 229
10 210 244
186 208 36
90 2 210
203 126 118
10 60 20
67 43 160
207 234 130
161 94 169
131 3 213
208 107 22
72 18 252
242 154 20
153 175 249
133 60 227
93 89 95
115 72 41
17 173 50
110 167 200
225 127 168
231 158 96
9 40 94
208 194 233
81 121 1
185 90 226
179 44 237
110 221 220
222 96 200
154 221 155
116 204 77
229 135 59
224 242 44
128 43 202
87 0 56
153 109 226
83 52 22
254 200 164
156 184 169
130 226 223
181 128 216
219 60 229
23 156 98
120 1 208
11 186 21
129 81 9
32 167 246
106 156 206
73 181 183
159 167 164
163 223 55
132 23 238
224 210 53
211 178 66
41 71 11
204 136 54
80 86 80
33 67 140
8 2 237
61 47 6
136 75 132
105 230 68
68 232 109
131 6 232
127 97 177
162 47 223
82 31 90
171 180 176
75 15 35
106 240 253
94 182 105
108 134 81
217 241 28
122 64 186
107 232 168
30 235 75
93 223 237
148 177 60
33 121 17
180 38 229
62 212 224
247 13 201
12 85 230
43 70 232
43 171 207
156 115 21
141 71 86
22 8 182
7 186 234
237 204 175
74 103 162
62 246 11
137 130 72
140 5 102
235 185 211
214 154 67
29 30 78
56 145 195
84 136 76
52 72 75
223 47 95
194 60 57
63 251 142
132 208 122
126 50 182
87 115 41
31 43 88
13 199 221
4 42 211
128 50 106
242 118 20
150 206 87
144 170 181
126 47 32
14 94 70
175 247 237
31 244 135
142 134 2
57 185 206
111 76 208
147 174 75
237 135 246
19 165 112
8 143 50
219 183 75
140 24 203
115 92 46
125 41 145
172 79 193
32 201 109
110 181 107
179 208 16
234 112 98
128 17 140
89 93 117
202 174 65
240 7 103
76 71 235
140 237 185
86 133 1
53 114 67
180 213 207
91 193 25
31 94 0
226 169 163
34 253 159
93 31 126
210 165 74
32 12 148
40 125 230
162 62 74
146 100 171
97 61 241
176 180 128
208 149 216
202 27 203
83 152 51
3 132 0
89 147 33
176 212 89
41 51 181
132 4 198
221 61 10
238 46 185
157 14 134
99 88 249
124 198 133
250 12 41
6 118 183
49 215 176
15 157 240
182 237 48
73 232 225
133 112 90
153 170 178
16 66 28
102 201 207
71 219 87
165 54 54
163 172 238
90 138 3
246 129 103
55 181 34
154 11 184
94 209 126
235 33 66
239 105 208
97 38 221
14 170 57
188 99 87
55 58 64
1 229 148
90 255 234
141 240 57
182 17 89
30 57 112
213 43 145
190 119 108
64 237 177
64 59 97
105 157 72
33 190 143
67 125 201
73 229 122
53 157 209
149 30 21
125 226 29
150 30 15
96 26 55
170 47 87
251 177 253
244 10 112
129 67 69
45 61 196
61 237 131
89 56 101
21 47 182
97 169 112
30 12 72
255 66 206
253 52 236
160 241 246
159 230 136
1 121 64
249 184 142
110 5 45
125 238 1
187 46 183
45 215 211
106 90 165
114 102 163
173 195 153
167 171 157
28 228 203
205 253 235
90 43 254
231 213 66
0 219 227
197 61 86
230 100 242
246 153 54
170 125 175
92 148 21
183 218 44
114 137 116
5 53 98
162 31 99
245 111 211
67 160 244
29 102 239
170 153 212
48 146 164
223 69 102
156 83 173
97 226 164
12 27 35
47 30 107
55 158 71
74 37 53
224 30 238
145 209 45
235 81 13
24 45 12
179 118 208
177 191 120
223 201 57
238 177 157
223 74 220
110 211 163
110 243 48
249 43 38
95 116 15
21 4 100
130 32 12
173 81 42
148 178 51
39 5 86
81 18 204
7 29 41
249 70 179
42 144 153
186 144 156
219 76 123
115 186 14
226 207 124
29 80 206
234 233 106
106 194 75
228 77 41
37 188 214
180 251 255
106 109 224
73 140 55
211 221 201
78 79 177
207 204 174
181 160 217
240 126 65
214 220 124
79 6 199
171 216 107
16 206 210
217 140 44
110 163 26
48 218 245
88 69 203
175 170 24
253 206 218
186 216 212
78 105 13
193 177 176
201 165 132
63 229 94
1 33 252
123 68 138
250 221 110
103 63 234
37 140 145
134 21 247
110 131 137
178 104 86
90 41 108
201 151 234
217 25 59
247 128 42
101 166 215
57 2 59
157 11 116
184 95 128
112 240 19
116 64 36
192 128 155
187 1 185
197 8 128
26 31 117
208 230 74
219 25 102
214 111 237
137 38 55
218 226 149
42 156 0
83 47 146
91 191 89
154 35 18
7 235 98
193 140 151
211 89 224
27 31 138
220 98 101
75 200 189
74 62 54
40 2 251
56 136 121
162 68 108
75 224 120
7 15 91
203 206 5
80 114 51
44 69 37
119 153 75
142 2 73
217 80 60
149 216 123
22 93 40
124 251 233
27 254 97
255 55 54
78 188 182
63 42 190
176 46 30
76 223 129
17 172 117
62 60 160
242 28 91
108 160 62
204 187 147
230 181 247
25 63 86
172 236 9
144 95 63
24 94 33
0 1 17
216 145 159
198 139 194
74 155 48
137 63 179
194 24 144
211 227 116
19 233 64
195 161 118
251 111 216
244 17 70
76 75 7
92 188 73
125 122 37
181 255 88
179 101 105
65 95 139
54 83 219
91 32 2
71 249 56
97 204 163
75 30 84
51 245 66
9 109 46
103 174 51
17 185 215
201 84 158
251 114 70
255 176 135
56 253 164
92 185 108
158 78 62
182 95 128
190 178 8
162 226 144
60 98 129
20 236 131
198 66 243
105 187 37
78 37 125
158 103 53
157 171 79
224 164 29
12 244 220
203 100 241
219 13 204
123 7 211
29 138 252
190 92 30
36 48 209
206 91 42
8 70 194
31 165 250
111 206 9
18 139 133
115 200 251
249 222 183
173 185 3
112 17 172
4 234 40
205 85 153
21 18 179
66 55 249
112 24 14
138 88 253
28 1 135
113 93 110
174 191 157
28 136 20
192 44 90
225 211 86
190 19 107
254 141 45
104 209 240
141 158 125
221 224 147
247 108 96
204 219 63
29 40 230
128 232 111
213 184 61
28 57 129
0 188 156
236 79 116
94 153 134
255 241 42
165 172 53
158 214 122
29 136 155
73 171 206
69 113 205
175 69 24
1 192 185
160 235 216
212 127 68
114 27 14
177 201 207
18 68 34
12 135 3
217 79 13
16 162 0
181 49 116
77 173 9
74 172 232
128 160 85
53 135 53
221 1 13
243 229 168
172 50 223
177 146 139
130 120 222
140 224 52
184 160 82
169 19 55
186 178 51
248 208 235
163 63 35
245 179 130
43 252 46
223 192 103
130 8 246
71 195 243
139 65 237
77 163 70
187 227 151
251 23 124
188 46 252
199 119 97
176 142 124
141 170 244
255 202 90
244 72 38
115 104 44
52 127 214
67 202 225
104 109 153
100 54 148
75 228 64
22 153 196
0 19 13
155 2 125
130 66 21
71 77 103
35 233 200
95 13 202
9 236 36
192 218 253
160 177 89
253 124 182
136 47 166
3 223 18
251 93 136
23 159 138
168 23 212
230 252 223
21 98 3
155 228 132
31 190 98
182 186 205
250 152 38
30 149 198
56 207 105
242 208 88
13 109 13
173 215 220
75 64 136
21 143 161
241 8 143
196 147 152
175 26 26
98 9 110
0 162 88
18 44 145
153 148 130
190 182 57
140 68 168
164 47 128
223 134 101
99 222 151
31 57 95
111 191 205
151 161 12
129 206 46
172 8 160
35 40 43
62 116 197
222 156 2
35 120 42
100 182 33
148 171 240
47 224 33
74 109 69
181 124 24
49 80 198
45 122 64
214 155 22
176 77 248
246 80 221
83 5 22
165 196 170
249 132 78
56 164 225
7 154 194
133 169 50
68 177 151
184 251 170
232 136 186
8 221 114
49 209 58
233 99 42
47 60 117
171 29 54
146 218 206
189 62 162
76 61 14
158 101 9
237 100 146
65 227 16
80 171 252
142 53 60
198 240 74
177 102 86
239 106 187
156 12 220
42 137 31
71 94 91
13 12 249
175 148 58
98 196 142
84 153 223
70 245 39
81 179 89
13 16 95
229 54 229
224 251 167
79 138 81
158 115 123
173 123 18
195 122 78
18 134 226
128 238 80
12 86 219
235 123 165
20 123 175
20 14 197
249 144 144
81 74 117
78 104 126
153 133 147
157 67 74
221 145 176
78 246 178
10 95 58
74 211 35
99 132 242
141 219 115
29 245 15
173 237 207
181 21 76
227 65 166
75 12 52
255 74 49
188 138 39
231 228 83
188 19 175
35 247 10
59 204 249
164 118 161
141 214 72
130 31 52
244 63 147
211 206 82
220 72 186
160 8 143
88 239 131
122 217 3
95 183 18
221 234 213
130 112 250
196 36 158
16 107 99
118 139 249
76 140 150
224 172 113
13 4 37
111 176 122
237 236 7
175 31 26
179 57 29
15 46 85
151 127 69
214 37 146
63 51 164
72 93 252
157 212 17
71 198 121
153 174 139
52 23 50
175 132 1
118 72 239
224 137 12
48 81 118
231 6 193
68 214 166
255 86 249
86 39 157
104 93 15
80 217 176
232 58 161
132 184 242
170 146 36
163 38 209
196 85 90
244 148 151
249 243 58
169 64 125
13 155 163
231 151 94
35 203 222
215 12 184
169 101 231
125 188 50
140 10 111
40 56 43
46 171 227
233 102 104
16 31 46
85 171 217
218 8 156
116 87 195
251 53 125
53 54 43
215 58 201
94 27 177
144 172 9
3 30 199
66 143 101
32 207 244
186 93 146
41 245 231
75 245 54
240 53 231
184 7 85
56 132 82
203 86 24
110 182 113
188 154 220
28 213 64
98 162 219
128 161 196
28 225 134
1 54 224
245 132 6
114 191 17
154 254 117
218 168 96
233 12 191
126 234 39
64 145 152
125 138 242
233 245 45
218 172 89
120 154 66
163 114 30
42 55 144
140 241 79
211 238 27
105 80 208
76 157 197
8 191 52
190 135 143
94 22 168
45 76 102
93 100 209
237 249 218
238 93 78
203 25 16
122 88 74
242 108 226
227 213 120
96 140 255
72 125 165
188 168 220
187 79 199
205 125 47
206 143 192
255 105 219
171 161 23
147 234 107
145 126 58
122 120 112
4 124 132
31 225 185
134 132 29
245 149 155
247 217 23
17 246 213
146 91 208
207 236 77
236 194 196
194 250 66
87 188 154
231 238 217
56 0 101
44 57 251
119 170 216
164 135 129
20 244 17
250 104 250
144 54 249
93 248 48
51 184 35
215 234 45
242 188 46
221 204 91
31 83 195
198 193 252
176 219 222
106 9 174
79 17 90
175 41 47
195 6 60
216 120 190
13 89 19
122 208 35
10 23 92
45 10 107
187 62 235
246 56 218
240 94 212
214 145 20
205 192 21
174 153 128
35 83 198
166 167 102
13 48 86
188 62 240
15 149 147
143 127 36
92 180 44
68 195 28
93 225 96
72 45 195
159 201 137
114 214 49
48 176 212
175 203 24
56 72 225
187 5 145
67 240 214
4 141 244
217 209 71
254 231 193
103 141 136
244 164 233
193 222 139
40 170 206
68 130 38
154 220 53
179 160 48
78 21 139
37 20 228
39 186 50
251 15 70
121 228 210
31 149 248
10 97 207
0 106 161
56 189 170
177 122 229
250 184 73
175 191 47
250 134 18
94 111 74
119 20 224
8 77 54
41 52 4
158 32 19
197 78 232
131 162 162
78 246 109
229 233 158
63 248 148
25 144 117
173 48 0
49 68 208
252 125 77
202 208 76
177 249 137
30 169 40
133 11 101
41 60 210
33 27 200
14 98 254
228 128 177
89 68 85
80 151 90
62 118 205
209 4 186
50 131 145
238 237 201
58 79 14
225 15 125
250 171 147
74 39 25
47 135 229
110 120 34
29 55 239
185 85 61
23 91 202
114 77 35
249 165 108
22 184 46
236 5 241
238 228 187
74 153 186
134 42 190
82 17 52
86 249 127
107 161 100
53 166 154
207 148 189
71 233 73
56 222 174
2 187 48
39 22 19
223 134 16
182 253 132
96 16 62
179 114 25
68 228 170
162 112 114
83 206 33
151 217 131
217 90 32
60 21 250
128 234 8
166 76 254
105 35 71
14 211 245
138 75 215
104 162 101
183 40 102
8 40 95
173 176 37
104 113 130
58 16 87
68 100 2
47 112 26
53 35 38
105 214 119
7 45 197
201 69 14
81 220 33
120 103 240
205 32 111
193 59 8
12 94 46
103 153 29
183 60 4
193 121 165
10 25 171
164 208 26
252 147 213
223 66 174
78 147 146
212 207 59
93 15 86
247 194 173
164 159 71
196 220 204
105 110 103
32 101 244
140 116 8
193 85 81
162 85 31
149 93 13
26 35 108
154 220 160
84 124 221
44 234 154
128 36 221
128 155 184
197 14 29
36 181 142
111 205 60
5 122 238
83 180 39
208 179 51
138 46 21
223 52 31
89 2 95
41 99 252
14 195 40
103 116 204
68 120 243
135 143 156
86 120 153
40 35 97
202 208 192
109 141 243
236 226 243
28 179 14
207 179 182
88 1 184
178 186 14
228 36 138
219 66 138
229 102 227
198 69 164
206 247 26
86 177 178
210 79 14
27 9 181
22 189 231
154 138 100
42 131 47
65 179 250
174 212 27
101 115 164
164 117 53
35 68 219
180 12 10
205 72 226
122 63 185
160 245 55
211 194 251
74 117 43
220 190 202
208 163 113
132 222 186
84 117 244
196 2 250
130 30 226
5 50 42
128 31 201
247 215 119
170 172 162
195 196 222
70 231 181
160 35 46
75 134 199
20 24 252
15 33 119
250 142 239
215 192 114
118 98 95
180 145 136
27 119 63
148 116 47
49 168 138
136 9 103
170 152 156
119 77 76
26 220 252
10 39 162
45 173 67
40 3 186
184 176 207
206 196 102
173 43 38
224 6 144
186 225 14
233 91 80
41 70 91
76 155 240
125 23 187
218 59 97
138 220 2
160 234 78
128 160 187
160 181 228
253 81 26
115 159 7
146 189 178
9 115 133
183 195 199
169 16 96
1 210 242
79 216 128
41 175 68
88 224 41
109 161 38
25 15 17
107 33 6
201 138 90
121 58 231
10 86 65
26 68 109
250 203 87
53 129 6
117 99 17
164 139 8
209 102 104
240 1 32
238 205 133
209 206 150
27 174 167
194 150 229
110 214 115
234 227 15
125 189 149
5 93 125
84 89 195
50 107 79
143 113 8
235 38 208
47 238 192
145 236 248
74 91 99
100 158 103
243 86 154
92 109 133
165 70 224
123 230 217
84 217 7
186 195 99
202 172 54
231 210 70
22 36 244
202 131 51
21 87 153
113 83 134
95 82 210
191 195 234
49 71 61
131 231 126
186 100 241
238 198 233
213 183 80
197 149 238
52 130 180
143 202 248
210 20 138
212 206 191
6 241 201
214 183 122
178 230 88
240 196 165
123 234 249
240 55 216
123 134 29
40 141 30
129 222 245
180 188 47
37 51 233
20 112 168
174 28 40
232 43 61
59 214 78
241 118 41
147 209 200
168 33 118
90 193 151
66 83 192
94 48 192
241 170 201
64 173 237
214 125 146
136 165 49
126 27 161
35 16 71
183 215 185
96 44 40
68 148 248
90 58 227
237 204 184
162 23 102
16 97 243
196 178 234
146 249 146
120 246 121
203 133 236
56 0 175
98 31 16
96 255 217
45 4 218
221 120 85
80 244 190
103 39 79
246 39 234
253 149 72
172 223 64
214 222 212
0 81 157
78 31 70
187 109 110
234 251 194
169 49 156
42 191 55
148 238 110
111 255 131
111 48 61
187 202 235
206 19 161
98 158 249
114 215 41
187 213 82
165 245 141
201 179 91
157 5 170
181 97 79
72 129 253
246 215 59
59 227 123
186 12 117
202 214 132
63 44 24
193 135 217
48 6 188
136 232 137
229 245 0
9 45 225
129 119 226
39 241 19
104 98 117
11 114 182
211 93 216
164 63 146
84 229 124
13 215 28
31 195 188
190 213 17
12 73 211
58 248 199
32 173 55
35 41 244
196 37 177
206 166 231
52 226 154
174 121 153
179 138 167
232 150 85
93 187 105
55 164 78
45 108 68
134 120 168
207 59 39
23 33 1
250 95 78
63 118 24
40 137 146
223 56 244
193 143 189
143 79 31
41 5 120
13 130 222
227 219 69
148 153 14
86 4 191
56 54 2
97 10 121
141 39 232
224 16 47
180 50 27
64 59 38
253 0 96
189 238 87
186 198 37
153 204 119
79 245 44
1 213 2
60 221 174
80 225 39
95 128 131
191 117 49
140 206 74
187 79 76
46 91 121
121 6 6
232 35 22
153 39 240
72 184 240
68 83 121
169 218 160
253 25 31
150 143 73
161 16 178
205 8 226
95 74 141
214 90 89
107 4 20
159 74 191
29 186 192
160 225 221
37 209 60
113 17 41
71 82 164
151 120 63
182 183 65
245 25 241
176 13 121
19 9 150
6 110 25
108 51 194
76 253 239
188 226 8
183 207 15
234 136 79
18 187 169
56 197 219
41 120 15
92 37 173
177 195 232
52 96 71
31 161 206
41 78 125
96 142 212
9 216 61
128 171 240
187 10 208
54 153 23
20 79 218
140 8 57
17 169 222
98 45 198
98 160 157
131 203 134
49 137 197
123 247 153
89 93 214
141 174 122
220 206 21
245 149 209
227 105 117
61 70 236
55 29 188
147 185 203
28 120 175
161 226 152
228 4 216
160 198 188
28 7 131
115 198 2
22 25 18
199 151 179
68 115 59
136 130 39
141 69 19
164 150 222
6 51 12
73 120 217
219 30 20
46 146 138
207 151 212
188 122 152
4 43 36
132 86 245
203 165 242
11 169 156
78 166 15
147 107 60
199 230 170
42 35 126
104 152 180
36 203 224
90 71 21
73 233 6
242 216 212
8 34 101
110 226 31
223 70 35
114 196 9
161 221 122
88 17 108
210 52 127
119 48 147
78 237 174
228 141 191
179 202 9
4 105 9
9 174 36
23 84 48
165 49 117
233 3 163
68 7 100
146 85 226
57 254 147
123 114 254
196 88 72
98 40 187
221 173 173
25 58 246
134 104 110
124 254 206
130 228 163
227 173 168
224 36 129
213 37 203
3 157 102
241 242 237
150 194 7
100 18 4
210 99 8
87 122 228
43 242 94
130 115 87
205 30 68
116 197 97
57 189 94
250 154 18
224 187 51
46 174 230
125 49 161
93 144 112
105 222 152
255 8 170
76 60 190
174 71 204
31 72 242
134 34 160
25 112 117
18 106 55
217 238 111
76 136 38
229 223 232
186 12 200
38 92 232
148 205 184
80 223 18
80 255 85
52 106 88
72 49 31
139 211 128
138 193 214
161 184 136
65 249 11
44 159 14
248 66 180
117 2 22
55 28 122
124 243 16
202 29 233
80 205 42
232 37 52
11 74 148
20 45 223
240 99 8
250 86 73
93 251 130
127 225 238
83 55 3
191 136 108
116 51 239
77 94 70
165 236 99
60 170 207
228 62 16
240 81 83
234 181 73
40 215 32
166 3 75
56 246 186
178 133 72
91 50 121
161 82 96
71 125 39
242 66 66
47 142 102
88 216 212
34 149 56
166 190 172
80 6 249
161 22 87
239 227 241
197 201 161
11 209 134
14 185 171
35 55 117
80 14 54
201 101 227
213 161 116
4 20 214
231 176 42
211 2 17
184 138 242
119 157 8
55 241 37
59 189 47
91 39 111
65 208 66
144 23 152
109 212 169
214 109 50
219 165 244
239 153 145
40 242 3
22 161 110
155 2 213
104 48 156
33 245 21
222 44 77
209 105 153
181 15 253
107 110 153
105 48 51
158 115 33
45 149 37
176 41 206
27 101 195
252 224 112
140 17 177
7 168 23
32 194 238
81 93 151
176 255 87
157 38 84
5 31 248
75 107 249
242 148 233
28 48 233
6 100 236
74 24 82
23 209 24
52 116 5
23 172 90
4 163 112
86 91 201
14 39 49
32 194 72
89 49 240
33 82 69
12 134 88
167 190 61
108 229 11
148 245 77
213 112 124
187 62 231
146 245 85
170 189 72
51 212 62
39 196 93
178 63 104
240 197 21
14 28 78
198 224 230
29 177 180
234 202 167
173 170 9
203 1 85
227 10 224
45 27 221
200 175 158
214 14 194
90 61 125
158 139 204
132 216 221
250 41 170
201 230 237
162 104 177
252 36 54
128 247 53
107 216 153
238 15 94
191 159 9
222 170 21
228 249 224
248 14 158
211 123 207
211 231 188
239 182 97
46 97 20
173 236 36
95 106 98
161 142 162
212 148 48
249 191 88
239 76 128
195 185 249
91 211 25
113 3 157
24 22 85
85 98 252
43 180 25
108 207 73
163 239 245
166 181 213
56 224 29
193 233 222
32 166 156
152 251 51
111 148 164
92 117 46
34 161 15
55 2 244
252 144 45
82 12 203
229 42 197
189 254 142
227 193 93
169 99 206
2 63 17
195 57 160
176 218 249
137 105 74
42 215 97
130 99 226
216 221 22
152 100 189
82 129 138
117 173 216
155 195 79
95 248 61
55 13 89
155 10 84
17 0 219
53 189 0
191 213 250
108 162 203
9 203 12
217 252 236
156 38 230
209 115 112
25 28 212
241 241 88
158 236 104
41 117 150
85 8 242
128 170 204
24 124 233
26 205 26
123 113 118
2 6 239
153 39 179
12 253 180
89 138 209
35 73 247
247 66 148
192 116 205
212 249 215
115 75 170
43 27 161
226 107 153
100 56 215
21 13 161
1 110 247
17 228 150
28 85 37
58 210 251
190 168 235
120 111 44
49 4 70
57 30 29
152 40 199
20 115 58
179 30 145
70 127 7
237 244 149
12 46 142
66 238 137
253 83 73
23 18 140
235 6 99
216 106 63
175 208 9
202 186 144
200 29 178
59 239 140
32 228 210
31 68 208
21 121 79
120 187 243
29 113 143
251 105 255
153 246 232
7 224 43
178 36 100
213 134 227
154 250 120
232 84 200
7 1 12
147 196 194
14 169 29
169 203 23
193 158 97
123 156 211
93 157 244
233 14 174
57 20 170
178 194 68
122 56 139
216 218 178
3 233 3
28 147 61
140 101 88
178 59 86
33 136 160
158 251 141
193 228 135
240 197 167
191 86 236
81 36 144
240 39 186
9 74 27
43 212 19
178 165 208
53 111 236
158 96 223
149 217 126
64 234 239
249 205 50
152 74 113
154 138 186
228 224 181
249 76 15
200 4 8
82 141 163
223 111 222
192 164 120
5 212 86
70 110 111
179 126 10
29 114 57
191 104 194
117 29 226
230 102 35
251 108 209
89 153 235
82 178 36
135 165 191
215 4 106
66 7 174
11 152 131
115 208 42
193 138 240
153 176 233
73 68 186
38 32 11
158 185 110
160 244 76
248 6 180
220 165 180
64 167 142
96 28 145
233 33 24
127 103 88
7 134 100
56 114 111
133 2 8
71 197 229
156 245 70
221 5 162
253 240 198
84 165 229
108 76 6
134 149 206
193 151 209
239 60 41
11 143 245
138 123 92
31 64 154
193 101 158
159 146 187
38 177 179
247 245 48
182 250 7
197 0 38
12 162 36
148 114 52
53 118 73
132 218 241
136 145 117
105 134 45
17 153 164
0 124 192
155 27 18
205 229 194
235 117 95
240 12 150
252 232 252
62 173 99
171 127 190
150 124 116
35 31 99
213 31 5
56 7 74
87 201 152
192 8 229
39 240 243
100 80 185
117 188 85
77 131 189
68 12 18
121 154 13
34 165 76
39 242 145
37 48 34
152 93 31
219 216 71
143 45 110
51 113 194
125 66 158
140 54 131
4 237 6
139 138 170
94 240 254
212 68 105
71 103 122
78 192 108
222 81 167
95 192 182
31 165 244
107 164 4
221 242 43
221 144 240
79 138 64
29 4 115
206 35 112
171 74 34
141 89 95
247 65 208
97 24 82
8 31 235
70 151 189
28 155 125
9 52 63
23 57 146
22 182 20
139 185 160
43 73 228
124 218 107
189 26 77
48 121 163
129 26 249
123 187 234
54 193 224
238 50 162
222 97 65
156 194 211
191 136 205
151 27 223
152 121 36
241 6 110
51 181 118
229 15 11
123 88 33
148 240 149
144 48 149
177 176 174
30 111 74
217 16 104
163 12 86
17 89 197
117 172 118
55 107 177
182 15 221
172 3 241
111 163 10
214 46 146
14 118 76
23 187 227
246 143 83
75 253 60
194 167 136
208 189 144
84 224 101
108 154 55
180 140 84
198 53 36
85 126 86
87 45 109
55 106 212
125 188 180
225 44 127
46 113 54
60 80 142
19 39 197
44 63 99
161 51 205
104 253 102
82 101 159
218 153 196
7 28 184
143 251 4
147 167 167
248 145 65
34 208 144
92 224 119
217 68 75
46 183 95
42 46 228
36 129 239
9 73 149
144 37 134
115 211 114
101 254 72
215 16 59
71 99 11
102 84 106
158 92 15
196 248 131
108 19 173
68 254 153
19 1 63
138 113 223
141 97 52
30 248 217
145 61 199
131 234 162
105 79 32
135 94 123
87 18 145
187 247 195
127 70 242
136 83 72
100 79 123
88 153 227
134 106 18
87 10 69
224 16 218
94 43 3
160 78 50
228 8 175
230 152 47
61 109 128
135 166 62
134 144 243
121 167 234
254 65 147
7 206 180
230 58 3
249 80 77
51 95 178
127 159 133
51 232 156
224 106 88
25 215 248
28 247 21
129 224 136
33 88 142
128 89 137
172 95 214
78 205 28
90 110 127
232 175 16
134 31 68
122 221 19
1 41 184
122 255 203
92 240 111
147 208 53
246 209 220
108 124 196
141 204 251
140 180 89
113 173 10
228 203 174
76 198 6
184 167 195
43 30 116
66 246 219
99 77 13
188 130 189
172 143 66
209 206 202
47 254 94
155 186 159
227 21 161
98 0 8
216 147 249
158 141 93
78 74 107
134 241 201
125 237 113
237 133 251
185 255 143
4 77 111
152 155 114
172 76 54
228 126 217
234 140 14
125 125 52
235 92 81
168 105 102
30 224 171
150 60 224
91 23 173
111 125 11
11 235 255
147 177 121
153 255 219
198 245 235
38 208 19
39 254 198
210 18 210
30 96 72
219 73 176
137 210 46
168 48 42
21 68 145
6 186 57
220 58 51
192 178 120
51 77 109
69 229 218
152 225 50
235 234 199
175 211 89
94 83 214
212 83 109
221 54 69
45 75 234
75 46 229
151 135 241
236 113 25
113 133 226
179 125 26
201 49 227
161 96 230
122 71 90
155 34 17
235 177 245
66 44 7
192 97 252
44 131 4
208 214 84
203 214 144
160 3 108
217 195 226
33 223 149
91 82 168
225 130 253
52 31 21
210 107 185
246 205 227
48 49 2
165 120 19
40 117 110
224 100 23
128 0 180
138 7 173
65 189 245
189 5 160
204 41 170
247 115 163
162 2 124
168 24 216
65 78 203
34 138 247
133 184 46
195 72 16
117 151 146
242 82 167
21 102 157
118 182 201
202 188 65
37 113 41
13 69 161
105 254 176
102 181 101
120 163 94
202 79 221
88 109 144
28 191 83
199 97 27
76 167 187
234 176 57
100 183 137
184 79 19
18 228 41
252 52 208
61 234 23
93 183 47
47 251 231
79 53 55
112 246 186
99 32 250
116 179 202
55 83 66
148 87 20
249 10 61
30 73 202
139 215 163
56 110 153
74 16 228
22 172 51
104 56 234
46 34 63
41 102 255
222 208 116
105 25 56
253 164 184
29 202 246
147 235 191
185 124 212
168 95 201
42 237 145
38 165 185
82 173 166
77 72 211
142 226 153
222 62 13
125 87 165
202 39 247
60 157 59
208 175 50
200 174 23
117 193 35
9 146 192
56 225 131
148 140 65
221 111 60
121 99 8
248 36 142
131 124 38
170 205 19
71 3 151
3 110 0
105 243 34
184 132 62
7 246 125
43 65 161
87 9 92
26 19 66
96 152 180
62 19 238
142 230 99
42 41 244
73 92 210
126 138 250
63 96 107
18 36 136
191 164 92
186 76 142
41 42 69
113 86 101
155 235 15
46 76 28
44 242 44
163 201 235
104 42 125
235 237 130
217 99 144
187 157 23
116 184 205
37 94 221
67 244 235
17 127 166
255 110 42
243 46 77
141 255 88
88 249 76
148 82 72
148 205 103
183 176 97
0 221 27
137 3 250
217 165 39
74 172 158
218 48 87
134 43 130
152 146 173
35 81 178
214 41 223
13 26 119
107 61 182
228 145 23
234 107 71
247 93 116
41 161 32
54 144 219
93 10 155
169 129 55
120 40 2
53 46 148
65 226 76
73 65 17
181 28 229
111 174 3
207 205 92
34 236 68
239 133 36
194 101 116
119 54 189
1 31 215
117 105 83
173 114 246
101 27 36
50 18 148
230 114 248
147 94 39
74 138 72
232 225 220
32 109 83
32 103 152
179 10 131
158 80 74
33 62 206
198 111 9
73 186 75
187 122 82
96 112 123
234 127 96
245 146 180
98 112 168
179 120 110
203 172 254
103 59 170
210 153 34
3 19 219
124 81 13
183 233 210
244 92 80
4 220 199
230 132 144
15 104 141
13 78 252
204 56 103
145 41 236
205 8 48
228 128 176
57 165 134
13 238 16
155 91 228
241 229 57
142 37 101
43 64 127
167 10 215
218 166 116
73 17 152
97 165 197
200 89 44
75 123 17
139 13 53
208 217 220
13 230 77
52 56 152
62 156 242
226 113 34
187 68 152
209 73 24
144 77 117
47 162 80
251 7 141
146 154 104
186 219 145
181 102 124
123 98 96
234 7 61
207 235 217
240 101 139
85 173 113
222 208 165
86 179 225
208 46 154
50 242 70
9 12 38
89 75 66
70 82 2
184 158 110
183 91 106
72 229 197
106 68 214
255 223 209
83 241 41
11 87 177
237 35 187
178 55 214
184 121 247
130 19 90
189 10 3
150 88 139
194 56 251
223 143 84
112 177 247
131 56 63
3 111 74
170 174 71
100 126 119
52 163 71
118 32 58
118 207 79
145 144 61
234 216 73
26 137 201
41 230 202
249 206 149
226 70 81
61 166 231
91 145 104
78 24 126
202 189 35
199 169 17
103 14 15
0 1 166
76 30 11
12 1 115
125 242 88
40 72 131
238 97 42
177 174 85
223 209 118
182 78 90
162 185 13
200 96 190
10 26 86
59 113 13
181 101 122
209 67 121
32 239 159
23 103 31
113 157 155
239 225 248
38 70 108
51 37 28
14 75 38
224 25 26
178 193 17
24 114 136
124 125 154
29 219 43
33 230 160
217 166 247
114 34 164
136 215 101
98 166 129
29 68 128
127 23 88
103 140 142
181 53 218
173 60 94
138 146 32
44 191 211
3 255 74
185 153 195
159 240 63
237 147 119
14 29 100
198 10 208
66 247 189
48 160 218
84 12 75
69 102 234
121 156 247
38 163 30
4 206 130
36 121 2
209 75 29
102 238 228
181 16 139
143 182 75
170 101 125
126 204 2
241 228 58
22 245 253
198 208 250
94 240 145
163 169 137
97 85 234
244 3 218
40 2 247
141 40 138
17 76 151
246 59 64
150 204 137
113 9 203
200 63 188
59 154 60
226 127 42
186 123 54
218 28 0
115 102 122
183 245 34
132 37 10
46 85 52
126 149 196
42 127 159
123 128 180
56 150 141
8 55 216
152 231 211
111 132 97
55 103 175
14 33 114
243 110 201
167 214 8
184 115 57
170 68 217
245 218 21
240 98 176
141 33 233
207 34 231
68 26 231
147 144 219
93 15 149
129 120 137
91 221 195
73 174 181
95 43 5
40 59 180
167 191 45
119 91 207
141 97 179
65 204 127
207 60 3
142 11 6
236 73 26
255 246 107
135 57 44
133 244 93
197 28 203
82 204 98
16 0 38
238 122 198
168 38 179
126 33 20
249 96 44
132 182 231
179 64 234
213 106 238
179 74 132
67 154 23
244 5 6
116 135 222
110 103 27
241 117 164
171 162 74
255 28 176
87 119 148
91 72 125
11 59 145
137 180 224
74 206 176
1 79 18
63 98 142
162 126 144
66 222 56
85 205 203
112 58 210
119 231 98
21 83 16
203 177 190
157 212 143
56 72 142
123 46 251
82 170 227
251 81 88
155 78 35
157 172 205
52 50 182
194 116 217
100 204 228
72 71 188
179 80 195
106 69 37
154 244 155
198 175 182
250 90 111
3 97 28
186 204 49
105 80 26
65 96 166
214 46 239
63 53 66
19 15 248
203 127 240
70 128 114
10 142 202
66 106 125
95 175 35
175 30 14
137 184 42
154 244 25
178 130 212
172 246 115
36 178 48
140 0 178
17 152 148
216 125 141
225 231 61
62 174 241
14 4 180
64 162 207
159 34 183
163 8 186
225 113 160
221 154 62
51 177 54
242 73 253
82 108 211
221 245 121
147 201 190
43 96 69
193 139 131
118 165 67
244 91 67
214 80 122
138 98 86
128 34 11
90 17 91
139 247 216
191 77 4
26 15 67
95 203 128
139 184 150
205 49 199
100 18 201
246 73 130
103 34 40
60 176 164
202 44 100
108 159 170
156 24 47
165 83 238
133 141 58
98 85 78
82 234 192
22 197 136
107 193 63
246 16 166
212 60 40
1 164 118
241 25 91
114 240 15
19 230 245
172 47 238
171 246 181
115 215 79
216 24 166
250 200 171
139 212 55
114 98 5
192 1 243
178 34 98
100 204 89
216 78 143
147 221 174
252 167 82
72 218 17
255 155 4
125 159 87
235 53 144
42 134 33
46 189 167
169 1 5
230 113 12
242 7 205
51 82 50
4 67 130
226 5 100
176 11 24
181 202 142
103 124 255
49 159 46
86 103 194
120 248 98
123 224 172
205 169 118
71 194 0
242 115 119
158 180 135
197 32 41
124 9 39
126 158 154
200 143 194
127 250 138
214 22 234
232 255 29
89 133 208
51 166 138
143 171 247
198 67 81
86 13 105
192 48 132
205 239 157
19 182 154
144 146 127
64 249 163
121 74 203
134 160 203
196 2 6
64 191 255
57 122 149
185 81 42
186 146 13
51 74 146
158 225 22
180 157 150
47 197 156
31 206 250
99 125 219
45 167 41
128 79 24
97 185 211
222 122 156
226 237 171
251 192 3
185 201 48
63 87 139
183 62 140
154 38 122
101 97 89
151 189 48
4 88 90
12 80 33
55 92 234
1 179 106
109 174 129
107 24 230
7 24 225
115 188 92
141 6 247
69 20 40
181 71 143
113 13 40
144 228 86
131 206 29
184 220 47
227 81 83
192 218 180
158 9 158
49 212 7
228 39 169
82 23 158
39 76 135
36 224 51
72 119 206
81 232 182
158 195 59
122 100 47
20 139 40
241 170 207
95 40 111
191 231 155
227 135 176
65 175 34
28 14 217
92 152 5
235 195 17
182 199 237
123 97 38
158 172 176
199 218 159
110 135 200
34 205 209
151 87 66
57 140 201
195 85 223
187 241 194
235 108 236
77 135 168
220 173 217
214 244 141
159 23 65
176 57 226
203 204 154
84 42 96
191 155 229
248 11 217
179 164 209
15 200 179
9 160 146
25 133 144
138 123 251
69 137 218
74 11 14
57 15 223
12 210 93
88 250 86
115 90 90
253 58 38
82 183 146
100 243 152
208 80 63
145 254 191
179 140 242
93 69 189
60 183 11
67 132 88
211 131 70
213 236 224
43 224 33
137 181 130
225 118 138
131 99 135
78 223 153
241 221 106
151 67 33
58 32 125
78 54 225
105 242 11
103 247 221
139 217 201
152 55 105
33 137 67
240 51 35
229 148 160
183 27 41
0 29 62
93 93 197
83 87 6
188 217 243
205 179 122
126 30 116
117 63 24
245 67 127
233 58 69
2 230 186
33 102 66
50 189 206
83 225 236
95 89 67
172 106 230
151 65 144
145 42 49
22 155 36
158 170 19
133 141 155
190 22 43
153 164 51
253 200 116
54 18 102
104 1 165
72 11 44
66 183 121
58 34 36
117 140 95
25 203 130
128 219 220
187 139 214
197 98 140
215 191 188
196 218 136
162 50 164
39 206 162
228 236 110
253 214 220
120 190 82
191 166 0
49 108 22
127 60 132
254 158 140
64 104 113
66 251 202
188 143 208
211 67 203
183 19 238
199 10 116
78 191 187
93 56 132
237 147 186
113 223 34
163 254 181
23 78 240
82 174 119
124 119 41
63 113 104
172 12 22
119 19 244
212 97 192
73 203 58
197 73 236
87 100 132
181 116 236
222 54 241
130 250 33
203 103 76
25 172 98
61 86 159
159 134 180
158 68 99
88 62 254
31 174 188
150 168 50
85 136 137
67 213 48
74 61 202
210 55 24
192 20 30
77 227 117
167 175 249
6 215 46
201 117 253
93 190 141
58 96 151
223 6 151
191 250 134
239 18 19
186 243 185
165 77 113
148 160 131
37 197 238
100 100 180
73 50 26
251 65 218
79 12 226
174 7 123
186 217 180
139 88 166
176 134 33
151 203 229
154 70 66
105 228 176
181 90 244
32 234 86
41 88 193
54 34 34
74 38 197
236 118 70
176 131 241
153 10 42
135 233 92
57 195 123
228 77 13
91 4 253
121 48 103
171 172 10
20 232 136
147 239 7
96 108 48
49 118 44
5 196 162
136 105 124
127 152 211
112 57 201
237 25 241
177 126 134
130 25 92
8 37 243
191 194 110
61 236 181
31 126 67
219 159 96
232 129 67
145 255 180
4 43 85
220 211 83
238 239 180
11 243 111
171 171 178
210 180 71
203 3 206
255 16 9
117 188 137
152 131 58
154 201 26
105 136 146
201 180 87
221 188 200
159 20 80
250 108 0
215 231 71
49 182 62
68 82 153
92 101 201
208 120 1
69 112 4
55 106 140
220 70 52
6 229 19
250 33 187
174 218 124
137 5 119
121 104 183
56 217 145
68 142 125
206 105 120
112 6 163
238 110 155
30 180 110
46 76 212
157 1 88
43 211 85
94 106 174
253 1 151
110 31 77
247 85 166
106 227 163
113 222 195
163 235 4
118 44 32
141 148 134
20 176 169
130 99 115
250 185 23
244 52 162
177 132 95
176 32 130
144 98 47
85 3 219
34 118 217
147 59 240
215 175 7
12 89 156
201 93 63
158 252 205
20 27 57
142 17 188
92 96 6
37 0 110
145 235 15
51 4 109
4 32 248
98 116 159
99 227 237
195 157 33
181 29 152
171 6 238
47 182 127
146 75 178
143 89 126
125 1 206
189 222 184
40 238 75
192 236 101
250 116 117
172 118 99
247 44 19
187 250 242
160 110 91
227 193 198
128 219 177
249 160 187
14 206 227
149 54 42
146 92 5
134 32 129
241 244 9
30 221 165
196 183 122
145 92 117
246 229 181
118 167 117
174 41 193
214 116 246
187 198 203
118 218 164
121 175 74
13 142 192
217 79 173
245 98 176
73 98 180
120 119 18
191 96 98
232 4 255
84 121 78
74 183 145
31 23 24
157 45 8
233 22 202
199 136 218
153 79 94
217 176 89
39 254 217
47 33 106
118 162 239
73 169 142
168 96 23
35 237 125
245 136 222
85 177 18
91 130 57
247 13 55
8 72 193
166 170 82
201 218 140
181 133 238
242 212 209
183 101 98
253 163 136
55 181 84
53 177 201
152 233 103
48 198 248
171 226 143
222 17 158
214 151 168
117 197 92
180 80 149
89 77 61
47 50 87
211 112 131
216 184 184
158 22 133
112 113 43
59 224 60
217 236 250
123 5 1
129 85 31
109 73 80
114 183 211
143 116 71
70 147 252
6 208 7
145 253 247
137 226 50
59 2 163
219 17 144
147 96 154
43 82 16
68 180 26
102 79 167
155 53 5
116 138 1
62 187 167
84 78 116
175 11 211
57 213 193
52 33 68
207 158 162
107 99 85
242 133 243
153 69 58
168 112 46
111 195 108
176 249 199
24 103 29
161 66 35
78 132 112
186 170 161
0 223 147
254 100 5
43 40 49
104 78 253
56 117 175
203 59 176
251 176 153
59 223 71
72 151 206
154 20 205
128 79 12
90 209 14
162 55 68
177 12 45
235 29 49
149 14 177
80 51 50
79 161 141
175 197 232
162 152 75
139 88 155
92 138 20
218 217 113
199 98 213
245 192 218
102 134 52
64 64 120
168 13 29
239 119 186
112 29 33
144 96 110
135 209 172
226 17 209
97 159 251
55 202 80
149 155 232
234 184 22
167 166 229
246 26 90
18 173 85
50 184 102
0 144 221
112 116 80
238 57 112
135 168 162
74 121 223
42 13 18
122 200 224
32 79 177
87 132 55
116 189 210
235 235 171
146 44 254
241 172 110
133 212 51
254 154 69
144 28 198
62 52 188
40 9 86
181 81 74
16 170 180
82 231 208
45 72 43
149 169 230
162 185 139
49 24 136
201 219 27
187 145 42
62 13 111
193 131 135
98 33 4
182 202 100
84 225 156
124 241 240
32 1 25
210 60 28
36 160 71
47 190 208
206 6 145
228 2 165
38 20 164
179 31 119
245 166 199
114 87 172
193 200 194
171 110 77
250 97 32
9 211 228
3 114 61
177 14 193
116 61 182
158 238 203
83 181 226
79 150 19
108 10 121
136 121 88
156 17 15
23 198 232
30 94 118
131 247 238
204 61 180
213 6 154
12 207 234
207 254 221
0 181 98
132 191 201
183 194 89
130 66 236
82 40 220
107 180 37
169 254 98
150 31 118
233 187 235
112 39 142
40 128 116
236 226 167
170 41 84
44 42 8
97 71 207
223 201 166
198 129 98
234 117 50
223 18 183
96 105 24
223 124 0
247 110 160
108 179 100
91 33 1
244 68 248
154 142 5
143 86 100
93 234 18
123 106 2
53 253 160
66 93 16
1 23 168
116 140 107
19 157 126
73 191 184
141 52 248
99 70 150
197 170 45
191 84 8
149 209 48
224 181 81
17 99 22
115 144 54
62 144 174
143 197 7
224 70 250
190 159 209
253 235 164
66 198 116
145 8 136
34 59 73
83 251 52
43 242 15
156 243 112
251 150 18
135 37 190
96 89 26
224 20 102
108 234 162
135 108 141
81 122 1
211 14 219
163 163 107
155 140 153
227 222 34
208 85 115
34 42 94
237 139 129
42 19 117
144 227 121
212 155 56
245 227 118
47 200 243
138 98 215
113 223 74
92 133 25
150 200 117
153 58 168
10 69 130
212 44 62
205 187 221
69 9 148
245 197 220
189 11 94
219 146 211
169 103 223
34 93 82
147 85 72
18 113 207
20 40 131
60 230 118
228 58 7
7 181 216
107 254 55
47 204 216
215 209 194
3 224 238
40 179 70
10 94 208
171 155 165
51 145 139
40 253 66
59 161 92
103 250 221
86 109 65
187 78 183
153 165 62
210 115 213
5 106 34
169 203 18
250 26 242
244 26 139
218 53 57
152 23 54
108 254 166
235 116 161
35 133 3
252 25 254
18 80 138
246 244 205
139 194 235
87 182 133
124 255 8
114 152 19
58 88 179
189 248 235
61 238 59
30 77 230
70 121 47
78 250 32
42 248 185
55 213 98
78 77 90
66 182 214
95 161 90
117 191 57
102 236 214
42 137 209
56 234 247
143 90 194
1 102 65
245 32 146
28 126 237
102 204 129
126 113 208
219 238 34
74 88 99
225 63 67
56 249 217
36 174 164
110 35 42
154 214 172
178 82 94
223 202 245
241 88 86
138 15 236
92 143 102
194 182 68
11 23 19
100 160 215
226 182 141
54 8 177
125 51 40
2 219 5
252 0 195
185 155 168
56 126 128
188 112 171
34 211 179
2 109 13
153 65 166
223 137 212
47 84 77
65 86 196
1 56 101
155 223 157
48 171 217
250 41 26
237 136 57
7 3 197
157 158 34
125 100 255
61 107 142
4 138 159
37 41 41
10 12 126
118 242 16
225 112 215
200 49 222
53 80 245
76 108 157
76 21 168
163 181 207
138 128 56
251 92 72
150 221 141
50 15 43
68 100 188
78 172 142
167 108 99
44 203 36
14 176 1
183 83 135
183 255 179
139 183 77
126 123 74
164 67 148
73 153 138
213 37 90
138 8 173
141 97 194
51 0 79
122 144 108
126 95 62
149 179 0
197 115 58
91 174 140
84 93 220
97 33 44
124 150 231
242 246 109
247 83 93
114 122 242
56 15 55
216 167 242
230 162 136
114 183 6
180 123 139
253 147 110
220 148 42
121 118 82
157 48 210
126 25 109
7 95 113
16 45 21
238 174 179
97 193 105
172 229 61
47 128 145
111 240 249
226 47 76
225 198 170
171 212 19
240 14 163
188 61 188
102 40 212
121 9 73
23 90 117
9 94 161
104 81 161
214 5 59
160 64 254
235 216 102
234 15 217
79 77 97
74 13 113
228 52 103
88 210 76
230 134 225
55 16 56
2 132 155
59 203 61
143 48 249
51 54 210
190 149 224
240 175 43
17 194 98
62 10 186
3 93 220
162 218 124
187 30 134
237 32 245
38 69 141
55 64 1
94 193 108
186 31 210
5 165 112
145 40 72
108 168 105
59 114 79
41 190 158
245 54 55
29 86 222
82 144 217
72 186 103
34 57 30
248 87 128
116 2 99
198 66 102
107 170 129
168 14 98
69 206 153
36 55 118
81 125 140
1 214 45
41 156 161
250 239 164
101 4 83
191 145 148
30 224 106
18 202 146
213 179 167
209 241 2
203 87 220
170 67 57
220 74 120
228 223 149
23 6 68
251 211 130
77 19 155
216 40 201
208 164 40
91 89 100
230 164 155
108 130 78
235 238 186
60 194 113
203 1 94
56 185 250
51 203 38
139 70 204
126 219 172
151 109 161
28 114 163
91 24 202
97 190 14
130 91 13
114 104 50
1 189 16
242 79 199
205 147 187
65 139 212
186 63 25
32 212 182
223 31 1
137 254 141
76 19 244
6 38 241
0 45 254
155 41 252
109 40 78
60 138 126
57 69 53
20 137 56
10 185 93
252 208 175
65 23 91
27 215 83
206 117 196
73 255 205
100 21 94
47 82 27
80 239 101
239 99 156
174 215 53
244 221 164
8 242 198
180 107 152
63 246 27
33 225 166
119 11 248
42 33 93
255 103 52
196 91 157
25 174 108
236 28 165
114 254 224
101 134 218
200 204 96
229 82 188
114 176 152
222 48 187
141 19 110
27 7 159
69 215 0
67 97 154
116 32 13
81 196 137
140 16 103
72 135 43
43 125 120
220 153 119
127 20 210
115 154 64
49 89 0
240 12 204
210 59 120
60 237 245
59 5 66
119 25 198
60 20 122
34 88 2
13 116 226
4 64 185
248 64 56
233 204 134
242 176 50
163 106 182
254 204 174
120 10 110
140 102 148
65 1 252
50 183 86
124 169 168
42 223 238
66 110 155
80 148 161
241 54 24
202 217 92
110 188 127
81 53 16
187 92 235
82 20 97
133 240 79
88 139 120
146 118 90
101 40 186
160 249 31
154 137 67
64 237 44
181 197 7
192 215 127
208 239 119
215 54 209
33 88 138
27 232 242
71 125 89
69 213 19
239 82 58
146 246 89
1 144 52
131 173 157
204 213 161
122 105 105
228 207 167
142 168 211
24 206 95
105 91 1
77 106 177
43 155 220
151 230 199
251 201 163
56 47 228
73 251 3
42 228 160
111 11 67
217 143 92
229 157 107
84 49 97
77 51 179
182 157 226
247 49 33
69 44 130
50 96 175
167 167 201
191 243 106
191 4 80
137 42 89
73 170 163
36 0 203
189 107 100
220 212 75
206 51 82
82 29 107
180 16 82
161 247 193
230 32 68
40 57 225
180 66 129
141 214 149
201 133 156
144 246 110
190 166 44
11 141 30
152 174 5
204 205 75
53 41 186
140 41 151
161 59 38
119 62 69
38 190 160
52 28 132
172 14 32
112 133 128
228 207 154
125 43 243
179 156 28
142 37 47
105 8 46
230 94 17
56 170 100
122 79 251
5 185 235
96 186 139
150 134 200
20 138 130
18 202 186
203 211 164
79 56 155
30 253 156
196 125 245
195 171 42
240 86 165
83 62 123
4 207 17
197 62 198
6 175 138
102 55 248
214 204 233
145 114 81
202 78 111
100 61 38
227 188 100
96 180 181
3 100 91
179 223 117
111 178 58
170 123 225
115 245 226
61 2 213
114 128 75
38 127 107
92 109 163
196 212 165
3 80 222
238 194 12
91 204 87
57 55 40
66 50 121
28 194 85
26 55 204
71 198 168
100 28 153
72 187 43
247 215 59
173 117 38
50 64 191
242 158 80
99 230 49
231 190 136
82 127 152
234 199 7
59 223 166
167 167 47
254 155 88
117 75 195
16 20 32
33 104 183
31 170 48
158 137 247
160 157 86
2 134 106
193 16 147
20 7 38
212 166 183
162 25 71
207 4 193
226 57 89
17 131 154
101 198 250
102 75 19
220 187 24
91 198 134
53 94 63
194 88 174
0 28 173
83 105 198
238 52 135
111 84 200
255 94 18
3 193 137
255 41 217
6 102 175
174 183 206
14 227 64
231 39 41
174 12 73
149 43 26
138 242 79
125 85 109
216 68 162
244 130 234
76 162 46
176 152 203
249 170 169
185 197 13
147 167 199
125 127 30
87 132 22
77 67 7
51 97 163
66 123 181
153 239 13
220 30 101
6 193 212
180 142 167
168 164 94
223 194 231
216 4 226
16 97 75
183 83 224
65 120 71
221 117 252
243 31 99
231 176 115
164 118 252
85 26 35
100 8 93
160 126 110
90 229 251
171 253 170
237 237 1
50 25 135
12 108 12
116 251 186
4 71 9
88 113 55
131 2 84
229 116 90
252 213 226
56 224 192
177 150 113
126 192 227
102 146 197
218 22 215
238 170 125
15 250 70
97 24 42
18 144 223
211 93 149
153 122 206
196 221 117
84 249 22
17 216 193
41 125 37
226 56 130
142 75 203
130 55 9
246 49 156
65 252 222
217 205 138
201 210 141
198 151 200
130 70 130
23 181 224
205 7 109
114 141 93
213 186 133
233 70 26
151 29 216
140 131 109
238 43 52
94 171 109
10 141 118
33 127 163
204 50 75
232 10 86
141 21 187
197 179 89
240 236 13
125 112 201
220 47 135
73 43 221
16 213 136
57 48 95
110 98 233
172 17 161
34 178 151
250 53 84
80 226 166
166 199 32
245 208 116
37 75 130
36 155 34
6 255 103
247 176 96
225 209 255
21 212 27
204 155 168
96 130 135
243 189 41
144 228 106
6 204 34
240 182 5
82 27 10
62 170 199
133 53 205
168 134 243
53 158 55
90 25 70
254 200 26
56 200 15
124 8 166
25 54 140
3 173 77
127 24 130
110 75 198
10 120 12
159 104 249
225 37 243
235 58 191
251 2 15
196 110 196
169 209 39
166 63 24
35 226 145
190 188 75
35 245 22
81 152 114
206 112 157
34 33 43
138 24 140
76 25 194
94 133 79
178 127 191
125 173 32
208 160 149
220 49 146
227 247 188
226 39 145
214 114 21
248 12 108
51 97 99
31 1 22
61 46 181
98 197 217
166 20 67
108 199 5
170 23 223
7 142 141
119 86 11
29 36 84
101 47 68
56 32 205
64 39 12
221 204 199
215 138 236
141 84 3
250 116 194
102 143 182
122 213 49
178 20 17
56 230 159
122 84 77
162 145 254
178 111 217
178 102 33
24 92 81
113 27 82
232 175 68
244 32 255
225 92 223
40 35 250
180 42 14
76 249 239
59 199 95
193 210 226
190 192 123
118 28 33
201 187 143
252 211 102
86 227 101
112 24 221
142 124 221
245 89 77
42 214 137
64 132 4
156 224 20
53 157 134
186 245 113
79 124 197
156 215 131
98 253 222
84 97 240
213 91 148
122 125 64
100 61 183
123 174 94
250 176 233
15 203 26
164 120 204
56 41 242
158 12 131
180 77 170
14 252 70
208 201 187
23 175 249
58 231 186
92 190 186
102 89 251
106 137 106
23 235 85
51 104 246
55 70 173
91 17 169
161 16 46
142 220 159
154 228 73
247 213 153
136 75 240
199 154 62
231 111 56
184 155 244
246 230 55
219 30 58
26 234 37
39 210 254
255 154 239
242 205 75
216 77 127
85 229 28
97 42 60
133 158 38
144 42 75
18 36 134
17 132 225
66 81 50
157 123 205
0 132 16
247 73 226
137 116 49
51 117 235
39 250 244
129 103 17
208 100 162
254 186 74
148 55 9
81 244 23
73 98 142
123 141 139
6 148 5
110 161 244
6 224 129
172 170 162
60 255 119
45 164 132
94 207 72
13 26 169
127 42 44
237 38 213
103 41 176
82 150 136
38 121 246
128 221 102
21 254 180
203 52 238
21 7 170
97 1 97
166 247 34
21 143 248
10 72 144
7 42 0
128 192 14
66 40 108
213 251 96
236 142 27
64 7 242
11 88 214
54 182 10
48 103 34
51 19 236
115 37 14
195 244 63
254 56 16
0 98 161
88 197 82
127 103 230
175 131 70
62 117 158
39 41 252
31 177 190
112 136 23
160 191 213
139 252 67
176 208 253
254 83 35
66 42 213
49 236 30
136 109 113
177 49 59
212 210 131
52 255 65
238 56 245
249 178 240
130 31 48
115 87 195
192 73 131
134 88 0
125 87 135
198 137 120
202 62 116
32 70 91
63 163 202
10 38 179
51 222 155
180 61 197
30 185 87
100 67 103
86 39 13
218 21 148
66 159 44
169 156 33
248 190 85
39 106 172
1 236 79
52 180 55
57 233 195
207 218 194
3 146 250
73 85 158
152 106 58
109 80 158
168 11 163
78 121 4
143 39 50
127 118 57
123 2 50
47 133 187
41 144 52
213 244 238
56 185 158
62 202 231
143 54 149
156 58 245
103 131 77
14 178 15
30 61 223
236 93 0
216 136 45
234 41 29
135 218 60
144 135 76
191 156 99
111 239 85
4 107 198
245 114 103
126 232 160
145 61 163
75 51 68
168 212 163
151 19 219
172 115 60
176 52 174
126 196 190
111 227 200
159 164 152
94 10 4
82 96 86
9 19 200
150 25 122
30 168 140
224 237 1
164 2 95
45 70 54
153 197 251
65 31 1
255 169 50
250 135 50
225 183 198
82 42 118
140 124 57
133 151 196
76 160 200
26 20 138
172 28 119
255 236 124
9 255 219
93 118 65
186 143 118
198 248 59
163 73 59
59 139 210
189 235 136
30 232 0
54 80 3
151 25 27
17 196 194
216 56 239
197 172 117
31 64 98
158 38 94
209 120 240
132 109 57
11 160 177
29 95 74
210 141 103
93 239 105
111 91 202
104 228 63
12 158 122
230 139 99
209 53 189
4 151 87
145 229 56
188 31 167
125 175 54
69 194 153
103 169 105
52 48 163
193 50 200
47 23 202
0 211 45
56 255 210
116 111 101
110 203 32
193 48 50
110 161 246
215 221 153
102 140 16
16 94 165
105 229 155
61 52 172
196 68 59
4 123 100
104 6 247
167 82 79
71 23 161
61 131 149
142 134 134
189 255 164
205 25 214
159 194 123
4 223 118
173 108 115
254 153 72
124 223 14
200 203 52
253 53 20
247 225 94
9 186 109
252 49 74
118 71 26
90 214 253
99 144 15
246 234 2
130 177 17
21 214 6
230 178 123
165 169 247
48 160 206
124 113 54
93 117 232
59 69 140
191 205 187
228 58 110
149 218 33
75 253 180
180 37 175
231 81 92
12 57 52
61 229 61
79 183 173
106 190 240
209 139 96
201 226 54
242 99 213
161 173 68
44 100 52
4 107 76
81 88 6
233 159 80
100 72 235
70 147 190
202 24 81
250 27 252
69 209 45
93 205 76
22 118 203
161 120 147
213 190 67
59 136 210
196 12 210
229 236 244
235 155 209
59 50 136
233 187 223
209 155 124
95 158 2
218 67 57
44 76 184
139 119 158
131 19 30
202 228 231
23 106 241
71 171 26
9 166 64
30 51 193
217 210 182
8 65 10
131 118 130
82 94 195
123 73 23
170 221 29
26 46 38
178 160 111
104 83 8
229 42 146
186 115 6
9 60 67
110 59 135
84 160 166
233 132 72
9 139 55
117 128 139
40 40 108
104 34 160
71 70 99
65 4 14
113 165 188
229 127 86
246 122 166
187 225 47
18 96 150
162 32 64
120 114 243
243 188 195
12 211 177
124 50 80
69 170 244
129 167 32
235 240 202
83 70 166
12 41 83
21 167 39
196 69 129
9 149 49
253 84 206
16 85 57
133 193 61
193 89 64
220 118 166
251 6 104
128 126 131
52 224 141
72 239 117
93 110 224
104 158 216
149 91 61
160 130 95
60 83 255
43 185 182
5 11 137
124 145 203
190 40 45
199 51 62
120 109 160
237 197 237
193 64 8
132 213 31
105 31 248
245 208 204
130 123 207
29 106 185
21 138 84
243 46 126
181 203 126
168 246 29
73 34 159
8 177 199
232 85 17
212 148 5
6 157 51
105 29 111
98 239 26
233 188 57
47 154 254
157 61 111
95 31 209
79 21 13
89 24 131
57 221 182
82 219 55
247 202 25
241 51 49
144 94 145
155 197 215
1 253 69
186 38 141
48 251 188
239 184 60
33 63 212
223 192 243
53 235 147
43 9 78
48 45 225
125 72 9
55 60 227
100 111 231
200 232 87
188 131 52
121 193 141
209 182 221
136 245 243
155 100 44
5 225 83
164 245 170
131 72 228
196 221 23
60 204 170
114 116 116
59 90 57
79 52 46
255 171 42
139 23 169
181 90 98
147 112 178
63 86 255
130 16 106
212 68 223
205 221 189
195 168 173
50 231 149
42 168 79
81 121 246
150 222 196
119 196 176
89 200 247
127 34 112
37 48 248
56 217 219
162 58 21
123 43 5
125 224 113
6 130 238
32 2 41
202 213 77
184 174 84
40 75 251
94 241 76
147 216 170
152 29 182
218 250 105
229 169 42
3 61 252
242 174 32
95 120 245
5 179 214
150 242 96
118 175 167
225 165 109
55 196 32
237 219 40
176 233 212
181 238 46
230 28 21
232 96 29
92 150 229
146 206 4
48 158 122
52 51 217
16 127 155
63 126 233
94 177 131
251 7 126
46 42 214
52 94 246
176 226 15
114 108 189
184 91 159
77 142 125
125 66 170
124 137 136
151 86 140
209 5 76
240 142 144
252 123 54
192 76 167
49 206 173
51 241 184
24 20 248
153 248 37
189 132 41
248 7 180
255 45 221
139 234 23
102 228 170
214 82 47
5 249 249
47 149 87
251 9 223
126 36 72
7 236 161
171 8 38
111 151 1
31 253 162
105 44 241
49 232 77
137 143 42
210 206 198
191 248 2
24 178 152
142 75 230
162 173 185
207 99 169
247 166 106
249 76 253
21 178 241
231 190 255
19 192 88
106 189 1
16 119 64
51 88 154
172 131 96
234 147 32
202 59 220
179 21 252
75 244 6
175 129 44
234 23 198
49 225 84
147 249 232
7 159 235
109 190 232
161 254 60
54 51 1
239 182 179
27 200 227
232 224 172
208 143 228
241 169 250
116 53 120
36 242 184
113 55 35
206 81 47
172 79 234
233 104 245
114 120 89
93 100 56
128 236 90
237 178 89
81 185 79
1 83 2
225 91 13
46 59 4
192 154 222
80 3 61
154 73 73
122 138 245
169 38 68
53 66 107
98 21 185
174 98 254
54 29 83
154 122 50
70 67 1
199 153 170
141 180 205
168 145 123
187 240 21
115 181 101
116 38 226
199 186 82
67 203 165
202 207 180
214 16 101
3 146 252
37 185 188
199 176 0
123 134 117
154 175 93
123 126 252
21 102 151
180 180 112
138 184 243
113 241 157
221 126 133
212 1 23
237 91 58
54 72 159
41 157 240
243 205 27
106 225 40
112 49 89
50 18 91
230 30 213
73 40 148
11 1 166
108 66 65
67 132 17
27 223 179
188 59 103
87 221 176
191 142 170
13 133 132
114 48 56
108 15 14
230 114 55
86 212 105
21 216 210
191 62 141
177 25 34
214 199 171
176 80 190
136 32 114
219 160 212
72 95 102
76 146 118
138 158 205
228 32 238
134 24 160
195 18 115
56 77 103
249 45 239
116 112 30
146 139 31
214 118 31
226 247 34
117 242 60
234 128 129
75 220 60
146 141 26
10 233 145
162 194 145
72 10 138
90 23 244
108 160 13
88 207 119
92 148 102
144 254 244
81 232 34
37 56 18
93 132 182
160 242 141
189 102 96
95 181 173
51 181 175
105 45 8
211 81 216
163 247 200
130 204 3
174 102 247
139 123 15
137 45 180
99 147 217
32 117 129
58 102 161
73 53 144
55 175 48
225 227 146
72 8 63
87 164 155
116 8 183
248 99 212
252 148 182
7 118 225
57 243 50
216 242 223
247 183 78
162 78 10
106 210 36
52 154 65
181 229 50
150 169 97
161 115 228
190 192 173
169 144 14
90 131 100
211 31 132
218 193 96
76 201 42
65 54 95
36 123 253
32 81 62
74 231 147
114 59 194
24 225 217
161 101 7
11 176 70
33 41 68
121 158 63
240 58 111
246 102 254
195 73 117
94 18 149
43 42 159
88 85 27
97 35 87
7 227 98
8 107 16
201 32 53
172 67 61
187 46 209
182 115 7
21 67 204
185 30 72
120 197 187
242 24 222
195 1 79
131 33 236
128 174 73
236 60 166
216 30 136
54 100 83
233 89 34
47 87 163
168 245 66
248 37 65
132 214 9
112 34 109
156 35 127
124 211 58
133 161 43
241 92 124
221 245 87
37 2 53
207 146 75
37 185 20
18 165 70
240 114 15
167 52 12
91 190 228
207 55 208
12 30 231
85 216 198
181 10 28
18 117 53
143 165 187
129 203 75
253 56 255
198 53 209
63 61 223
165 153 24
45 95 106
167 61 202
228 211 127
204 34 234
171 167 98
196 204 24
21 241 31
241 147 141
68 151 106
194 50 128
253 65 43
110 12 200
103 54 191
41 232 74
127 105 113
99 222 140
244 26 160
127 75 157
4 143 193
222 135 245
217 153 50
235 153 28
72 173 241
120 247 2
181 60 171
66 126 58
5 184 215
199 210 167
102 135 43
146 40 133
199 219 7
23 153 124
54 141 254
183 93 96
146 241 11
113 158 214
214 173 1
4 4 197
72 44 46
144 70 91
71 108 147
121 2 88
117 157 246
239 45 159
142 239 69
161 54 158
239 38 0
194 194 235
162 77 241
156 210 254
233 23 191
215 100 233
28 64 84
230 44 20
63 218 9
113 7 165
157 94 121
106 23 161
251 50 236
96 129 93
83 50 197
142 30 44
217 217 237
254 71 66
198 131 55
146 241 18
130 159 249
115 34 172
32 74 19
130 80 103
83 15 161
111 33 108
51 108 88
152 20 252
36 5 151
238 14 185
215 203 139
146 3 93
73 20 189
29 103 140
239 4 134
24 23 23
143 188 218
97 118 251
133 175 139
253 239 93
234 196 48
135 16 36
170 89 15
224 129 215
225 102 2
197 235 225
15 34 85
227 121 78
124 21 21
150 195 37
64 159 54
133 67 212
31 201 136
231 201 240
215 179 255
128 4 66
139 167 121
204 186 162
3 56 80
59 90 131
85 143 148
254 194 212
96 228 232
236 210 225
250 206 15
147 241 87
102 243 178
109 65 80
61 192 94
85 9 151
154 46 24
169 232 205
27 81 29
204 140 222
178 94 18
80 107 87
229 249 86
216 141 175
32 55 231
14 245 219
220 41 91
38 152 32
79 142 201
37 23 184
13 169 10
79 219 175
27 60 149
161 129 64
204 135 244
151 230 122
180 50 209
96 205 64
31 232 83
34 185 48
24 118 104
132 66 95
113 228 23
231 62 111
60 166 41
87 253 143
87 186 107
7 31 74
168 117 62
164 238 247
10 144 214
211 45 27
21 85 102
188 247 252
139 98 144
35 37 126
91 229 27
218 248 33
213 247 96
170 179 216
239 179 225
64 22 124
3 223 252
160 158 55
28 70 75
38 209 240
156 47 227
134 246 108
43 12 100
233 227 230
96 223 179
232 179 225
218 4 130
96 95 174
210 89 239
69 14 96
231 41 221
26 228 182
143 43 161
121 20 249
129 48 188
245 152 233
101 14 59
128 35 92
153 135 47
232 136 216
79 222 26
174 1 50
222 51 69
41 180 246
240 198 115
83 247 40
25 50 57
195 226 21
240 30 104
176 149 230
151 254 47
87 163 146
196 228 211
201 245 251
65 24 137
57 112 228
230 49 30
12 40 120
231 167 22
54 48 164
9 112 251
235 62 130
35 20 211
233 32 51
236 229 27
20 11 41
128 140 25
225 111 80
69 37 132
177 1 185
51 140 85
0 32 101
143 94 146
226 154 70
205 10 176
70 225 247
110 10 187
133 224 122
74 108 89
164 20 45
130 39 121
149 36 131
163 23 83
84 37 124
198 144 177
71 74 17
166 235 163
150 148 197
31 36 135
147 26 219
218 74 52
220 21 253
62 79 227
93 223 208
190 227 131
104 21 11
73 8 216
127 249 111
32 215 78
215 3 122
107 238 114
101 100 119
138 99 221
159 191 44
246 129 201
214 144 76
218 248 110
169 98 52
31 38 169
66 34 230
150 204 210
204 63 227
185 125 81
213 23 30
149 98 28
213 65 53
254 227 235
88 205 212
201 65 36
20 129 20
88 186 244
103 105 151
53 111 214
83 96 219
127 49 135
21 49 118
174 133 117
1 238 64
241 115 187
189 149 234
25 24 211
182 64 184
121 21 18
158 160 70
46 176 245
182 99 236
158 11 33
227 201 110
61 27 189
98 201 207
116 137 52
243 202 209
174 63 176
195 93 190
155 28 202
49 154 40
70 82 214
10 56 122
177 134 137
185 143 162
110 146 33
0 35 189
75 25 169
63 222 135
116 73 123
186 80 60
21 70 47
228 214 188
70 137 193
112 226 48
53 42 31
35 7 130
219 190 223
20 119 30
40 158 206
83 194 203
182 198 32
180 116 229
118 220 69
18 224 117
223 97 87
53 217 91
82 33 18
47 246 7
112 126 8
182 216 74
39 226 181
124 11 243
3 210 210
4 54 175
180 172 70
102 141 33
206 54 31
222 133 150
95 53 115
253 101 109
223 65 204
237 84 20
121 217 221
34 99 86
215 31 250
68 186 192
147 29 57
7 151 146
7 2 18
123 85 147
142 191 248
85 195 53
39 164 215
147 114 0
200 164 185
201 211 87
33 31 136
18 140 58
8 72 230
19 190 54
94 218 228
187 229 111
150 62 45
140 156 12
65 223 80
28 77 198
219 100 120
123 3 72
251 116 224
84 138 143
210 107 218
127 98 37
71 105 39
125 235 8
97 125 97
56 110 14
223 139 88
230 94 157
124 251 5
29 179 37
119 89 190
239 202 13
34 76 73
229 20 192
82 61 231
141 251 148
91 173 218
46 215 126
23 234 246
160 92 128
245 137 193
209 104 84
31 157 153
32 98 116
199 195 71
213 2 206
152 195 67
151 193 191
155 243 93
89 62 78
38 4 110
230 96 89
154 20 67
59 50 114
140 33 159
162 125 92
181 12 180
56 193 66
29 32 246
141 111 124
92 18 79
87 132 216
1 130 36
50 143 11
61 52 23
236 58 27
120 19 79
10 114 192
189 114 29
73 32 16
58 250 143
109 84 9
88 30 176
54 101 255
145 172 186
78 28 146
93 13 215
109 204 103
82 241 120
32 18 175
235 68 3
175 113 196
117 229 127
31 215 173
125 62 211
222 4 23
111 94 180
193 74 69
121 7 106
72 240 39
7 205 202
40 62 139
149 119 30
4 226 64
179 37 116
86 20 136
193 41 95
253 232 126
83 233 55
32 179 108
70 146 48
207 76 104
90 156 102
121 171 19
152 27 208
37 53 219
33 81 131
114 137 212
37 166 84
170 142 151
230 236 79
182 189 200
134 52 161
39 120 140
38 119 56
86 132 75
58 35 222
139 56 10
155 215 246
67 196 141
57 221 191
146 164 94
83 192 153
49 223 52
140 35 192
55 244 124
165 245 58
218 208 67
45 158 39
157 38 0
73 4 49
166 223 217
7 101 177
205 126 74
57 228 68
112 222 234
54 214 231
14 55 244
75 171 131
198 104 176
251 97 225
91 168 250
29 24 65
4 59 188
130 205 71
206 152 192
89 193 135
24 248 124
0 102 36
131 211 59
243 239 41
144 184 123
218 144 5
11 54 195
226 226 162
41 202 137
118 243 235
95 36 144
231 59 29
224 77 125
40 247 129
180 28 118
117 193 198
148 15 178
216 198 168
133 38 251
114 239 205
9 228 40
109 16 62
198 74 42
171 128 106
231 79 93
121 25 137
128 147 145
98 105 97
147 209 47
1 75 128
117 58 204
14 88 88
122 138 147
122 115 147
223 233 66
156 85 185
212 19 65
4 165 225
148 36 212
186 170 230
87 119 221
62 22 20
71 196 84
90 197 117
243 168 89
159 35 192
62 77 224
254 72 1
41 183 27
141 103 47
71 197 125
2 221 183
81 65 79
191 176 62
252 187 28
227 104 19
31 44 202
122 139 162
237 122 231
70 225 172
178 135 129
76 107 158
135 113 71
157 210 119
51 15 174
148 178 105
199 63 147
107 19 147
240 98 205
196 79 202
154 134 31
50 175 96
150 208 142
109 102 151
252 84 222
201 5 27
138 113 50
154 81 52
200 73 198
183 157 21
40 3 148
213 252 175
79 21 114
67 91 141
167 195 159
15 125 50
213 18 129
233 235 120
70 34 91
89 46 89
244 143 29
242 71 7
239 81 144
245 225 212
160 113 30
136 52 229
80 68 226
171 189 53
203 221 189
99 78 39
119 1 161
151 5 255
19 225 62
47 143 74
175 106 8
227 140 138
50 173 107
6 54 20
57 3 13
230 210 9
85 41 136
25 213 157
137 146 143
82 200 146
120 219 71
230 19 51
202 183 93
113 97 245
107 44 214
132 28 73
0 164 21
167 159 183
130 192 79
58 27 110
182 101 56
58 62 16
57 129 184
242 117 135
132 122 175
181 251 183
30 144 193
121 64 36
162 107 108
217 19 241
27 188 88
41 195 170
190 93 198
58 74 237
124 151 91
63 222 130
158 76 163
232 239 150
67 95 224
117 25 166
159 191 75
126 169 216
25 54 162
193 76 165
29 233 156
153 192 12
177 75 6
113 225 135
177 63 123
3 8 244
249 127 18
22 190 120
3 63 60
126 190 200
137 64 116
73 34 254
25 133 71
74 165 153
205 87 193
193 0 105
248 142 71
2 2 65
128 23 41
147 10 18
81 111 215
47 45 39
125 67 186
170 166 85
59 73 151
80 219 214
134 18 52
164 106 45
77 92 222
228 13 246
14 24 80
25 71 196
41 232 114
203 198 233
190 171 199
23 37 14
143 123 122
118 92 35
141 41 109
105 200 107
29 189 220
124 154 146
14 239 183
241 46 52
181 130 20
33 25 59
5 217 139
5 138 143
3 205 229
36 192 211
15 248 167
233 188 179
45 98 161
34 179 102
228 124 76
90 8 241
37 57 142
51 10 68
9 193 214
245 102 30
82 96 201
142 146 95
194 22 135
42 130 64
196 102 95
199 206 108
171 238 117
107 119 59
174 190 234
66 62 180
80 120 90
202 171 211
196 177 31
190 186 114
121 59 175
99 87 47
227 252 254
171 146 31
245 118 175
116 198 237
136 162 145
68 82 2
39 29 109
96 27 77
200 239 111
24 100 170
34 63 44
11 127 191
24 121 231
196 233 37
11 41 90
186 109 229
245 77 183
85 1 43
149 52 172
170 225 94
88 253 117
59 91 205
29 158 243
5 82 129
1 133 33
153 92 141
240 76 93
168 239 229
247 208 201
88 254 125
11 223 230
224 109 116
131 43 125
106 120 82
214 13 108
197 249 100
74 179 200
65 198 39
179 216 163
47 243 72
233 194 178
155 219 182
248 149 231
59 120 78
92 84 111
193 100 189
11 237 106
76 215 204
142 78 230
4 127 42
126 11 32
51 19 147
73 73 58
160 142 152
185 254 81
56 203 180
63 216 94
98 222 28
16 34 167
141 76 93
174 235 187
92 70 142
225 128 71
82 138 106
186 0 129
5 203 85
16 6 26
199 243 183
21 164 103
231 51 185
235 196 90
144 95 158
221 36 233
212 2 83
60 247 9
65 239 152
184 212 63
174 52 249
95 244 101
223 161 18
29 73 106
238 203 220
216 172 138
138 162 48
105 114 73
238 25 107
44 183 156
181 202 41
71 0 237
235 150 142
161 231 109
228 182 130
69 114 24
113 150 11
47 175 170
178 117 50
36 238 178
92 224 38
210 46 52
13 195 24
135 121 112
41 151 203
200 0 71
249 72 93
245 15 40
211 92 250
20 132 131
54 165 243
6 125 160
18 234 75
180 85 89
158 61 223
125 81 61
166 191 50
119 92 14
27 184 117
88 56 190
84 192 232
111 254 4
237 81 238
58 131 94
181 78 134
115 105 159
221 228 21
146 110 77
224 155 116
109 43 151
191 120 186
198 34 129
146 129 36
114 218 37
122 97 141
182 169 105
218 154 245
198 112 183
131 253 180
203 231 115
154 191 247
117 100 39
110 163 217
17 2 239
240 226 182
6 203 160
229 209 184
177 180 112
206 37 41
209 234 22
113 189 146
235 115 121
33 29 61
226 68 61
7 8 206
177 48 205
99 85 59
108 106 132
115 75 8
119 244 111
20 69 217
48 235 181
181 175 178
187 86 159
149 214 81
99 89 234
12 17 227
206 123 124
175 92 37
59 55 254
76 16 197
219 131 58
189 66 36
19 26 221
66 250 208
67 75 123
85 220 113
97 196 85
51 64 98
195 100 172
69 46 148
60 205 121
175 180 253
151 76 156
221 161 160
147 112 137
60 76 150
90 187 150
47 175 142
149 44 40
180 189 209
37 7 167
85 116 70
228 40 21
174 167 247
243 67 220
159 164 158
40 176 173
2 220 217
146 171 152
76 90 66
217 174 12
91 9 220
192 30 57
169 128 93
203 251 212
196 223 161
84 47 76
189 239 230
26 155 107
85 177 220
86 128 183
81 193 180
231 113 202
17 66 134
11 144 130
238 204 146
88 234 155
44 119 128
192 180 150
79 100 140
253 148 48
6 23 99
215 173 3
215 200 169
132 75 119
125 69 211
202 164 237
234 221 229
125 135 128
58 4 11
249 188 216
135 112 161
67 4 69
205 151 149
101 114 18
184 157 89
251 62 52
130 125 47
99 77 236
92 202 139
98 21 76
207 109 206
47 70 71
140 110 164
149 207 129
39 59 196
182 106 160
149 45 244
147 191 125
242 91 252
172 245 76
44 48 40
243 173 162
48 9 3
167 47 1
72 28 207
169 62 89
194 225 42
101 208 69
34 72 172
163 24 137
15 191 107
111 211 244
72 236 128
36 158 124
54 173 180
211 99 247
54 29 53
191 5 209
254 27 70
205 73 152
176 165 157
110 23 199
103 24 196
184 248 123
215 153 114
109 123 112
10 37 204
160 212 213
182 33 130
57 146 111
133 101 145
224 96 213
90 149 103
210 242 167
165 46 200
248 202 170
6 197 29
217 144 177
19 236 239
6 155 227
186 183 33
198 145 102
59 247 82
105 228 86
30 97 182
53 251 237
83 186 54
81 14 239
250 245 73
76 41 204
85 60 112
238 240 141
104 217 143
221 61 134
105 229 222
71 119 45
35 194 130
232 63 121
7 66 73
109 154 96
241 194 29
57 50 142
2 99 214
202 230 171
160 38 245
225 50 159
106 6 70
47 146 106
70 140 59
17 183 236
57 177 199
34 124 31
241 108 59
93 140 14
71 146 30
200 169 204
241 173 32
135 72 156
1 75 146
37 7 190
127 52 168
163 156 65
215 227 5
108 141 31
159 84 106
86 138 248
67 130 86
53 126 5
200 151 0
187 33 158
217 50 27
29 250 227
166 190 219
150 98 251
94 111 54
166 158 102
221 235 181
246 28 23
163 1 230
173 30 196
233 202 116
208 110 232
241 39 144
120 26 82
24 223 86
219 61 108
3 171 37
201 48 199
226 112 198
55 156 87
0 217 55
27 223 157
205 172 87
103 11 74
44 124 30
213 223 27
119 112 143
68 123 228
230 120 70
251 55 238
52 121 98
37 35 169
144 111 238
75 56 249
109 182 214
214 157 22
82 184 230
195 253 164
133 190 72
59 3 27
24 26 233
73 2 140
240 166 24
60 12 147
52 33 151
144 148 156
242 146 170
79 170 16
2 184 104
227 191 102
28 152 249
131 223 144
113 51 55
97 126 75
157 168 168
31 195 162
204 229 251
162 151 146
141 86 69
223 24 70
210 223 15
39 127 49
236 1 83
179 31 39
170 90 78
200 192 201
10 159 240
90 215 2
6 173 206
245 85 186
70 210 22
146 220 39
204 145 48
122 109 125
145 222 85
244 112 70
222 118 186
177 156 176
15 221 175
131 110 109
51 254 110
253 76 204
8 225 211
243 171 73
31 32 249
181 141 46
41 53 76
102 17 104
86 141 252
112 102 159
45 88 248
204 203 202
166 88 53
194 174 6
163 151 50
18 24 55
91 249 207
166 126 175
73 139 103
19 235 204
206 214 213
23 12 246
125 215 87
1 54 19
120 233 56
60 47 70
251 17 92
98 58 99
3 128 9
29 27 37
104 108 36
100 63 107
126 245 84
10 172 28
37 207 105
106 221 167
66 208 34
236 215 246
101 207 76
152 221 218
40 149 229
225 228 213
192 47 107
76 161 183
54 70 95
154 210 243
134 30 139
102 155 47
248 118 211
97 186 0
248 248 79
248 50 116
230 31 200
165 100 198
121 130 103
27 13 41
50 157 246
166 161 45
175 194 96
90 94 72
221 180 149
175 248 127
50 93 175
221 197 29
65 95 245
204 119 126
70 204 65
37 9 53
179 167 14
95 175 214
153 105 225
0 7 66
164 78 105
113 146 184
54 29 160
249 9 140
120 131 33
107 116 17
86 140 199
43 60 212
4 208 140
8 167 47
237 17 82
177 220 249
193 115 111
49 88 7
210 134 64
98 221 192
220 152 211
247 178 213
223 74 100
27 115 185
137 89 179
232 0 130
47 48 55
1 151 189
95 107 245
167 147 217
192 58 68
165 92 8
139 164 141
96 107 89
65 100 19
110 61 243
152 235 124
78 122 116
155 214 183
45 128 222
217 118 212
71 159 131
104 112 155
8 225 152
181 232 25
127 51 113
232 161 185
231 198 178
108 177 203
178 76 26
39 157 44
190 49 215
214 201 104
121 171 166
2 136 18
39 157 1
142 175 233
179 200 99
141 82 76
213 195 250
185 45 49
231 185 8
219 230 215
24 101 7
155 237 224
228 149 84
48 135 72
45 174 109
18 52 90
201 27 158
200 213 219
146 194 138
214 180 44
111 255 134
255 62 5
156 206 128
205 211 143
31 74 236
8 137 113
248 127 92
160 206 209
69 179 219
77 80 26
204 183 86
206 253 189
252 95 16
26 173 176
233 176 159
20 190 63
106 112 146
40 79 64
142 238 182
241 0 83
190 59 51
80 17 220
234 163 130
110 92 220
123 231 140
124 55 58
120 144 86
192 128 170
50 81 46
56 164 116
235 159 126
71 74 150
64 24 25
61 163 37
179 213 79
135 61 140
5 81 36
248 71 119
150 27 46
64 50 91
104 72 176
110 23 6
242 81 162
102 207 190
206 153 235
39 230 145
38 154 186
30 154 3
181 167 228
172 247 255
129 225 244
102 105 184
85 82 27
161 161 24
86 149 199
97 188 68
239 137 60
186 255 159
234 128 159
62 127 38
93 91 109
95 30 141
248 33 166
100 70 191
45 150 14
200 85 249
48 107 236
70 45 182
108 240 121
181 186 74
226 117 37
154 71 133
118 176 29
72 245 219
104 180 115
250 76 144
213 219 119
19 251 24
10 121 39
12 31 198
122 201 240
226 224 9
119 129 109
177 216 228
153 63 170
38 160 119
178 250 187
219 198 20
112 3 248
243 29 162
234 0 54
93 229 30
54 112 245
100 193 31
124 49 214
9 246 237
120 160 49
74 30 204
42 237 4
158 161 92
168 150 44
49 182 46
227 194 43
236 225 135
153 10 136
135 254 80
195 25 254
70 51 251
86 87 201
119 66 155
120 202 157
130 140 217
216 44 119
47 242 11
212 12 107
127 127 142
41 54 86
242 43 77
94 55 21
231 50 172
34 40 29
71 71 173
226 21 16
7 56 103
224 2 188
110 182 181
110 18 236
252 143 65
36 162 196
114 82 107
144 205 91
216 115 116
130 117 141
94 83 239
169 241 52
50 254 127
207 184 31
11 212 48
220 26 152
186 225 181
36 22 129
211 20 68
179 200 225
15 240 20
173 29 109
196 7 196
109 7 222
66 101 87
120 234 58
194 224 214
109 188 141
241 37 136
52 41 71
104 118 115
133 4 228
167 106 86
103 109 49
9 215 71
151 193 234
151 133 134
79 74 253
217 109 69
71 117 137
139 86 122
58 72 158
143 96 38
159 152 86
215 20 142
56 106 59
255 177 7
69 216 239
14 206 243
203 73 56
150 90 180
236 86 47
142 146 27
250 72 251
100 76 143
215 98 235
232 64 209
211 67 100
48 72 101
2 128 23
104 230 138
50 100 10
153 153 230
110 24 119
53 69 82
255 148 71
20 254 185
202 0 249
194 215 222
174 90 172
216 247 12
237 195 43
6 85 225
89 29 95
193 17 238
110 127 172
95 47 143
82 215 200
50 145 15
37 184 90
77 22 137
130 139 28
25 230 183
99 161 249
222 123 72
40 222 50
102 84 108
242 85 150
168 161 6
155 183 254
196 243 100
40 157 101
41 113 82
179 63 136
177 17 180
163 73 238
204 184 1
175 249 23
242 91 231
251 164 67
91 178 38
243 238 22
254 78 9
87 32 132
240 76 46
10 153 105
151 203 160
166 232 14
128 204 32
114 97 214
196 211 71
251 242 212
235 20 107
93 93 74
80 224 18
107 33 217
192 78 110
100 40 135
160 186 43
61 8 112
2 134 210
126 137 241
255 64 122
109 196 89
237 247 184
71 41 116
31 39 109
26 182 43
243 117 188
186 166 8
141 145 115
219 114 34
210 113 129
70 156 182
189 44 0
47 195 98
94 176 71
162 165 200
65 141 215
119 8 125
183 68 186
231 11 10
249 145 150
62 226 53
63 71 164
31 169 36
103 13 79
34 155 184
211 173 248
133 132 218
149 68 225
64 206 163
116 16 175
63 178 31
134 59 235
46 3 28
96 208 94
49 162 21
200 79 210
125 183 254
103 54 181
231 33 244
251 65 73
147 96 14
18 106 177
127 133 6
179 116 146
136 178 238
117 207 48
105 215 32
5 158 232
157 16 195
116 57 106
187 197 183
105 207 148
154 101 81
52 187 127
17 185 152
105 84 60
23 217 21
6 155 229
97 235 165
9 35 144
176 86 86
126 68 230
158 168 167
27 239 171
167 228 190
46 124 162
63 195 129
254 62 39
121 195 2
130 246 120
17 161 115
60 202 24
221 204 114
164 18 36
94 156 43
229 176 205
80 200 89
198 136 82
236 231 42
95 156 196
124 136 246
248 125 105
30 36 163
10 185 158
80 1 175
229 60 3
109 18 193
119 119 139
63 35 57
80 91 15
34 7 253
161 13 222
8 112 16
255 58 161
252 251 109
65 207 132
232 95 160
136 123 138
192 229 111
5 190 23
33 249 234
126 206 22
135 197 2
29 99 20
180 182 20
144 229 142
120 206 80
94 97 149
171 51 181
187 96 226
250 178 199
193 3 117
205 30 33
224 129 65
37 252 223
77 210 71
237 51 14
141 101 197
147 238 4
209 188 90
42 214 187
169 116 40
68 255 23
189 2 17
143 32 246
93 2 237
176 34 52
2 36 104
177 155 132
80 102 159
158 196 58
47 63 206
213 8 42
210 98 93
117 107 244
52 255 173
69 102 59
91 117 133
144 4 240
136 101 97
173 37 194
195 208 74
48 202 34
188 252 101
139 147 228
64 207 129
201 230 46
9 63 44
179 91 199
154 146 134
6 188 39
172 27 178
255 45 179
42 110 27
250 31 237
95 81 177
167 75 101
3 111 81
165 175 120
164 99 190
210 123 86
115 16 128
238 221 253
191 159 53
73 136 78
248 15 18
101 140 232
113 56 145
182 233 67
102 106 3
196 135 0
33 181 207
149 118 244
11 50 42
222 231 183
51 61 71
133 112 137
150 96 95
195 224 213
70 229 4
219 160 193
75 18 82
249 7 85
185 253 165
117 208 169
14 105 68
125 207 219
242 152 252
48 196 139
90 205 18
88 203 228
6 21 129
168 151 201
47 20 56
165 169 22
229 89 102
161 170 182
227 57 170
97 41 39
130 12 67
167 154 212
245 159 161
200 217 229
8 191 80
239 37 131
69 59 34
112 32 255
206 172 141
231 102 141
85 45 230
241 84 37
119 223 148
79 11 97
141 209 105
121 126 230
15 63 175
226 237 186
1 92 4
40 70 154
43 223 249
255 139 205
170 77 49
194 59 3
152 192 204
5 136 92
227 103 143
143 82 172
49 17 159
7 90 157
213 205 56
155 142 210
138 103 84
201 57 158
13 136 66
224 85 7
45 243 35
35 4 173
114 79 175
188 217 199
228 121 239
204 1 159
237 227 104
51 4 211
53 203 207
171 194 54
205 178 61
207 71 125
159 83 194
204 182 218
36 118 154
49 33 95
232 103 13
189 132 9
202 250 115
207 156 160
131 238 238
179 77 73
89 62 214
122 200 224
95 157 253
186 163 74
191 129 166
195 254 100
67 244 72
245 77 84
70 78 74
235 188 137
137 86 10
181 195 100
91 26 118
95 128 15
161 23 55
233 184 188
123 78 224
143 202 231
87 73 218
80 152 125
78 70 209
22 8 86
180 84 88
94 31 126
20 1 124
188 5 60
32 231 220
214 66 156
209 38 233
6 149 173
18 115 196
30 31 48
110 223 90
106 205 142
72 81 49
181 168 189
30 123 29
251 38 39
25 185 112
23 105 176
37 208 34
231 89 243
133 15 207
95 250 17
76 239 44
168 103 87
146 94 115
238 138 57
0 89 246
62 211 75
122 212 32
1 230 250
122 11 123
113 1 108
42 152 93
113 40 166
7 233 250
73 232 13
118 124 90
232 93 35
193 174 103
246 135 253
89 225 201
25 12 148
241 32 55
3 204 21
9 27 236
139 189 10
191 143 198
29 21 45
223 45 74
142 239 237
155 239 76
3 150 169
129 99 8
71 192 62
42 89 20
105 150 169
116 157 236
16 243 57
95 202 208
71 158 17
36 35 185
193 128 75
137 131 19
218 36 73
155 245 9
56 207 133
194 115 135
6 37 125
132 201 248
161 147 153
192 78 83
150 89 174
62 60 180
192 143 214
187 236 26
202 119 81
109 65 227
25 54 243
73 169 196
185 152 166
102 15 183
69 104 137
176 182 7
236 9 32
237 30 203
167 157 167
169 139 247
84 145 191
211 185 63
94 241 104
150 228 5
154 229 3
163 161 219
100 127 3
147 66 66
34 100 160
203 61 169
42 245 195
15 166 70
156 72 38
87 254 92
179 31 25
99 220 130
136 61 140
127 32 208
192 51 240
24 170 154
107 96 146
179 7 225
24 106 58
111 231 64
90 165 10
252 206 115
244 12 36
5 101 245
87 212 20
104 252 107
98 226 207
3 224 216
3 62 3
159 3 81
37 107 43
74 50 56
139 229 211
179 67 108
119 37 254
42 59 153
19 104 234
88 29 206
108 122 86
118 39 30
203 221 159
228 214 119
131 1 207
52 153 224
175 128 123
164 186 147
251 60 155
14 34 169
41 92 155
68 115 235
54 222 4
53 50 160
251 138 86
156 160 153
126 46 161
217 224 89
6 236 211
40 133 51
175 108 13
15 94 47
51 203 152
37 124 16
64 162 161
219 254 41
32 199 191
88 224 205
152 57 207
111 74 14
14 205 86
222 114 157
23 120 218
251 112 141
128 243 227
148 55 204
175 120 254
167 82 168
243 210 211
36 140 109
245 4 68
235 24 136
253 56 127
39 133 83
21 196 27
84 206 37
134 166 158
228 79 252
219 92 31
141 36 119
206 102 128
214 60 82
112 243 49
169 107 66
140 242 160
206 25 131
120 253 103
104 6 93
207 48 46
95 90 147
79 190 0
169 247 195
211 245 232
125 220 35
80 220 134
123 153 97
155 60 39
47 102 91
158 172 194
2 137 30
235 180 87
98 87 2
15 253 198
213 180 184
56 81 68
47 63 99
188 36 42
29 59 168
14 96 254
221 126 19
187 141 247
140 75 239
39 11 58
40 141 38
69 177 20
187 45 5
105 88 53
147 231 228
119 31 212
251 152 254
10 186 133
15 132 99
163 108 80
118 74 10
68 77 175
236 215 111
138 174 96
197 50 207
32 197 46
123 18 228
129 245 18
147 223 181
57 186 21
156 214 239
139 138 152
233 200 225
191 114 133
163 28 248
171 186 253
144 245 217
152 103 57
244 245 128
49 81 96
157 163 108
132 10 25
170 76 34
58 246 147
173 254 224
113 136 185
237 14 223
101 13 46
165 121 249
38 111 130
226 165 63
254 175 84
87 109 114
23 207 189
204 213 86
233 62 173
81 117 127
230 142 42
199 101 187
211 25 124
15 3 157
206 42 4
128 4 216
182 233 30
64 231 227
234 75 82
246 55 32
82 229 42
145 209 212
42 71 1
33 110 255
214 253 169
78 67 80
4 182 98
69 72 40
23 93 168
205 48 67
117 33 44
131 255 23
101 153 208
3 177 67
112 112 222
110 58 223
16 77 23
43 90 43
180 1 161
162 133 19
241 61 128
69 173 92
129 90 62
84 213 123
149 64 125
29 86 211
79 201 200
177 149 233
80 33 88
78 237 243
11 103 149
243 206 228
71 29 134
8 87 106
53 73 86
198 214 114
229 59 194
174 14 52
34 181 79
94 63 150
242 27 165
3 163 134
237 43 140
198 190 151
152 185 22
157 241 218
116 173 190
8 96 124
63 255 111
175 17 182
241 255 78
33 165 147
209 248 176
55 94 56
250 107 212
208 21 230
47 84 162
223 199 216
252 58 215
234 190 177
224 114 11
11 179 104
2 177 153
238 110 255
62 67 43
127 11 114
161 108 147
100 105 50
106 202 214
96 31 187
129 165 104
141 150 244
47 16 79
82 196 126
175 243 221
146 219 60
180 99 57
107 1 215
210 69 103
36 32 238
139 113 108
252 128 33
71 86 43
248 34 93
248 85 103
236 80 228
131 14 26
20 127 19
47 208 77
118 197 144
163 222 64
150 126 117
93 150 148
48 190 185
250 107 87
14 155 45
196 155 78
163 191 103
35 31 90
213 232 251
215 80 86
172 129 27
98 130 142
232 36 129
163 143 5
227 207 96
215 57 95
255 70 90
245 24 101
12 200 206
232 102 227
201 202 244
206 87 201
177 218 213
87 228 95
215 135 72
6 125 126
11 144 43
202 217 112
208 172 96
43 21 91
172 0 251
49 71 83
202 141 2
154 48 246
28 134 165
157 9 173
228 75 123
252 128 145
106 28 231
98 181 68
81 65 161
177 103 217
206 136 31
161 178 215
215 11 141
236 23 72
58 64 129
247 89 193
16 19 36
66 237 71
254 88 214
154 55 253
25 131 44
67 242 131
8 209 204
146 91 186
85 112 35
89 148 157
74 27 188
243 77 230
47 207 220
59 34 13
46 186 79
127 37 144
168 50 1
37 81 144
169 209 157
23 57 204
173 189 208
91 59 29
144 75 226
236 103 189
25 24 37
126 229 53
108 4 172
68 52 228
121 198 58
23 53 200
100 240 136
217 169 91
85 192 224
157 129 239
240 108 19
66 5 169
255 142 84
63 113 99
166 184 65
192 1 90
172 252 56
42 33 4
108 20 220
163 220 185
116 123 169
61 109 120
125 74 93
89 86 186
203 2 108
241 180 18
168 28 213
251 74 112
215 174 243
200 53 160
148 170 220
121 4 145
119 193 104
120 219 210
26 163 49
11 98 52
226 123 91
230 39 85
248 171 161
184 241 3
254 171 143
79 5 168
48 74 134
15 113 116
183 233 12
36 24 162
237 125 146
247 247 119
114 251 32
95 228 34
220 225 206
12 227 39
33 229 209
6 89 110
89 215 93
89 180 237
59 97 22
69 242 21
148 172 14
168 61 50
178 159 127
173 7 98
172 197 44
71 240 123
205 14 40
142 198 163
243 64 195
221 168 183
235 10 65
67 28 192
136 71 179
202 232 87
175 194 245
206 221 150
216 120 224
177 116 77
202 202 216
182 116 7
28 184 100
78 63 11
5 213 147
203 189 101
7 81 138
250 60 85
85 30 114
194 14 190
12 238 126
122 87 53
184 92 180
190 74 76
73 101 214
127 154 26
231 218 182
158 119 239
96 91 238
145 190 199
91 135 183
134 254 65
47 73 19
49 85 115
131 30 71
43 0 94
186 91 255
99 92 3
113 162 231
238 103 42
139 218 164
54 237 102
247 182 229
128 199 63
197 186 124
187 88 124
151 102 111
212 127 151
166 242 248
166 103 186
19 108 25
41 170 31
142 243 238
25 85 110
47 213 28
133 203 133
126 128 191
200 199 163
143 230 74
13 198 213
87 127 234
73 135 185
204 137 31
244 50 122
69 167 109
194 80 236
3 15 165
74 38 234
246 231 48
41 128 166
136 240 252
239 39 45
113 151 247
137 30 185
244 23 161
192 185 233
195 132 181
119 100 214
163 36 63
84 122 221
25 231 192
249 19 88
148 58 241
45 182 114
115 109 24
176 75 240
160 199 41
241 223 33
133 97 175
182 40 175
60 178 124
196 73 111
87 135 71
0 183 40
145 199 150
95 231 203
145 36 223
30 78 34
245 145 18
208 20 51
115 51 163
184 193 69
4 220 212
99 142 88
240 116 133
190 88 160
69 48 78
201 199 26
49 69 110
70 70 183
219 240 18
46 217 117
178 2 240
144 5 90
185 24 224
204 96 106
170 6 56
208 31 61
200 101 10
180 110 135
200 178 229
58 6 174
230 123 70
190 51 164
165 84 51
150 90 71
88 104 237
86 38 164
37 207 204
183 11 79
194 209 85
56 27 16
214 254 228
149 39 80
137 89 246
38 171 214
47 170 147
43 246 37
51 74 136
241 217 37
249 41 221
162 138 100
58 144 100
15 195 194
53 117 230
128 166 240
242 150 88
143 89 230
81 245 68
65 247 164
60 3 37
28 63 68
108 141 2
56 36 46
249 92 39
201 133 200
231 151 106
49 180 116
103 35 244
138 14 134
12 117 9
51 254 175
0 145 228
128 236 41
57 249 233
72 72 189
116 223 165
73 201 124
60 10 186
133 108 158
77 156 112
40 73 185
193 221 147
119 180 209
231 62 18
16 133 1
84 63 111
216 172 159
195 33 139
108 19 126
174 104 155
140 253 244
103 25 227
82 226 3
126 233 192
145 80 2
64 41 243
211 171 132
13 9 116
167 114 214
177 152 227
251 188 227
9 15 1
123 77 38
103 236 6
164 129 106
235 197 124
118 197 166
168 77 168
184 93 229
73 101 229
141 167 25
112 209 43
160 10 150
0 67 45
116 209 29
34 74 193
238 114 232
228 166 51
251 54 195
106 64 135
52 39 8
64 25 125
171 157 210
131 126 146
250 160 77
5 250 96
54 186 135
25 145 56
41 12 46
16 90 41
30 71 150
202 121 36
112 23 63
193 218 224
124 164 130
217 135 154
163 24 194
176 34 195
73 202 211
102 8 150
7 37 192
134 227 137
84 53 48
159 144 238
196 79 2
3 157 236
5 37 157
192 178 222
98 141 17
11 139 178
36 158 148
76 132 17
20 35 247
180 52 198
112 81 29
19 173 117
231 71 166
137 81 168
145 78 25
171 89 184
6 115 181
51 148 142
0 14 235
208 80 98
219 178 51
118 14 104
147 207 194
112 46 173
90 199 84
248 196 40
253 224 115
91 209 159
113 133 95
185 28 96
105 7 168
52 76 160
124 48 158
59 181 134
246 23 246
118 103 218
212 54 97
121 65 146
2 196 2
203 253 175
165 238 219
146 242 68
255 94 179
208 33 204
245 77 136
119 241 39
162 58 30
86 66 180
168 178 249
183 132 41
184 114 245
30 27 211
116 84 54
234 107 254
66 33 32
88 90 24
192 68 227
4 141 184
178 200 83
48 6 160
10 15 144
175 91 21
160 184 35
205 76 17
197 81 62
55 25 97
54 125 237
10 92 224
125 147 51
190 223 57
147 15 87
5 151 233
150 252 219
220 166 75
152 194 243
25 101 98
174 1 186
247 251 253
226 163 200
246 94 186
107 141 227
122 247 57
219 135 93
92 242 209
135 1 167
102 208 185
63 48 80
111 195 239
151 18 80
211 163 150
13 103 79
139 36 131
9 19 124
181 126 247
110 60 217
58 95 184
62 51 95
12 207 45
104 88 179
211 103 241
218 108 67
118 241 221
57 230 150
77 211 177
26 162 18
122 111 57
72 54 225
212 37 84
134 222 212
2 89 129
140 222 167
253 108 68
201 244 136
239 30 56
40 172 45
38 2 149
17 100 169
243 163 172
190 70 170
244 145 179
193 102 159
5 198 235
210 83 138
164 251 240
204 100 130
185 132 213
71 249 47
125 37 182
238 106 5
67 29 168
13 254 202
225 118 174
167 32 46
121 2 184
101 53 149
82 41 62
71 29 52
120 6 171
39 115 100
176 203 129
180 130 75
97 129 76
232 8 16
61 56 75
137 218 46
75 49 164
60 168 152
228 142 217
127 116 86
244 246 60
199 204 105
250 182 106
223 206 213
151 29 247
187 94 88
21 218 80
65 5 91
254 164 202
30 76 11
236 206 93
74 203 206
221 143 89
37 68 95
218 220 223
68 123 48
33 147 159
167 78 188
92 128 185
182 234 62
248 244 98
28 212 124
178 246 140
51 222 186
211 137 50
222 10 82
96 185 179
3 42 113
159 127 49
230 120 17
135 69 101
112 13 40
160 173 64
7 249 97
183 239 150
47 112 164
226 109 156
126 133 183
81 99 153
97 159 79
166 105 56
107 242 169
241 54 244
191 14 139
136 240 232
223 89 83
49 227 29
127 143 111
222 230 85
219 167 136
176 11 95
116 232 241
139 18 209
169 131 48
155 132 58
187 99 34
30 173 83
11 157 103
140 219 131
114 206 26
90 12 121
210 217 223
205 109 166
200 44 19
87 191 62
135 170 46
14 190 201
27 109 74
17 103 241
219 226 37
238 119 238
148 13 57
246 187 63
99 20 211
7 90 1
235 220 183
79 190 146
206 121 192
223 151 194
54 130 27
177 187 113
60 102 20
112 72 155
253 68 166
55 63 30
103 143 54
96 64 80
18 136 30
197 197 25
50 20 30
249 216 21
143 205 4
169 64 242
106 60 60
147 6 72
31 23 178
31 213 15
249 172 43
196 217 241
121 184 81
14 230 86
230 15 117
159 254 146
45 82 101
216 41 103
35 179 222
25 238 184
1 12 218
74 90 187
138 182 153
77 126 47
65 240 16
4 203 144
98 34 67
105 158 11
133 111 119
161 251 130
111 227 191
188 238 41
247 166 3
242 63 129
206 8 243
216 88 146
26 219 19
113 252 12
234 72 111
243 142 9
187 191 206
54 139 20
182 98 50
237 139 129
140 67 64
210 252 101
161 153 143
122 187 111
105 30 60
109 66 85
143 139 230
30 73 208
6 39 37
209 179 73
113 252 98
240 180 188
172 0 27
51 230 19
203 33 205
240 65 197
245 46 112
126 158 90
155 14 97
131 166 130
126 234 99
79 89 222
107 221 170
152 98 226
168 228 23
100 240 118
149 121 2
147 130 70
24 76 111
98 17 173
103 110 41
133 124 152
145 195 157
206 148 178
183 172 108
167 229 103
237 35 104
62 72 130
28 153 157
189 31 65
36 227 151
18 218 67
84 254 206
146 39 124
57 187 119
250 100 185
100 133 21
232 249 78
200 148 133
57 52 54
169 121 101
205 216 99
14 111 210
125 181 196
212 228 238
18 65 242
209 17 254
77 200 188
193 48 28
157 58 250
17 250 216
169 6 252
47 119 237
146 52 22
65 152 130
115 123 25
235 107 143
8 72 67
177 93 198
45 8 251
100 243 186
80 26 195
164 129 62
159 218 96
134 185 114
194 164 0
212 142 240
32 132 55
31 169 252
116 147 17
71 52 141
163 189 33
120 25 157
53 145 199
211 101 124
119 125 11
10 112 128
228 245 165
7 102 25
184 69 179
210 249 157
56 24 66
63 158 37
165 55 159
25 110 78
11 73 248
119 81 116
108 25 152
62 156 157
67 127 2
38 156 84
198 147 39
176 231 25
131 56 24
122 132 9
83 152 230
72 20 225
185 177 158
10 137 172
104 218 236
158 80 25
153 30 118
253 195 201
151 110 60
131 141 63
22 176 107
74 151 174
175 156 120
29 163 250
129 34 3
178 23 234
192 253 9
239 52 183
138 26 178
15 154 29
138 190 123
252 192 84
34 32 25
221 47 23
216 204 238
255 55 241
5 0 185
131 169 164
195 70 36
85 163 97
141 56 63
69 113 93
19 25 233
130 205 1
92 17 100
73 154 80
67 127 91
21 174 234
251 227 56
187 130 172
119 197 170
203 52 201
106 7 73
89 12 189
122 186 209
9 109 180
211 139 72
64 191 4
217 218 71
196 223 103
116 221 100
18 158 155
224 160 253
25 228 125
81 67 176
40 45 235
217 92 145
134 94 237
108 12 36
59 203 2
92 141 115
57 172 65
233 12 120
81 130 126
83 172 94
121 172 25
10 80 246
17 200 91
220 206 109
94 79 103
90 49 145
147 204 188
30 94 124
86 15 244
136 232 96
122 147 174
86 134 28
116 151 192
190 207 7
120 144 113
120 19 162
7 191 118
243 30 253
224 190 144
165 197 165
213 104 64
33 42 245
45 9 0
4 117 146
168 83 212
249 244 236
171 201 55
116 12 232
10 49 30
61 199 61
157 133 172
235 161 176
225 54 150
152 119 102
105 37 233
153 151 15
102 8 174
64 252 87
220 252 61
13 37 136
71 176 213
130 203 102
147 58 178
198 93 166
137 26 116
97 141 79
155 155 72
241 42 14
5 0 105
12 252 57
230 58 239
41 3 86
91 204 112
241 18 141
232 57 252
214 254 66
80 208 222
111 234 211
111 149 233
156 202 23
149 142 113
195 99 213
222 79 14
26 198 45
187 17 112
60 52 8
17 160 113
177 74 248
230 35 192
100 84 174
170 67 124
239 97 169
131 230 190
243 211 96
160 229 96
112 213 248
36 39 231
170 64 164
34 29 89
235 53 36
22 69 13
136 174 4
232 237 241
5 107 19
118 123 100
245 61 163
35 83 93
185 4 36
34 152 53
241 128 169
61 136 117
105 47 14
240 150 4
248 145 228
236 218 165
113 233 28
209 218 122
238 230 55
224 225 130
44 253 247
118 126 236
87 250 65
53 163 22
218 89 218
104 180 193
142 197 25
132 194 126
56 50 182
197 195 209
219 217 48
32 22 234
157 250 183
72 26 192
254 106 115
113 150 204
185 183 110
114 48 57
110 185 50
93 111 0
115 157 244
154 177 131
0 206 137
51 124 95
16 86 254
222 196 193
94 14 154
104 96 103
86 23 17
67 0 191
175 52 108
168 112 237
10 253 62
72 213 65
218 96 84
40 46 162
190 39 8
66 110 28
227 82 96
114 75 239
171 68 154
206 10 125
76 10 1
86 170 115
140 87 30
98 143 65
178 247 236
81 37 79
130 80 25
91 31 102
233 70 69
203 120 76
25 64 83
153 150 178
81 216 95
56 110 164
229 152 160
12 236 12
17 20 49
181 2 22
89 244 104
123 118 240
232 163 38
4 162 216
58 212 237
163 203 30
216 57 215
194 50 136
158 95 9
21 64 210
187 149 200
215 35 127
48 26 1
130 175 244
159 58 66
31 244 128
42 127 89
182 249 188
9 31 155
51 71 15
54 28 254
97 191 180
55 166 17
172 25 171
178 213 200
150 45 114
43 35 116
170 248 3
20 213 208
233 240 172
203 232 101
147 97 125
196 30 45
46 80 196
254 115 189
225 156 184
89 10 59
49 218 66
35 108 87
197 164 132
188 164 111
137 207 40
160 103 107
219 29 179
176 87 255
60 71 241
34 78 253
130 180 80
32 187 97
45 97 151
44 204 135
97 213 78
165 10 155
51 252 66
135 84 14
212 165 140
99 107 239
27 189 223
157 63 106
54 119 46
98 27 20
188 145 189
153 241 162
13 98 219
249 61 218
118 166 152
194 61 191
70 99 185
204 124 53
133 232 71
183 243 217
16 96 211
222 163 226
36 114 131
59 21 63
123 243 3
26 138 201
63 40 213
42 207 249
190 253 250
148 95 87
209 235 211
170 199 217
235 174 99
95 95 180
253 234 19
40 63 15
228 250 32
77 220 228
68 171 160
40 241 218
131 66 101
90 119 127
4 235 106
178 84 159
13 248 206
56 97 184
164 43 114
83 169 147
161 211 7
8 195 194
208 106 252
115 23 15
18 223 141
106 145 4
252 217 187
107 109 149
89 236 169
71 204 215
175 178 99
186 253 187
119 204 180
154 19 22
40 208 8
38 75 7
104 151 107
134 175 219
239 216 155
128 124 214
207 5 29
138 38 31
12 157 124
8 41 110
81 155 48
39 81 59
164 224 16
204 64 119
253 203 79
150 42 190
123 183 123
98 142 142
235 220 222
29 237 193
50 236 117
159 189 81
123 134 123
210 191 197
26 87 93
87 96 198
105 180 201
207 221 205
18 199 56
221 64 83
67 52 112
140 62 69
127 239 25
29 122 144
191 206 253
249 178 106
25 117 120
102 102 142
60 156 175
77 48 179
56 178 112
246 155 69
220 39 199
19 2 55
141 101 93
93 91 233
193 216 44
142 41 245
88 153 228
213 30 188
26 142 186
70 217 144
126 10 213
86 247 105
77 5 254
62 51 58
178 218 105
166 0 224
86 117 226
152 138 71
131 44 85
255 25 65
51 34 78
1 112 86
49 48 110
166 185 244
90 46 11
31 180 171
241 54 144
146 233 76
179 92 74
231 241 203
0 119 97
67 80 43
39 239 193
208 125 75
107 0 5
99 204 18
184 26 169
143 72 247
92 25 8
1 247 115
197 231 176
41 22 117
15 178 210
83 154 150
109 64 87
250 11 220
85 52 48
255 113 170
128 14 118
140 231 147
184 169 251
192 9 49
95 116 15
66 131 74
43 186 182
29 70 100
206 166 18
245 60 241
30 246 199
184 169 156
99 220 120
55 237 107
133 55 17
90 114 196
255 239 139
74 248 204
111 184 53
150 206 149
32 223 34
92 145 123
124 149 130
253 103 248
72 1 237
128 23 147
124 9 2
191 79 245
200 129 172
254 19 42
94 156 175
124 188 116
30 25 201
214 41 84
207 150 202
23 89 207
222 110 157
70 85 119
238 14 3
42 98 117
238 89 139
43 242 215
184 203 44
37 30 117
188 56 74
29 7 3
108 236 199
130 34 202
190 119 149
125 210 216
16 45 152
184 216 197
80 36 45
254 21 13
34 82 62
195 23 95
119 96 203
132 17 248
88 197 206
170 122 59
39 153 24
247 113 39
135 115 225
212 55 18
6 254 79
25 61 84
251 162 19
42 218 83
193 221 22
71 186 34
227 240 128
18 189 11
213 104 77
246 251 158
43 157 87
80 239 91
28 60 117
3 87 50
62 205 86
54 17 17
51 135 230
149 159 192
9 211 38
166 229 167
169 22 185
173 106 94
133 99 124
25 57 56
10 10 50
253 160 45
201 57 164
11 119 175
71 254 45
193 73 165
216 180 114
121 92 152
172 192 152
5 101 128
197 149 229
62 121 158
9 57 86
228 115 140
88 181 228
133 214 2
199 159 103
221 149 92
42 3 229
218 235 51
93 223 5
101 75 140
12 181 198
15 81 60
57 249 127
160 62 58
206 213 78
143 239 89
17 177 154
13 154 216
83 188 44
94 63 72
158 200 175
19 93 247
28 107 48
70 158 112
164 109 67
30 50 44
245 74 52
80 162 169
235 62 136
43 158 236
199 7 8
79 8 138
87 135 71
232 150 245
231 172 154
15 15 134
83 137 222
151 188 172
71 79 223
161 38 3
48 73 172
107 60 64
2 232 119
248 110 61
101 87 217
27 179 86
39 189 97
57 82 99
111 131 1
31 93 119
200 142 211
215 109 217
197 226 61
7 204 92
33 105 53
250 72 121
121 89 171
149 65 245
157 240 153
88 17 84
58 164 79
131 99 42
19 71 42
235 5 150
207 64 115
210 90 188
30 180 157
117 223 242
167 7 43
198 32 167
172 58 128
4 21 156
71 163 169
150 240 153
181 204 186
228 67 229
145 210 159
174 109 113
161 132 22
136 140 235
219 213 115
218 119 138
66 200 188
148 1 92
71 135 79
79 159 1
148 11 42
33 36 96
171 177 12
242 235 46
220 106 60
219 244 27
179 62 65
9 219 198
198 81 196
224 206 137
132 9 180
222 157 132
83 222 189
82 239 80
80 7 104
182 59 160
223 153 227
141 234 177
175 97 73
3 36 187
3 216 48
82 171 155
205 194 169
129 116 115
55 61 167
93 107 68
81 61 105
182 108 79
112 234 50
34 16 117
165 25 164
17 115 91
96 3 0
105 235 240
214 145 131
174 244 183
250 254 100
167 72 150
237 165 186
245 178 195
75 121 120
73 6 213
173 214 196
28 160 252
107 241 148
35 197 213
58 38 66
129 254 132
239 146 83
57 22 131
155 179 63
164 165 3
111 68 15
250 108 226
112 155 163
234 91 219
192 235 32
86 222 172
80 249 173
162 56 49
52 47 162
237 219 144
29 238 202
230 83 93
29 20 17
130 169 219
223 145 71
86 148 215
212 190 53
4 12 252
251 33 97
58 21 41
10 34 76
115 115 245
42 243 155
147 10 201
174 119 119
143 255 67
124 59 8
111 206 123
179 195 217
138 153 199
48 8 245
107 53 31
126 160 129
215 194 60
248 59 14
246 50 248
59 179 63
217 200 98
238 11 164
211 245 128
132 12 83
22 151 133
211 182 81
225 13 178
37 18 173
35 238 87
57 100 160
89 103 246
16 234 26
109 229 225
151 222 145
67 122 17
98 89 40
250 6 236
219 39 81
54 33 152
102 9 91
83 174 222
180 19 154
178 123 198
15 90 153
109 82 173
240 242 27
71 48 73
100 104 170
223 135 132
55 189 242
182 118 220
223 28 248
53 237 129
32 246 24
192 12 250
57 112 84
98 236 235
112 5 99
103 170 98
214 15 45
109 35 45
171 131 74
226 195 215
233 3 91
115 189 169
85 3 85
239 250 170
231 118 217
112 63 181
147 12 187
2 254 113
206 30 28
143 147 24
35 143 109
113 193 58
58 127 104
16 93 96
190 135 199
102 112 173
185 196 180
169 246 168
45 146 215
87 116 113
55 28 215
67 19 144
42 53 10
45 181 152
11 56 176
40 19 0
65 170 69
105 90 52
97 61 137
183 146 70
14 70 147
80 218 87
232 80 156
35 54 7
105 71 153
241 203 61
92 101 88
16 51 92
193 179 74
80 118 5
230 35 178
51 131 215
28 150 90
50 68 198
121 176 36
246 18 191
2 108 91
251 175 83
89 4 212
192 134 127
207 122 92
159 53 87
170 200 168
18 55 117
153 207 163
93 233 40
50 116 139
167 21 140
131 170 5
175 165 216
77 78 133
163 134 157
123 12 34
48 214 116
57 90 223
210 38 221
223 229 180
205 66 172
125 212 130
23 8 219
71 92 1
136 95 254
249 117 58
162 140 97
252 155 82
25 143 103
161 66 61
239 84 12
255 235 146
19 62 114
40 155 39
30 65 224
225 76 151
171 30 109
27 18 135
54 103 143
63 253 145
128 41 180
227 143 181
185 224 108
68 8 111
116 45 237
206 40 101
2 52 4
236 204 143
64 124 169
94 135 222
92 255 160
72 177 164
137 85 4
187 0 155
171 97 71
78 137 234
215 149 145
114 162 79
34 188 137
91 74 166
212 197 71
32 66 108
91 44 38
49 74 149
115 62 95
127 124 33
141 88 92
212 25 169
223 29 210
255 176 170
222 166 121
197 143 231
138 118 130
46 155 161
58 76 149
205 118 117
128 251 70
138 4 83
198 124 144
1 145 149
225 52 8
121 27 162
58 110 41
143 139 40
175 156 31
237 224 88
143 71 148
114 209 226
92 87 153
89 159 198
157 170 157
207 120 102
28 121 97
15 176 89
167 76 174
76 219 223
213 137 198
252 98 177
241 203 210
77 226 136
228 214 196
229 123 146
102 234 162
173 31 20
68 173 232
115 134 32
55 220 242
88 147 239
233 251 172
68 93 104
27 4 45
4 159 56
186 190 125
15 64 238
99 64 204
24 34 143
248 95 192
48 124 124
0 126 219
42 10 113
68 102 104
6 73 78
32 125 127
231 200 235
176 145 179
174 143 22
212 57 127
137 170 79
80 120 190
16 8 30
20 209 68
152 160 135
112 82 8
122 81 121
124 75 232
151 110 86
218 238 106
44 48 5
21 35 163
135 203 163
236 180 232
68 134 254
177 235 58
171 45 145
250 57 122
88 198 153
127 151 186
157 187 190
55 21 133
217 32 128
163 220 197
18 74 205
2 51 175
16 126 180
70 147 235
77 229 73
176 58 150
30 217 83
90 140 153
148 56 248
159 252 192
29 215 220
112 125 253
149 171 74
249 158 82
50 214 57
126 1 21
178 132 57
156 172 53
149 153 123
136 83 124
185 104 120
221 158 175
36 119 210
24 200 190
102 131 175
61 147 69
248 154 5
92 178 113
243 143 209
124 127 109
113 172 66
27 148 128
228 187 6
218 3 148
82 220 33
22 79 155
160 207 165
177 112 30
9 76 252
162 168 254
231 61 125
136 74 104
97 72 138
153 163 87
101 100 156
160 253 169
254 15 234
231 237 218
46 158 41
148 207 49
83 103 255
185 0 202
3 116 24
25 206 71
136 231 160
52 84 131
82 183 95
209 139 42
174 187 137
102 153 199
227 58 79
99 26 2
239 220 253
135 70 127
247 112 242
105 149 178
228 85 6
150 208 160
78 127 7
153 127 28
50 126 117
117 124 138
202 240 151
95 150 15
45 70 190
240 173 82
124 195 124
141 176 2
236 198 203
152 179 159
127 107 53
164 128 61
69 101 63
41 30 122
4 79 196
151 110 113
104 62 9
72 184 31
146 177 167
20 79 20
143 238 255
96 64 248
66 104 5
112 226 131
87 33 144
164 215 110
20 219 9
97 129 240
95 190 100
192 211 7
171 14 253
180 243 106
211 13 0
79 38 50
50 186 165
195 233 255
155 66 21
208 164 69
42 145 50
170 6 238
56 236 129
40 170 107
70 213 96
77 220 207
117 149 118
208 196 169
109 99 93
40 76 226
218 252 94
217 218 197
223 163 147
43 124 179
211 184 18
112 117 111
56 155 90
193 204 189
21 74 57
214 114 241
128 98 219
218 126 20
143 52 58
17 253 203
83 29 25
65 206 69
221 4 119
251 199 223
174 231 0
193 41 13
204 232 220
45 203 110
179 8 57
215 82 152
83 169 46
245 184 235
28 63 88
201 109 234
88 228 1
248 132 247
57 52 88
166 255 198
52 206 17
18 106 195
155 191 241
65 19 193
58 130 162
124 136 156
236 50 59
252 110 128
112 246 115
120 29 127
246 231 171
50 8 175
103 68 150
169 234 192
168 140 57
12 59 193
239 83 139
116 73 185
25 136 54
177 152 108
151 15 177
126 58 10
170 154 235
2 79 142
93 202 59
248 34 96
71 78 176
24 38 224
205 60 143
206 45 203
180 211 15
46 85 215
237 131 49
137 183 20
80 142 152
128 218 130
27 240 81
121 147 208
97 246 178
101 32 96
53 240 60
174 88 225
202 88 96
247 35 101
129 54 188
111 18 23
92 154 189
31 166 180
4 36 118
26 78 19
96 176 93
247 138 14
238 235 170
22 105 120
170 188 247
103 59 227
51 180 217
55 44 82
177 153 215
35 8 120
50 133 90
157 108 41
240 70 12
133 67 181
164 63 74
138 103 224
28 51 193
169 228 133
84 21 144
121 48 73
228 67 118
8 125 7
63 117 187
62 9 185
150 95 214
96 66 29
241 98 112
197 89 167
105 179 137
165 59 135
54 213 73
122 229 245
118 50 215
235 124 222
1 239 167
208 92 114
9 114 160
178 191 182
195 183 184
138 35 30
219 59 110
218 9 249
248 94 33
220 16 171
205 231 48
223 177 55
10 105 56
166 146 2
242 0 48
220 98 80
112 249 124
225 198 114
237 133 165
228 247 215
238 145 144
3 29 133
168 246 215
16 7 224
220 106 199
203 33 201
201 191 78
219 223 5
158 148 21
148 54 106
11 201 180
204 128 176
43 47 116
222 153 189
147 24 45
129 248 213
216 141 182
226 77 107
136 158 242
250 104 72
204 87 107
249 157 37
73 131 100
37 89 169
201 246 194
92 255 110
132 56 97
223 29 80
109 219 132
230 77 131
64 67 22
149 115 55
8 144 150
230 145 74
186 232 195
244 241 243
149 176 131
67 48 69
246 133 169
48 135 158
73 238 0
183 143 49
6 221 21
64 200 239
95 190 87
245 220 186
238 44 232
210 230 103
217 47 20
156 195 253
67 90 215
240 106 178
171 14 198
237 161 107
44 158 6
26 113 187
54 204 45
230 135 38
12 115 210
85 121 62
63 226 52
138 144 34
88 12 6
243 37 1
62 220 51
49 122 158
74 136 251
108 15 185
48 242 43
188 130 96
98 62 226
247 53 85
19 104 234
63 243 65
241 53 183
15 119 188
116 14 6
10 158 122
62 71 166
55 144 247
214 158 134
190 30 99
121 43 223
213 159 97
45 25 10
18 196 185
214 3 10
96 120 119
34 161 75
241 203 53
25 103 228
209 89 81
188 177 199
145 239 65
249 29 0
100 104 142
200 117 251
197 77 13
203 76 73
165 52 212
16 91 162
33 221 202
126 59 228
35 220 18
83 254 1
126 57 157
27 248 136
193 238 19
74 130 206
224 23 246
20 173 17
101 124 9
46 164 145
100 111 213
116 190 154
135 214 123
175 230 136
76 204 37
156 80 93
134 88 69
121 232 145
229 142 81
196 208 198
72 182 135
60 247 91
146 239 74
10 251 223
188 117 157
227 11 111
183 221 28
5 118 136
58 152 175
54 46 214
117 122 225
85 149 123
35 245 133
25 53 48
109 70 238
164 119 101
20 94 133
140 159 74
251 218 140
173 119 60
228 44 167
236 7 113
92 86 17
22 210 74
85 228 34
77 120 65
164 217 142
173 79 126
83 197 131
132 4 15
108 194 242
88 104 112
175 29 169
111 149 223
68 163 99
113 28 86
212 171 195
47 90 116
101 101 101
90 37 145
0 61 2
106 218 188
103 45 185
126 190 74
133 149 111
127 189 30
126 185 220
31 93 65
247 161 124
149 22 196
238 226 209
251 197 228
71 193 236
30 83 110
247 195 36
139 228 181
169 247 113
119 33 242
130 188 210
166 234 235
254 136 146
173 187 75
212 14 6
247 251 63
73 164 226
245 150 154
117 233 185
123 125 121
131 191 234
22 43 211
123 229 252
173 87 107
224 68 222
184 27 227
203 71 125
35 56 153
175 143 78
127 72 147
137 32 224
212 66 230
14 64 127
237 72 55
88 132 180
121 228 99
177 203 69
64 73 1
90 161 229
153 111 102
248 216 138
72 212 136
48 40 222
113 246 194
211 174 16
118 224 37
198 30 6
63 74 8
21 216 82
53 246 2
64 93 89
176 188 193
235 57 128
195 52 186
107 171 50
197 184 1
84 137 253
92 119 179
187 180 172
15 52 65
115 208 189
78 91 132
114 230 4
143 194 167
96 36 246
191 185 1
4 238 212
157 145 157
179 194 105
182 121 154
154 70 109
46 154 122
56 48 57
28 27 125
180 119 120
51 151 196
48 16 128
176 170 45
175 72 157
90 150 63
202 212 45
43 23 72
195 68 255
11 253 62
255 250 114
142 48 104
209 133 225
85 165 72
245 50 59
254 125 205
35 72 120
127 27 229
16 188 120
166 148 52
122 10 17
9 45 103
84 37 75
60 71 219
156 112 175
191 26 27
113 13 152
11 206 3
82 101 126
80 206 145
156 142 117
48 20 236
243 229 115
12 235 59
123 159 61
115 178 247
110 127 96
51 164 74
101 175 229
228 218 130
16 130 167
158 159 136
105 26 43
116 29 47
120 153 120
137 107 246
172 71 65
146 125 77
122 71 212
105 129 84
135 40 34
216 24 254
145 185 251
183 110 135
239 114 58
155 173 118
104 34 213
79 116 53
108 148 69
228 60 82
53 33 4
250 177 98
188 5 173
65 227 221
252 92 175
44 7 97
229 66 190
206 192 204
53 194 11
188 204 163
71 16 121
209 56 51
215 147 94
32 186 99
124 102 127
110 158 102
179 101 120
214 192 72
138 223 69
243 214 67
44 75 114
70 163 24
223 227 218
159 239 89
143 74 39
212 102 171
232 65 117
70 118 77
92 230 157
143 54 177
53 11 179
146 177 113
144 104 237
32 146 192
253 252 52
207 131 78
7 13 169
0 197 251
192 207 248
133 39 227
60 19 230
241 64 154
0 108 77
143 128 59
115 145 201
240 151 197
184 231 102
150 244 183
206 224 12
0 125 234
29 245 193
197 53 191
46 80 102
27 193 195
117 26 238
224 28 137
22 207 41
161 111 181
79 203 219
106 41 151
117 28 151
225 158 23
61 104 37
38 63 161
234 43 10
130 203 223
120 44 64
70 14 43
220 182 250
1 161 18
39 213 123
191 190 205
121 124 70
247 238 24
131 249 90
252 3 123
204 164 224
100 166 141
43 92 67
9 214 33
213 224 45
13 17 233
134 201 251
137 247 13
140 172 76
9 150 27
227 10 49
24 230 12
33 4 109
152 15 135
120 3 114
1 102 63
58 185 56
10 30 136
114 173 3
189 28 253
235 33 231
194 185 106
42 154 29
169 113 235
159 38 199
91 74 23
48 235 140
156 219 253
130 239 2
88 34 176
149 70 85
226 20 210
119 192 214
219 206 95
21 184 90
97 192 100
242 135 247
187 171 5
68 80 9
127 47 196
228 225 167
185 119 3
55 71 230
41 200 109
137 72 216
106 138 231
4 207 78
131 141 114
224 48 131
165 101 247
6 99 25
177 192 29
213 188 85
177 164 57
38 230 153
167 188 30
246 11 7
121 224 232
33 242 208
193 252 4
181 128 196
18 99 69
233 33 22
244 37 161
91 8 9
95 70 237
53 40 186
209 243 50
133 144 23
91 148 222
95 236 226
105 26 82
62 22 131
93 65 221
97 150 39
105 246 115
251 207 100
218 195 205
47 19 35
55 74 240
120 45 32
143 221 35
225 2 205
83 60 11
254 202 5
255 32 50
183 157 84
177 149 158
36 130 34
234 241 252
144 239 212
19 249 242
219 248 113
152 12 42
229 190 3
253 174 11
63 100 30
91 206 224
222 129 38
125 9 236
94 148 44
135 164 167
208 194 106
122 64 103
170 48 29
23 82 133
131 157 47
54 30 86
89 210 123
128 239 140
43 185 161
152 127 90
120 37 163
240 93 246
217 98 76
242 106 50
39 103 26
12 63 61
103 126 73
142 55 35
181 51 182
47 2 24
204 42 24
244 24 36
142 36 212
186 31 66
214 85 160
47 17 194
45 129 124
169 137 7
151 102 142
131 220 214
59 78 178
34 20 35
9 142 39
26 97 69
46 83 218
200 156 196
6 14 9
191 79 65
98 182 7
226 24 190
187 91 22
63 187 205
52 4 15
115 75 224
56 90 244
192 115 83
17 12 64
81 223 142
106 253 166
65 51 50
151 152 12
205 10 83
28 182 61
169 78 73
26 84 105
55 183 162
29 235 173
169 80 124
200 86 8
138 68 201
159 17 208
236 55 103
192 166 213
30 59 123
61 234 166
89 96 13
114 138 159
67 17 187
214 233 224
255 239 80
170 132 80
177 18 192
56 70 141
26 7 106
98 249 126
29 117 136
46 115 199
40 17 34
149 31 157
85 21 233
75 26 101
242 149 17
200 211 74
9 84 124
186 137 35
205 54 3
227 227 102
47 6 59
102 224 61
68 21 214
43 161 100
205 96 81
178 247 216
105 224 241
3 132 87
120 48 245
24 81 72
223 16 57
6 198 98
188 221 221
232 124 193
119 255 57
143 243 244
17 239 82
94 210 51
142 96 31
71 32 157
188 67 18
32 147 61
126 166 198
50 97 25
204 61 48
162 74 149
201 151 184
92 24 118
208 86 95
192 79 248
193 131 152
38 19 2
218 161 216
33 5 12
167 14 29
216 114 136
10 121 163
242 119 145
61 220 140
133 136 124
163 106 157
134 221 142
149 251 247
32 121 200
47 44 209
151 74 136
9 30 230
109 41 203
99 173 8
128 252 68
69 157 153
111 44 167
165 70 159
198 118 208
116 132 1
197 180 32
123 29 61
113 57 250
212 191 196
90 242 220
102 17 217
128 94 135
162 21 238
25 199 229
25 236 54
54 245 33
139 184 29
61 251 234
85 90 104
163 123 229
103 201 221
139 74 246
23 104 208
52 38 175
225 140 173
115 127 105
252 198 249
58 98 73
174 152 53
203 247 221
219 168 247
146 193 234
86 20 193
90 145 17
73 32 5
122 179 91
105 69 190
93 104 123
104 217 18
12 67 103
116 157 171
224 151 192
187 184 20
217 91 253
154 200 133
112 101 245
78 28 133
147 228 61
17 114 212
247 81 113
127 207 114
117 228 40
140 136 92
107 216 134
188 198 30
207 122 86
54 103 17
35 231 202
219 153 137
128 243 66
158 43 188
31 120 183
69 2 184
33 125 62
219 43 39
254 73 161
155 50 166
128 93 123
221 122 170
45 8 198
201 130 120
156 5 241
74 112 126
248 56 1
63 48 132
105 206 235
216 44 226
62 215 240
76 133 195
150 138 194
230 227 5
41 208 176
29 5 47
152 251 59
211 242 38
245 125 136
40 128 53
201 240 156
65 232 252
180 201 231
243 240 154
68 145 176
117 190 114
120 32 115
82 205 65
93 210 133
32 52 131
15 232 35
222 207 161
113 136 38
36 58 173
27 205 193
13 43 243
192 34 183
226 114 171
114 85 33
133 29 224
239 55 132
156 87 40
64 103 133
169 144 246
228 206 109
196 124 16
253 196 91
184 199 93
178 27 15
218 40 126
151 126 245
232 246 10
19 105 132
10 232 20
14 216 7
163 212 12
93 56 8
118 157 210
139 117 111
130 226 111
226 57 222
201 52 206
158 32 29
74 150 57
97 226 25
209 135 21
44 177 205
186 183 92
155 218 230
29 142 190
48 100 222
193 133 238
23 157 47
142 118 158
129 186 190
141 138 177
95 111 53
93 31 232
253 125 59
255 175 84
45 166 253
33 156 199
63 37 26
21 226 113
242 214 205
65 168 77
133 72 65
194 170 59
111 153 99
119 52 249
91 66 195
6 102 4
57 165 249
173 172 131
231 2 36
43 74 59
194 215 106
169 228 40
26 169 77
92 241 171
98 141 106
10 183 233
210 206 212
152 148 186
153 70 80
44 122 231
136 113 107
99 120 249
25 46 107
181 211 96
191 12 46
186 231 17
141 201 63
93 154 67
144 213 199
136 139 75
80 243 49
153 192 134
60 208 32
13 40 57
188 18 19
34 176 110
52 214 126
102 39 33
187 31 216
233 60 169
184 193 41
157 104 92
157 82 130
98 101 139
197 26 128
122 63 251
144 134 25
52 227 132
29 48 136
176 11 105
90 207 198
172 208 179
162 9 235
225 53 133
32 118 94
234 183 118
187 226 16
61 56 166
54 137 237
28 50 40
144 103 214
165 80 21
21 171 90
10 202 167
236 2 111
124 216 12
177 118 55
185 182 113
131 126 206
59 10 88
113 55 9
6 184 234
87 139 55
231 29 181
217 56 143
1 6 10
190 37 200
178 90 50
100 209 101
81 129 31
244 175 215
33 68 81
134 168 8
110 8 243
195 45 205
185 90 3
47 91 165
33 219 255
197 161 171
58 84 113
28 25 253
8 233 143
5 240 211
86 194 156
111 110 238
21 240 172
10 166 225
244 250 141
217 97 125
190 152 133
227 253 160
241 168 201
22 138 6
221 77 79
205 129 148
112 81 246
75 42 183
106 212 27
115 168 117
93 82 192
90 100 248
113 81 187
137 40 234
84 67 93
230 147 107
29 35 9
210 175 87
162 150 89
115 72 103
206 134 241
56 26 112
239 152 89
172 106 168
73 137 15
98 54 123
52 97 37
110 128 173
32 78 134
251 45 150
211 141 127
165 152 250
63 22 46
123 155 11
140 36 65
4 124 194
95 248 19
221 51 245
239 58 84
35 90 145
9 251 222
160 125 146
246 22 239
86 45 64
66 149 221
42 35 85
166 104 252
58 229 75
243 218 174
37 23 197
55 25 234
159 48 217
211 107 12
239 232 207
101 59 155
114 104 18
150 90 246
230 202 209
97 183 66
134 11 58
121 151 149
105 213 41
6 147 3
137 215 224
192 226 198
227 137 42
67 85 153
74 179 223
170 210 60
69 208 47
131 251 24
52 38 93
85 56 88
5 236 198
232 35 93
113 3 109
108 164 233
14 65 204
242 121 218
172 147 149
114 57 149
27 27 174
49 246 148
129 54 168
80 106 204
111 176 234
46 98 84
225 122 0
31 123 150
52 132 252
31 146 43
54 30 153
116 147 163
162 78 225
200 163 174
13 113 55
232 91 47
195 72 47
33 157 230
92 239 73
52 179 83
233 211 58
161 223 80
130 116 204
239 136 48
26 108 5
237 40 78
200 5 196
236 5 252
180 27 169
45 102 156
95 138 79
180 11 213
106 16 172
140 175 209
117 157 138
165 171 19
99 207 200
191 54 180
199 12 122
222 108 7
187 8 135
69 227 22
100 0 82
102 7 155
144 188 232
158 220 55
132 111 212
56 231 115
133 21 229
132 107 219
112 222 32
117 145 153
44 224 148
64 249 184
63 235 116
131 54 143
80 40 233
207 21 133
96 93 134
221 11 74
12 244 32
91 49 83
194 178 97
81 87 255
246 223 125
47 253 140
165 210 197
2 87 100
67 198 237
149 27 17
131 40 29
28 73 57
193 168 234
82 245 14
62 85 182
201 234 76
247 102 140
16 125 59
237 146 104
18 1 64
211 184 192
220 185 224
27 11 110
138 154 78
203 186 255
102 16 212
134 72 141
182 18 204
209 119 178
23 12 1
196 171 248
157 105 142
13 59 83
143 225 67
74 80 163
4 42 39
213 120 89
58 89 83
152 20 58
227 7 111
66 210 122
249 15 114
26 141 2
40 255 162
110 107 120
159 196 228
43 122 255
104 229 249
156 108 18
67 121 157
177 232 19
156 31 92
28 160 82
31 65 206
240 120 8
187 225 88
130 91 81
50 171 63
21 235 222
79 184 233
147 124 234
107 210 0
192 22 60
182 6 192
103 87 28
130 58 112
42 59 254
23 9 12
106 42 104
42 214 22
143 94 147
115 96 10
142 78 216
144 9 221
238 71 181
72 69 145
71 119 9
100 176 60
111 236 83
185 28 199
64 15 233
215 218 176
138 220 137
204 248 82
0 168 102
8 184 179
80 47 192
229 105 67
83 71 177
163 200 63
176 96 238
8 2 48
128 132 188
157 222 220
151 178 132
242 201 31
93 232 97
28 147 128
51 57 198
177 211 123
178 95 101
86 250 37
253 189 172
180 211 229
188 165 149
225 136 31
3 93 229
181 44 217
165 53 252
180 246 89
202 133 35
5 189 80
219 122 15
216 192 202
0 88 80
249 94 27
52 157 209
250 47 234
106 153 130
91 96 46
131 152 177
56 216 119
165 189 213
116 23 133
85 92 79
37 100 142
226 77 55
119 204 65
138 251 252
145 129 166
83 125 38
213 111 160
9 15 184
114 243 158
110 84 217
116 197 177
174 247 61
181 239 19
204 151 87
34 94 178
27 191 219
102 192 4
114 238 199
110 250 207
226 231 255
223 243 207
169 83 32
200 204 143
157 170 5
215 255 235
77 230 144
45 85 210
49 165 83
122 158 119
46 56 170
189 26 27
32 123 103
35 185 124
253 88 220
98 142 187
95 108 138
210 76 116
237 51 36
190 116 82
114 80 219
219 27 169
198 222 83
159 207 38
138 96 16
209 68 78
151 122 187
225 179 172
62 87 113
172 37 106
198 87 250
181 184 212
177 9 238
232 163 65
40 239 24
211 96 105
59 186 151
159 22 9
6 170 23
141 82 113
147 233 197
15 72 141
112 112 21
126 235 166
56 197 18
148 191 201
122 197 115
34 171 168
70 157 12
255 190 91
15 159 136
8 148 78
182 5 114
27 233 26
184 84 75
148 119 5
251 155 98
49 240 52
144 162 75
138 16 236
130 77 69
229 179 120
55 182 1
188 234 3
75 2 112
222 167 38
198 31 176
159 132 37
113 217 215
12 97 11
134 112 194
61 28 188
162 90 208
53 89 84
65 208 115
145 223 144
155 111 205
128 147 204
155 208 167
187 165 121
187 151 136
181 7 183
34 152 250
114 192 207
107 42 238
207 100 251
53 130 85
235 15 219
57 205 191
22 117 45
98 0 36
180 190 15
192 64 240
164 181 96
3 94 147
55 97 252
147 183 209
220 129 98
73 70 53
27 199 40
84 220 12
18 188 53
92 12 86
119 54 77
175 123 33
26 245 55
46 227 232
188 199 41
57 225 25
65 210 171
118 16 253
18 192 32
50 52 63
120 156 7
255 188 81
95 114 215
37 43 9
35 58 53
120 30 37
94 11 207
219 212 115
108 214 42
182 198 137
121 96 104
118 115 121
208 248 83
184 109 166
77 105 216
111 37 157
18 180 227
55 10 171
252 42 29
246 198 193
129 145 185
215 25 227
109 13 24
97 75 103
20 166 19
186 253 210
236 207 52
101 68 235
125 160 116
233 57 231
63 186 239
255 194 100
87 235 128
114 84 118
191 116 20
104 219 163
70 123 208
56 133 114
202 157 198
157 170 39
110 201 93
251 96 163
178 53 19
43 169 196
208 0 5
250 193 39
133 30 187
204 208 25
13 14 175
160 250 91
225 203 137
31 234 165
51 63 74
189 196 196
210 158 59
212 212 53
169 98 206
201 13 194
142 64 18
247 110 96
84 6 161
188 109 229
76 10 156
242 34 93
15 138 178
114 207 29
155 154 68
105 178 96
35 31 144
212 206 7
30 222 170
34 131 216
0 168 145
39 72 103
228 218 105
161 144 142
175 9 3
236 255 217
202 201 116
121 118 41
44 161 168
103 152 204
181 176 237
95 52 5
154 8 1
73 131 193
103 21 113
141 89 227
103 221 161
86 55 3
103 21 23
129 255 1
204 127 108
186 162 94
219 53 138
104 76 193
135 107 51
242 185 131
10 33 166
194 49 119
26 30 151
158 82 101
22 240 76
217 58 234
86 153 0
91 182 82
1 82 223
255 67 118
0 84 222
170 217 206
86 215 62
234 196 91
51 2 1
190 141 19
143 32 10
201 201 225
21 160 123
173 138 123
12 236 46
215 22 181
192 54 207
84 57 246
167 110 3
100 35 27
208 173 188
225 7 47
153 105 82
75 209 63
167 58 207
138 211 148
82 104 146
126 157 46
95 183 7
224 81 62
183 136 56
2 165 224
204 189 228
121 240 9
93 75 207
133 163 44
142 70 148
143 41 47
105 106 228
28 185 83
32 42 4
40 204 143
12 247 148
121 17 36
75 157 230
244 72 134
131 117 182
110 194 101
197 6 9
164 173 254
126 63 102
213 134 14
216 58 197
74 79 61
20 216 40
123 18 163
217 14 95
252 165 154
124 243 0
192 240 126
35 142 203
58 17 228
28 38 254
103 154 150
170 130 155
223 207 156
37 194 220
54 113 226
20 210 165
89 107 20
157 6 192
131 166 56
12 108 199
83 27 20
34 26 5
57 164 166
233 19 158
153 84 136
228 106 5
35 60 250
71 60 218
175 18 231
98 139 136
54 147 104
255 180 73
152 103 113
20 65 164
164 192 163
190 104 229
118 19 82
177 47 70
27 17 95
107 115 94
217 181 182
191 72 180
17 31 185
32 254 7
184 16 140
177 252 231
162 210 78
177 227 179
223 25 142
242 32 154
31 104 29
88 40 76
14 159 213
197 76 210
234 245 8
11 113 217
91 34 150
56 34 160
32 119 18
131 189 239
71 251 118
63 100 206
74 42 19
17 88 53
22 3 70
121 101 230
25 246 192
194 104 132
164 65 146
158 193 94
78 139 237
178 148 237
206 215 188
170 167 88
26 174 127
113 40 81
218 78 166
51 141 30
70 89 89
27 142 122
146 46 218
181 160 61
54 171 232
213 92 102
132 132 134
249 35 167
183 43 200
102 14 110
25 122 237
120 233 246
17 100 55
55 72 176
20 215 9
141 144 43
21 38 153
97 98 164
189 247 13
182 26 49
229 89 8
104 88 43
12 15 179
186 86 144
197 40 241
100 225 192
60 61 137
140 61 68
244 1 201
253 17 135
121 236 96
175 150 141
168 184 242
75 244 143
46 226 231
34 30 46
164 87 231
164 160 165
184 156 198
164 236 153
114 94 57
92 175 150
57 152 13
101 21 30
44 17 117
209 248 254
162 116 7
91 65 253
158 53 37
149 183 59
9 118 176
21 112 118
111 230 20
133 56 109
134 143 247
115 253 130
224 230 59
181 162 42
248 244 47
230 28 166
111 110 75
61 135 125
49 207 77
134 255 95
74 93 49
244 183 182
239 230 96
246 211 116
139 119 234
79 252 194
93 105 159
83 144 114
18 10 237
46 136 112
72 115 1
15 146 213
196 155 78
216 164 124
137 116 209
239 216 20
54 68 216
177 2 208
161 233 139
10 238 233
90 83 31
54 206 25
93 190 48
140 77 129
239 39 152
21 17 253
42 192 119
221 90 97
140 168 127
88 118 89
110 124 55
248 37 16
53 86 181
241 208 167
224 55 234
27 193 94
102 254 86
214 21 40
67 175 199
134 32 156
173 121 197
110 213 81
131 184 146
205 7 245
224 63 135
84 21 59
178 214 54
198 43 36
16 174 179
186 65 109
206 79 126
233 32 162
195 80 255
91 118 137
225 249 238
96 35 94
141 214 100
247 189 188
89 158 210
31 122 239
120 13 149
210 112 144
40 105 204
80 3 212
195 140 179
71 142 159
192 201 212
125 72 145
220 93 64
241 41 134
157 80 92
61 108 255
172 11 10
122 246 110
6 179 33
53 34 104
14 134 146
27 210 60
84 125 109
93 91 199
91 148 102
112 31 150
25 95 55
172 56 143
104 90 0
69 179 209
100 48 102
165 246 211
116 18 127
21 178 249
176 116 172
112 240 32
141 82 216
255 117 162
210 226 84
225 99 176
85 96 69
224 110 56
242 149 235
198 105 149
81 230 43
45 93 191
102 245 14
74 19 210
0 7 238
254 198 225
154 209 154
26 5 23
36 133 255
155 145 134
21 130 211
209 61 66
87 240 145
96 82 114
9 32 157
195 46 252
92 172 82
251 43 85
252 69 95
127 210 175
234 171 186
175 221 148
57 122 131
209 118 228
177 247 79
8 47 150
224 183 130
103 85 123
166 46 25
36 184 92
41 231 102
157 49 12
210 29 66
237 194 135
111 25 232
213 38 131
254 234 198
7 218 253
129 42 241
85 197 110
69 39 201
115 161 131
98 95 167
110 161 128
31 22 146
153 20 243
57 80 185
0 210 15
80 13 50
163 176 216
18 56 120
62 149 82
89 96 18
67 68 125
249 142 177
226 133 108
139 219 98
174 231 191
198 39 142
22 166 197
194 249 17
75 58 38
115 93 250
219 44 188
126 33 28
12 205 141
195 142 16
11 232 173
242 181 199
214 107 11
73 113 98
154 226 123
24 101 229
104 175 13
190 192 238
156 83 142
84 19 180
254 47 139
177 111 6
104 226 72
208 179 73
109 232 11
158 76 56
193 70 181
188 0 192
62 51 186
76 233 127
59 33 213
191 174 196
2 86 237
103 27 247
165 187 247
173 226 188
95 62 197
132 141 119
24 43 122
213 1 46
73 208 81
53 105 206
94 123 151
178 171 178
40 171 224
49 84 189
41 44 191
11 209 240
14 186 248
226 244 45
102 190 136
59 175 106
99 16 227
222 164 124
123 75 244
16 111 36
211 77 245
50 157 202
232 227 28
10 108 34
37 185 199
173 10 3
45 38 184
3 33 16
8 84 34
34 126 183
193 130 215
211 40 28
116 26 160
183 43 180
148 15 226
223 186 79
106 74 58
72 224 228
66 104 164
66 220 45
184 39 119
241 111 189
77 182 248
43 250 165
219 74 65
102 231 192
237 128 98
167 133 34
188 98 60
124 36 224
73 146 24
166 123 193
8 205 184
25 215 219
192 175 173
198 99 38
240 233 157
161 77 34
196 214 117
241 158 109
37 149 77
249 15 43
147 254 141
32 128 187
138 202 46
65 190 97
207 238 222
124 82 229
193 1 215
141 220 182
42 131 13
34 32 172
202 121 222
124 124 186
99 246 20
131 48 35
86 239 219
131 151 181
203 171 13
102 214 227
82 28 92
14 203 20
69 132 174
124 112 210
93 32 221
115 242 186
9 126 109
241 25 159
88 187 28
7 32 208
176 28 25
82 239 162
130 84 8
220 123 200
128 6 112
40 121 169
0 241 253
243 213 157
50 208 58
80 125 139
38 30 20
102 156 83
244 211 69
89 75 149
0 195 95
214 30 204
161 241 20
43 29 101
167 249 140
243 120 137
175 43 36
8 85 253
36 40 254
58 85 42
239 46 202
249 246 29
192 187 18
198 229 0
140 238 106
174 171 141
194 99 248
140 211 193
32 201 10
208 1 77
37 77 200
124 90 64
116 131 250
120 132 187
6 210 148
39 122 163
59 34 35
214 146 30
67 243 144
78 181 98
87 134 139
179 117 153
194 151 162
66 136 152
186 154 226
53 129 174
86 218 58
26 126 134
10 251 175
221 173 226
30 18 9
120 238 2
78 156 180
70 157 241
54 152 101
133 14 192
165 101 118
79 197 81
62 145 253
55 174 45
35 26 30
233 102 239
121 242 40
224 46 28
27 181 128
85 215 106
228 52 236
170 231 34
125 182 105
51 238 240
251 153 3
157 97 128
146 100 54
154 1 58
177 93 94
254 75 142
25 40 186
88 58 154
92 83 31
22 49 102
187 18 72
112 217 216
43 49 119
168 19 175
144 187 124
37 24 30
85 218 185
249 59 178
135 83 62
182 10 221
14 46 56
242 192 212
165 43 183
243 254 193
124 31 86
154 235 214
76 226 40
51 119 178
244 237 255
4 242 207
157 199 17
32 37 181
190 174 131
25 141 231
238 206 239
89 114 151
108 116 128
237 239 156
84 24 74
40 198 29
98 11 139
154 88 200
209 213 198
70 15 39
1 78 100
84 86 46
79 88 85
28 192 176
13 26 144
97 152 120
199 215 33
251 30 179
142 206 246
41 237 201
163 235 32
34 29 98
147 212 95
63 76 98
216 214 28
66 141 147
23 75 124
117 132 186
58 147 122
31 90 61
28 141 100
231 100 190
143 106 210
68 7 115
29 129 11
143 176 156
221 68 184
81 193 246
123 151 238
186 119 184
187 181 103
2 225 106
45 54 158
87 76 10
233 129 97
140 89 254
2 29 1
198 32 35
115 59 238
211 186 189
93 172 7
59 251 173
225 192 124
220 37 146
69 116 28
172 69 244
65 69 138
38 125 186
67 3 205
159 252 167
85 1 122
161 242 18
174 62 34
174 161 82
27 61 245
60 133 18
232 12 221
136 4 158
232 9 93
31 27 151
188 215 209
113 54 232
92 182 205
68 33 210
89 115 149
110 222 202
10 83 31
205 195 91
12 27 63
119 198 158
69 0 202
242 11 163
58 24 148
28 106 145
193 197 198
12 175 115
10 49 132
131 154 7
145 141 123
108 201 233
130 185 231
230 147 218
138 111 155
81 238 24
8 85 93
49 46 13
199 221 134
93 105 201
251 19 82
170 107 22
95 113 179
235 13 174
191 154 169
3 32 218
221 154 191
197 141 215
105 73 15
109 156 231
235 163 178
40 23 60
19 122 156
7 72 136
169 4 32
71 150 180
171 227 251
23 26 126
62 134 121
125 5 221
191 31 152
209 159 58
112 196 112
5 17 63
206 168 136
144 181 134
129 106 217
74 64 220
208 88 74
11 18 232
168 39 177
253 11 74
23 203 233
124 123 150
193 145 135
14 72 176
0 101 229
8 165 108
254 108 148
17 222 99
6 5 132
93 253 32
154 146 136
221 216 189
157 233 224
36 140 198
197 63 131
41 14 22
148 161 51
251 91 6
41 103 243
143 176 55
85 102 191
153 15 76
78 213 197
111 239 22
25 230 237
170 246 226
13 170 164
158 69 25
237 91 193
182 218 234
51 52 145
200 124 243
9 185 3
233 148 4
166 241 18
113 215 247
85 218 54
209 16 223
197 0 122
12 221 66
98 71 139
95 12 239
44 245 178
142 49 6
237 155 108
193 2 78
137 175 244
160 140 242
131 193 13
73 203 79
102 211 38
44 59 217
247 65 207
156 57 44
46 54 213
162 42 215
36 131 123
172 172 148
171 114 68
198 103 126
22 194 67
15 73 158
11 104 251
126 45 227
177 35 255
216 1 42
241 16 43
21 84 78
75 28 56
159 183 191
144 99 45
207 117 163
244 110 106
128 39 40
43 136 170
253 126 164
84 179 166
137 66 18
89 38 200
25 28 64
209 167 1
180 221 180
129 161 92
133 66 143
57 9 24
47 231 110
51 39 30
4 179 39
230 56 167
199 217 50
166 213 0
8 152 6
37 166 199
241 139 21
102 146 25
68 100 57
146 240 51
201 125 85
64 104 54
233 119 97
151 82 15
42 145 88
139 35 255
234 183 135
5 206 92
73 114 0
231 123 102
211 205 126
14 166 236
139 211 37
38 188 123
211 128 108
251 156 93
120 27 235
242 166 154
222 210 213
174 188 201
19 120 8
143 151 207
25 136 100
98 125 47
6 101 43
116 202 16
153 136 94
72 69 39
78 48 175
3 224 6
122 2 136
20 149 103
201 120 248
186 185 151
200 137 124
21 93 117
22 134 157
141 197 132
147 35 75
93 133 37
107 143 105
240 175 246
238 15 53
80 138 160
141 165 72
96 55 188
72 237 65
26 114 234
2 22 70
159 21 6
175 1 241
74 14 5
226 243 0
95 183 226
244 37 227
22 224 216
199 121 127
237 10 16
236 11 28
28 204 159
81 117 220
117 224 91
248 201 213
74 69 103
126 168 192
60 137 175
130 241 52
56 75 66
21 148 128
90 157 207
65 187 180
159 4 37
207 248 24
44 226 185
200 156 155
230 0 41
99 76 195
95 12 123
108 175 26
27 88 155
199 117 214
128 189 33
22 132 58
162 196 255
175 214 61
94 168 94
184 248 232
0 123 32
211 173 174
181 38 98
99 197 32
195 48 138
218 172 177
193 123 153
205 56 72
187 93 250
5 9 222
66 180 40
226 53 32
97 98 185
19 187 175
162 136 85
14 243 41
188 223 179
11 177 39
28 202 76
52 69 146
245 238 201
114 47 167
164 191 24
106 251 149
38 15 116
122 226 220
247 214 9
156 86 90
225 212 54
79 15 30
39 71 167
255 23 31
124 248 210
74 224 244
240 50 31
98 113 98
188 200 97
234 171 41
167 120 64
108 14 25
237 106 16
250 210 107
171 30 161
194 149 82
43 255 131
57 171 199
106 156 101
114 182 190
182 99 105
31 140 161
249 192 174
88 229 230
211 127 229
16 79 40
250 97 37
91 175 198
163 73 191
59 138 10
20 209 174
43 28 75
13 154 122
70 235 193
148 243 130
159 246 252
196 218 87
67 156 118
251 236 21
109 16 60
54 252 26
252 212 26
253 60 131
21 174 47
255 255 164
138 96 33
103 227 9
88 192 179
164 51 25
224 64 133
120 10 137
49 233 66
126 231 105
157 36 161
113 38 133
145 74 143
100 53 224
1 68 241
66 14 1
27 60 230
105 161 128
217 41 64
254 153 81
170 105 133
222 25 86
245 235 197
208 170 177
135 154 236
47 153 18
116 224 93
74 128 241
199 162 152
152 83 43
169 29 161
137 155 81
161 218 167
211 5 213
187 45 107
229 184 150
247 53 157
89 168 159
122 136 229
176 130 27
18 130 83
79 155 200
165 51 113
32 216 68
158 217 8
171 8 145
174 205 201
8 215 32
15 148 217
204 78 98
244 31 113
249 89 70
138 83 142
81 170 227
245 24 168
122 160 114
225 154 153
242 107 45
178 148 105
88 219 135
250 245 44
158 20 4
48 254 171
26 59 57
68 48 213
129 172 49
53 73 228
0 40 90
152 220 58
180 187 13
156 133 186
253 20 203
193 63 123
144 248 234
173 165 231
110 207 196
89 253 57
189 106 61
118 127 81
154 171 79
103 140 116
5 92 33
166 205 155
145 102 129
57 12 231
243 94 206
76 151 223
167 24 25
141 25 112
247 25 222
172 40 144
168 192 190
216 240 98
48 127 250
194 102 150
58 51 31
12 183 253
30 78 3
117 108 52
154 209 239
62 78 30
127 61 206
50 3 224
150 174 135
244 203 163
181 54 35
142 26 227
212 248 174
173 189 86
165 58 149
19 44 57
83 199 139
51 172 225
229 65 44
27 106 227
40 220 233
216 77 237
81 101 97
186 77 150
122 121 58
70 218 228
137 250 59
224 165 144
85 218 234
207 24 32
156 140 37
30 88 249
226 209 23
43 239 128
208 215 234
104 7 18
50 71 172
221 152 56
36 0 176
56 0 82
253 124 226
44 153 89
232 84 114
22 158 49
48 229 110
111 85 246
17 141 12
103 96 84
169 113 222
68 131 153
154 167 241
49 247 24
87 41 51
162 26 10
152 170 68
123 48 153
183 188 197
106 18 229
46 142 218
166 61 91
41 40 70
210 35 106
106 234 168
94 50 204
242 6 142
17 145 192
110 132 29
195 182 233
247 40 179
38 178 243
80 214 71
54 193 206
7 227 143
139 102 248
127 24 233
123 30 220
25 211 123
50 223 38
169 123 202
9 227 116
4 150 183
185 206 181
154 139 73
88 162 199
189 31 205
51 111 216
9 161 164
83 7 227
54 167 51
235 122 205
160 190 246
196 88 239
133 34 110
88 55 30
56 85 116
101 11 249
224 101 118
73 230 246
60 44 179
252 198 128
156 120 37
199 68 149
207 101 103
43 181 108
72 114 123
71 232 3
17 0 180
208 31 15
243 183 97
88 251 110
35 111 111
59 195 59
236 71 140
161 129 162
107 73 80
119 19 106
31 6 103
50 24 86
244 8 179
152 158 84
16 185 119
38 116 180
215 202 20
118 237 159
192 44 206
1 40 134
76 118 199
81 70 63
213 70 90
195 113 170
84 87 118
99 115 28
65 166 92
25 96 88
132 76 69
254 126 150
70 255 51
168 61 154
77 179 214
166 92 236
134 7 52
115 187 230
72 151 216
79 174 106
190 235 109
248 160 92
100 210 71
1 121 196
46 148 126
209 182 59
9 230 2
17 108 240
23 53 202
150 156 111
65 62 254
117 85 228
127 179 150
73 203 250
251 44 19
15 89 79
40 92 59
122 235 32
148 241 132
86 40 154
145 6 211
220 2 106
236 251 106
151 7 119
184 192 229
9 12 99
202 87 88
112 128 211
142 227 35
39 209 241
59 48 98
38 234 83
106 50 136
220 200 35
108 183 160
179 102 221
59 113 211
153 146 171
236 221 242
116 53 59
250 10 34
109 191 127
113 243 36
213 116 244
168 171 201
99 250 195
1 141 119
81 79 192
119 92 178
95 224 162
218 194 13
111 218 24
159 227 229
138 59 56
240 184 98
8 117 158
51 53 87
11 127 179
62 1 140
47 157 19
80 120 91
70 194 9
165 75 11
150 211 2
118 225 187
132 65 196
148 19 229
90 99 122
86 120 145
164 172 167
89 209 76
148 196 190
160 219 234
40 165 199
16 143 22
52 68 76
125 171 204
93 197 184
220 24 234
254 226 62
211 173 84
204 27 180
202 130 143
77 60 74
153 251 183
244 134 184
240 233 155
109 254 135
242 100 201
218 144 119
162 60 126
181 158 175
146 199 85
137 72 243
90 232 114
23 10 133
32 34 124
103 217 224
183 205 113
238 77 210
221 168 126
219 214 56
65 128 106
120 142 54
244 63 116
42 165 53
253 65 150
118 69 28
101 225 27
245 134 217
186 118 9
193 152 123
237 78 134
124 190 203
246 222 47
15 82 104
220 13 61
61 157 255
62 95 169
80 21 83
31 76 6
139 164 93
41 8 27
73 148 158
135 197 134
40 217 14
25 162 226
133 165 173
228 229 196
115 144 197
16 119 197
156 242 163
194 215 25
150 85 59
253 232 240
234 21 86
158 1 6
35 214 200
244 188 49
61 33 119
233 73 219
69 171 230
139 10 38
173 97 99
184 166 192
184 47 164
109 135 168
154 175 185
40 192 99
218 70 149
55 18 181
140 36 149
22 103 161
173 178 102
12 84 220
217 243 66
71 143 197
128 186 27
212 21 88
243 15 158
233 96 254
178 156 216
147 67 119
202 165 138
102 62 86
101 164 72
137 122 141
239 19 147
59 241 206
110 193 32
242 201 187
247 65 119
99 146 156
31 63 177
245 98 182
16 163 225
142 176 90
190 193 130
39 67 85
108 152 81
224 125 191
118 220 67
168 95 107
163 58 242
173 44 75
156 216 153
74 137 159
14 201 46
130 33 72
240 122 205
195 48 7
65 211 188
62 110 217
90 183 171
251 114 5
103 239 84
78 249 78
10 96 45
181 93 217
44 138 204
162 111 12
173 227 85
108 78 206
247 92 243
21 54 19
244 110 164
252 41 223
186 55 44
10 168 140
174 2 171
252 170 242
164 15 22
239 107 148
242 26 11
76 143 189
172 93 123
233 22 144
190 213 233
247 3 99
106 95 235
107 116 123
215 38 216
8 166 227
133 149 181
131 224 100
49 208 195
253 112 137
48 127 96
171 141 7
13 31 138
136 242 134
192 6 11
11 197 231
149 220 87
189 124 36
2 99 114
19 208 89
201 14 221
245 15 197
68 208 155
15 73 228
21 172 151
175 192 178
235 69 121
160 82 124
182 52 104
158 3 65
90 164 151
201 199 213
40 117 127
152 134 35
16 7 38
163 163 48
195 71 5
28 148 116
97 48 206
250 70 41
217 49 156
63 239 43
88 0 10
55 217 62
251 13 153
154 61 255
142 200 180
119 101 185
240 147 142
224 39 5
142 76 7
249 238 236
188 240 228
125 185 60
20 204 174
249 56 105
64 92 169
171 76 91
153 191 153
61 201 91
197 220 85
199 29 92
113 152 89
83 117 228
243 64 233
215 222 111
228 245 103
216 247 21
247 12 158
234 6 84
237 78 6
79 60 243
48 48 131
194 38 11
125 183 166
87 90 99
137 97 182
152 96 154
92 73 138
56 156 252
184 171 41
55 191 185
252 41 63
38 26 166
187 113 117
230 146 196
138 110 201
188 59 211
4 12 138
125 197 229
96 200 92
169 255 49
180 220 224
91 165 160
156 110 27
152 140 45
80 95 18
1 141 22
9 151 125
52 51 152
156 159 7
127 131 85
157 75 17
51 172 124
46 97 88
206 190 252
102 3 66
145 225 126
4 199 60
120 24 2
193 52 158
171 206 108
163 160 5
54 56 49
28 214 50
250 70 72
152 130 50
233 92 100
97 16 183
92 187 111
6 9 21
218 178 219
225 139 54
56 172 140
72 250 204
184 109 230
255 6 114
125 142 112
79 23 242
39 149 184
13 196 106
8 223 177
136 128 93
113 103 19
199 111 166
230 134 66
237 80 108
124 120 145
234 117 43
186 156 248
129 147 70
220 1 182
8 86 67
203 4 33
254 99 226
171 0 112
34 129 219
196 253 139
34 52 223
173 247 66
70 88 169
226 145 87
224 138 239
215 57 153
114 184 159
223 176 200
31 182 235
67 128 28
31 14 50
9 222 21
235 52 139
74 121 190
182 255 21
170 23 145
91 181 66
12 40 152
31 233 67
92 245 239
109 74 42
41 236 78
19 93 66
133 34 6
100 99 13
41 111 97
147 144 101
232 1 134
47 168 220
234 210 51
146 212 155
4 238 24
165 144 194
165 241 2
207 197 106
57 146 109
216 172 235
130 89 61
181 51 32
149 196 125
108 216 199
107 77 35
8 180 225
83 165 82
235 227 192
21 64 193
48 159 111
144 230 48
73 235 210
124 78 15
206 246 90
202 147 4
238 135 29
137 157 4
204 169 101
153 41 232
122 31 43
116 211 145
55 86 125
218 167 190
190 139 243
14 78 13
162 10 137
119 127 211
130 113 56
144 239 130
143 5 12
110 13 243
180 62 162
24 60 234
80 84 150
59 56 171
186 76 139
142 30 143
139 157 10
196 139 137
164 244 89
177 209 194
70 247 125
135 113 78
255 114 71
241 27 4
65 55 42
17 114 60
42 159 145
22 159 43
98 142 47
149 115 166
252 185 211
177 214 218
139 186 97
144 19 176
140 163 170
182 172 113
91 40 2
184 153 254
145 252 30
34 151 188
66 7 125
11 161 216
221 12 77
214 145 138
55 207 191
213 47 10
252 171 46
20 70 100
71 160 16
76 241 186
171 230 226
26 115 170
252 233 132
29 149 19
118 125 186
102 177 36
183 236 215
109 69 46
201 15 231
22 95 36
147 53 255
129 23 95
88 10 78
143 117 45
251 48 97
125 81 29
209 13 72
110 168 50
76 60 40
14 153 86
67 42 15
45 217 64
143 48 47
24 158 209
147 122 255
40 157 32
155 162 252
76 118 83
150 9 55
23 37 181
122 178 90
235 185 23
232 206 59
56 158 42
162 5 194
54 103 170
84 99 254
55 244 237
95 22 71
96 234 172
142 2 115
22 144 225
97 145 39
71 25 254
175 178 83
212 112 130
182 76 172
36 28 111
40 128 40
228 207 3
119 178 195
178 11 90
151 70 26
224 231 128
131 239 14
72 234 237
17 231 141
210 71 98
82 94 199
166 91 77
75 8 146
239 253 205
96 123 46
248 190 95
182 117 14
229 252 48
140 177 245
58 221 84
176 137 151
161 164 109
225 127 0
65 70 203
199 172 236
213 126 60
182 201 93
206 16 225
143 174 235
149 11 13
153 54 236
112 73 117
107 240 175
227 243 228
252 199 147
113 51 195
230 50 189
38 233 3
120 22 135
103 207 70
174 240 69
136 146 103
188 207 65
112 82 80
145 80 57
137 225 38
35 74 76
14 79 168
56 226 167
206 105 49
28 5 159
20 25 80
64 149 8
169 159 205
125 213 250
222 176 90
157 197 13
107 83 196
60 206 188
209 89 225
169 221 78
168 199 199
88 1 19
74 209 170
240 90 219
71 88 228
134 8 46
131 133 95
97 62 250
206 38 15
101 14 193
71 72 109
216 34 175
183 183 92
215 227 10
74 95 233
188 18 236
105 84 217
241 174 141
73 41 238
139 80 204
39 9 167
78 246 119
20 33 207
133 45 122
107 75 81
252 116 203
163 157 54
36 101 147
238 132 218
36 51 65
218 55 87
1 137 208
76 218 2
218 179 173
245 50 218
162 77 214
32 160 125
78 172 92
186 121 17
126 17 237
110 161 170
31 203 33
125 28 126
103 225 19
81 137 106
197 50 94
215 126 39
16 93 201
77 174 32
172 30 219
241 228 131
237 213 250
26 203 45
153 211 152
222 100 204
154 208 11
167 207 74
163 21 164
95 153 37
11 68 205
163 85 150
98 220 144
142 103 9
212 98 77
6 168 146
84 83 79
215 181 136
187 98 80
70 10 180
28 186 155
7 12 193
193 151 32
114 70 19
122 196 92
200 241 71
186 49 187
192 241 122
43 14 229
182 119 144
106 239 216
69 147 57
208 110 41
88 189 31
106 201 176
202 69 91
232 87 88
211 230 69
252 52 11
219 75 163
31 247 232
129 196 42
137 29 96
209 145 74
94 23 142
254 25 127
44 204 140
9 78 2
109 179 155
171 83 79
58 21 10
184 67 104
189 21 95
214 8 228
90 41 240
140 120 104
48 133 52
102 40 204
248 122 124
64 142 82
189 222 85
38 31 84
253 52 19
225 1 177
158 214 209
143 46 187
114 48 128
73 110 170
104 11 39
148 105 232
114 26 64
98 90 84
12 154 115
151 153 254
61 27 142
195 85 95
69 168 71
186 180 139
147 138 46
126 148 211
237 15 186
24 128 133
45 148 193
21 153 214
219 250 86
243 252 174
164 25 18
52 222 253
215 93 79
119 26 170
230 85 91
181 210 18
77 254 132
135 233 214
105 117 150
94 139 61
53 235 104
29 90 41
102 64 31
202 33 209
160 100 108
97 20 55
177 21 195
38 206 157
229 218 158
129 109 90
243 77 47
33 85 144
93 47 8
91 43 79
77 55 67
145 112 146
230 247 102
220 149 238
108 31 22
140 205 0
243 147 169
155 175 204
22 177 126
72 240 218
16 15 146
46 185 122
15 239 188
131 156 0
40 37 71
125 67 86
230 193 12
133 231 245
3 185 71
66 205 89
106 236 30
112 75 22
183 191 180
50 168 25
40 56 37
153 181 84
230 56 149
229 193 103
22 39 46
28 195 190
110 136 28
152 171 168
213 54 47
23 83 41
243 2 224
59 245 242
254 155 87
159 9 38
109 218 91
32 107 116
182 252 85
83 248 8
68 105 4
117 111 6
47 140 202
185 208 50
127 123 165
174 11 187
48 23 43
101 43 112
75 222 72
118 193 214
219 234 200
81 165 9
103 221 80
163 181 38
208 75 74
94 148 174
79 251 85
243 223 220
40 186 179
197 50 12
170 164 115
36 188 82
168 221 238
48 128 232
61 214 174
105 194 104
2 235 241
75 175 15
91 245 182
196 227 209
29 187 254
3 81 40
182 40 46
105 72 172
95 28 215
69 23 79
171 104 84
14 144 119
149 129 20
248 51 194
129 114 148
166 23 162
186 146 8
178 7 47
246 64 201
187 113 40
224 119 79
198 245 56
216 190 30
5 61 156
182 182 114
53 206 70
26 80 14
55 215 64
120 169 150
100 166 8
134 116 146
212 239 225
119 45 181
242 225 20
171 100 79
198 224 236
147 105 123
117 83 162
246 231 118
23 125 251
220 252 242
175 122 45
155 12 57
219 248 82
95 73 247
192 181 210
89 75 252
55 74 61
76 85 121
49 27 123
91 118 91
30 57 73
125 89 219
252 119 10
152 130 162
47 219 208
164 231 230
215 172 177
96 237 204
130 167 140
219 43 122
159 136 234
128 182 126
101 161 6
48 126 146
122 195 38
194 140 137
65 185 48
244 228 74
125 212 33
138 118 45
103 59 221
214 170 154
82 201 48
221 155 13
59 88 3
191 111 37
22 249 178
122 222 248
127 169 4
239 255 194
42 132 141
39 129 127
209 129 203
101 236 111
44 221 240
13 79 163
27 193 55
21 57 174
81 161 36
94 3 113
71 18 93
143 31 58
239 138 104
222 88 165
158 185 67
47 221 225
30 111 21
21 150 191
153 214 230
252 17 82
243 19 138
193 138 51
140 90 179
188 119 240
12 200 76
80 97 135
254 152 35
59 144 156
204 74 74
55 218 67
132 14 150
7 234 233
223 198 231
51 174 131
57 128 246
44 73 112
107 124 9
184 254 172
70 101 43
128 52 103
221 209 222
138 242 149
115 155 4
233 198 185
233 21 36
247 165 229
75 84 28
60 65 175
246 156 59
91 155 214
197 177 251
207 120 45
154 44 60
155 231 57
121 75 174
164 239 21
108 14 70
50 72 23
48 229 188
221 247 148
89 47 10
234 181 255
26 201 70
231 121 254
18 3 177
74 215 188
20 107 55
202 138 99
133 184 59
195 190 7
47 22 52
138 98 107
68 243 195
131 220 232
237 95 130
212 237 191
122 143 58
114 198 153
72 164 146
138 200 68
228 189 230
169 100 199
199 203 84
92 174 199
244 131 182
119 42 201
9 72 202
118 55 242
194 254 32
83 147 2
26 230 90
139 201 0
41 110 88
61 159 16
244 187 167
106 103 135
116 201 26
89 214 146
171 107 38
205 155 77
146 190 212
68 100 103
29 37 99
37 36 127
115 254 147
113 111 70
205 210 69
30 151 206
11 166 186
114 96 238
87 31 132
167 133 50
20 202 84
36 206 240
106 172 252
63 61 38
227 23 197
34 12 223
91 106 60
193 203 91
204 60 57
169 253 229
147 133 45
176 50 143
241 53 44
226 101 90
94 122 70
249 96 254
136 104 136
197 0 109
100 251 193
77 69 201
242 93 100
186 82 255
58 191 51
68 224 153
251 77 246
157 27 228
137 197 71
40 8 46
87 149 146
128 178 72
62 159 186
189 8 229
106 105 80
169 23 223
109 88 36
22 116 162
117 171 38
177 86 106
45 234 227
187 16 30
120 182 16
26 101 129
176 34 37
89 67 167
90 221 216
183 142 14
136 63 60
244 122 49
138 103 62
85 84 117
83 228 87
59 156 170
223 87 61
165 12 155
81 35 135
207 33 160
241 213 27
171 153 221
192 95 180
8 193 50
25 61 181
86 102 217
246 72 228
52 156 232
205 246 12
206 1 175
185 186 4
228 213 115
138 125 154
54 101 143
73 101 151
212 196 116
21 137 214
115 164 28
48 231 189
240 87 193
65 186 192
99 41 40
83 41 245
68 58 52
181 44 59
6 214 125
125 167 119
242 19 192
97 229 232
170 36 66
153 92 179
65 212 252
191 213 130
50 122 19
253 149 43
14 98 55
168 229 179
79 141 186
64 40 224
59 33 6
233 113 214
108 252 126
128 28 103
80 146 59
15 86 17
232 0 250
226 223 229
181 57 40
170 11 128
176 163 224
148 163 251
132 99 192
233 185 70
86 213 190
46 166 173
1 11 183
180 75 255
224 178 215
167 197 255
13 240 61
240 175 153
235 63 200
153 220 245
182 114 147
80 251 188
163 19 59
140 211 184
237 126 25
57 185 18
73 211 121
73 1 154
255 171 147
6 118 181
128 72 18
162 149 113
59 27 65
96 97 166
96 223 52
8 191 202
67 235 83
8 110 230
3 137 75
100 229 162
182 198 69
13 118 43
182 103 87
139 180 129
44 26 232
157 156 117
245 109 91
64 236 223
225 171 232
245 95 249
36 242 199
254 57 175
107 61 8
226 239 177
242 75 70
215 111 248
18 215 193
206 48 100
180 75 169
29 31 84
109 196 176
61 215 122
179 202 253
55 209 36
230 169 67
145 131 50
233 60 220
217 138 129
97 62 50
29 182 245
116 215 140
71 74 160
121 23 162
56 146 187
84 125 40
159 94 135
236 225 6
45 61 20
244 20 31
54 153 146
181 120 50
228 140 206
229 129 145
157 244 167
197 183 103
109 79 245
115 21 93
254 243 229
118 150 38
199 223 77
96 127 101
253 50 8
92 142 44
61 5 114
206 116 195
76 30 119
190 105 66
190 204 248
173 82 241
187 91 223
20 194 251
41 161 248
121 26 46
214 9 158
166 118 73
55 22 22
119 177 75
113 251 121
89 255 212
11 141 5
47 59 109
130 192 209
167 213 9
230 4 84
106 27 124
155 153 244
112 23 190
9 47 67
5 69 42
245 63 96
126 200 239
61 185 229
159 185 225
153 246 167
5 126 136
44 29 178
203 136 32
120 204 15
33 29 28
143 157 17
139 168 74
147 151 42
239 106 103
53 110 140
97 227 186
244 41 254
219 152 127
22 169 234
248 25 220
217 104 102
186 224 195
146 204 25
191 210 185
71 5 233
233 63 71
188 185 203
37 203 133
34 119 233
241 161 13
49 211 29
55 147 24
150 37 177
250 191 255
146 245 228
254 31 76
147 119 17
81 153 69
110 10 28
53 173 166
75 218 139
178 229 52
174 4 45
241 213 144
203 28 234
107 254 153
18 128 2
81 50 231
190 134 8
134 49 167
49 149 189
214 120 219
22 51 213
91 242 199
168 214 172
201 76 154
94 174 130
206 254 190
219 23 83
236 14 201
111 166 159
136 152 28
73 89 77
71 46 182
225 120 91
82 187 62
157 215 187
146 170 62
58 62 196
2 214 231
132 98 64
119 10 240
123 207 97
168 251 172
196 31 54
107 198 5
192 239 205
205 84 21
205 114 243
178 167 55
201 39 99
239 65 112
135 235 6
193 140 20
185 220 254
94 52 180
88 222 202
108 139 10
157 195 46
16 250 8
50 69 177
215 200 46
203 236 157
40 26 179
124 173 204
192 247 42
41 157 193
135 165 129
202 129 100
63 186 45
20 242 231
89 77 6
100 235 137
247 255 119
114 215 152
131 86 121
192 133 201
137 252 120
105 120 18
106 20 108
86 78 43
160 141 230
159 104 128
236 249 169
40 246 102
54 253 78
176 20 50
21 139 138
115 249 223
238 145 207
129 207 149
92 5 108
42 172 22
38 28 116
93 62 162
186 63 82
85 245 175
179 116 98
211 33 154
11 98 125
172 183 5
155 60 249
124 26 90
43 88 255
245 166 44
73 146 122
200 102 106
163 14 145
147 244 35
144 234 183
185 104 78
14 178 2
117 206 61
168 115 181
2 40 154
11 147 93
10 28 60
5 8 48
202 22 43
23 3 170
45 43 226
89 115 196
67 77 66
145 221 158
230 1 65
147 111 17
119 205 128
128 217 203
132 218 29
202 134 167
100 171 39
25 228 98
150 105 72
161 158 86
149 214 149
18 53 199
140 120 61
212 151 177
80 64 1
92 101 239
37 15 42
150 242 251
59 12 190
37 180 201
237 123 69
82 42 136
115 2 92
140 233 113
109 157 85
19 154 103
11 174 76
240 56 106
214 253 244
147 96 223
166 90 18
97 255 76
254 87 131
91 26 252
112 194 13
127 120 15
70 206 116
196 106 74
187 47 114
150 231 87
40 239 247
118 224 39
65 179 127
113 188 17
74 141 148
242 47 89
207 207 95
77 155 25
229 245 30
2 172 81
229 243 29
68 10 114
227 34 192
156 244 39
24 189 1
174 82 108
65 217 5
200 95 183
215 130 64
86 189 174
89 210 161
33 254 123
57 135 41
217 87 187
141 18 228
244 81 97
103 8 167
51 27 166
137 14 212
82 45 246
92 28 39
68 38 215
90 54 90
141 205 153
182 21 69
225 109 249
45 211 42
127 148 17
73 76 16
132 99 83
164 104 219
121 111 195
105 69 177
66 51 101
198 145 102
12 215 32
8 221 107
132 54 200
240 13 122
131 81 157
228 140 143
93 132 44
56 157 245
160 242 40
137 176 177
192 141 112
178 185 231
17 82 181
98 220 215
197 53 69
104 134 23
237 103 66
29 208 128
40 185 234
228 98 72
225 88 80
154 46 83
16 213 80
163 218 91
123 236 146
32 70 249
81 229 241
64 44 139
9 135 36
150 108 21
10 90 56
181 167 53
105 182 47
111 148 16
168 191 97
69 132 83
75 66 70
93 9 128
170 181 236
88 199 78
118 162 230
5 1 107
236 82 240
155 95 37
147 254 14
92 47 232
57 139 70
51 80 8
249 36 158
177 136 76
16 174 139
137 33 123
140 68 24
9 154 17
214 58 71
29 117 109
38 181 13
211 81 2
200 195 140
184 118 51
60 218 239
173 79 73
98 101 181
98 61 202
169 184 95
106 30 62
122 217 187
23 120 87
142 245 15
160 158 252
205 4 8
116 3 3
176 62 248
16 224 241
47 138 211
63 74 209
108 74 100
198 47 165
113 223 206
191 17 202
250 147 250
132 28 81
88 66 118
231 116 108
82 118 26
159 73 2
145 141 181
109 157 16
201 93 252
162 33 70
197 188 249
141 78 102
21 119 54
190 140 233
84 183 46
95 56 61
199 86 102
22 18 187
135 67 59
210 160 72
93 40 213
64 193 208
223 89 2
235 119 83
56 86 230
82 171 202
176 140 245
79 92 213
116 116 135
94 132 199
124 123 84
73 26 47
218 206 211
158 177 159
59 60 236
5 122 111
20 240 136
38 185 78
69 92 136
123 47 235
28 146 169
114 48 37
190 253 44
252 162 31
108 234 247
234 147 226
175 48 23
231 57 113
165 145 29
190 238 244
103 161 189
89 13 177
27 165 77
84 214 203
217 141 78
45 144 251
90 143 178
222 247 137
131 196 174
149 119 241
239 89 99
104 42 65
103 118 2
167 21 177
67 66 1
188 194 103
32 36 105
186 200 80
129 82 163
36 252 32
48 60 155
236 191 188
184 210 162
185 26 118
48 226 137
65 17 36
143 164 221
62 223 56
208 207 255
245 25 9
242 43 254
164 155 165
112 219 177
107 220 197
53 240 181
187 23 163
79 60 153
35 158 221
210 109 205
160 240 62
220 37 212
84 234 187
109 136 44
12 144 1
147 29 131
124 122 54
158 61 46
182 66 38
80 149 63
35 135 179
236 188 215
185 9 238
211 198 32
29 222 102
212 121 75
135 16 170
62 255 116
166 108 35
37 17 224
217 168 178
234 101 96
20 112 74
34 209 107
193 122 244
224 143 217
125 29 172
127 253 233
133 29 100
228 181 216
77 90 197
42 215 24
240 226 187
95 159 253
195 61 154
54 5 56
99 252 86
203 187 255
68 249 11
35 116 218
224 10 218
226 6 24
40 29 19
231 186 180
223 116 238
160 127 249
237 251 35
138 106 147
9 252 11
65 53 188
67 31 13
57 135 203
199 6 157
51 72 40
13 185 7
188 205 239
221 61 210
219 50 215
91 235 22
219 217 170
223 237 105
25 238 69
192 81 180
248 25 114
116 190 131
20 236 230
241 102 139
142 197 200
220 194 221
76 8 17
16 225 63
117 203 244
224 190 220
66 147 88
7 117 73
163 12 233
152 24 100
200 98 252
61 144 37
193 108 104
45 159 194
103 50 230
244 60 15
115 226 36
52 224 249
104 97 69
48 184 151
37 131 186
5 57 229
53 163 120
178 98 143
160 73 131
120 8 20
150 75 93
0 165 160
176 169 236
87 232 106
66 221 58
99 173 212
152 117 188
48 59 76
137 66 105
85 173 18
87 54 98
131 250 125
121 243 70
208 15 129
46 113 167
112 222 17
25 18 229
31 140 70
200 218 89
9 0 128
87 80 40
16 227 118
95 207 137
163 45 55
10 88 92
43 194 146
228 228 219
102 214 83
220 153 234
155 139 235
121 62 235
91 244 7
241 65 6
172 33 132
122 143 164
110 140 45
249 19 238
216 99 207
232 190 3
101 74 19
155 152 7
71 136 134
177 107 3
63 190 82
93 216 156
140 167 206
29 142 66
79 206 106
31 88 151
201 39 223
141 0 119
189 88 23
160 164 171
36 50 218
115 13 37
247 86 187
96 157 123
110 113 65
117 59 243
63 255 193
33 172 200
139 37 64
241 233 189
44 180 233
75 193 143
198 148 252
148 58 26
47 76 14
106 108 99
85 13 155
203 164 99
132 94 88
123 232 79
208 143 80
199 102 76
127 215 21
76 243 81
72 245 238
212 73 30
31 98 253
140 119 97
115 27 227
121 186 108
61 195 194
42 112 80
85 148 198
187 75 167
107 222 0
15 130 119
197 90 174
112 195 32
56 139 155
201 137 88
242 70 4
177 93 96
236 139 171
234 1 221
172 235 236
81 84 240
189 109 120
91 198 134
158 40 218
67 107 131
11 50 162
10 230 75
160 224 82
159 213 253
248 102 81
32 22 98
28 33 79
108 184 66
212 171 247
147 157 19
178 242 19
41 123 102
132 193 221
12 45 179
23 133 230
67 233 154
176 116 13
1 30 131
120 163 95
164 105 119
222 140 15
64 133 33
185 221 159
215 72 19
150 194 253
147 215 57
79 202 215
108 87 250
229 222 210
100 193 19
107 116 244
217 90 70
110 81 169
227 232 161
169 148 39
219 104 137
11 104 131
209 37 58
35 190 66
216 116 238
227 27 16
70 103 23
117 98 115
99 111 129
21 26 39
243 55 248
107 11 250
229 14 250
46 158 42
43 137 255
222 175 14
106 147 245
125 234 238
25 182 93
55 202 103
225 116 168
25 46 75
165 85 6
39 21 103
153 72 108
233 35 153
90 114 93
52 115 80
211 8 0
145 225 71
147 23 227
101 93 62
52 106 67
73 133 248
31 148 5
242 238 165
7 129 104
233 132 136
220 128 182
67 27 76
30 3 178
101 14 251
210 107 40
150 64 184
113 116 234
3 164 230
16 57 43
170 55 171
226 46 9
46 190 139
0 124 112
176 132 124
91 35 203
145 36 144
106 65 211
46 236 221
176 9 243
134 238 172
96 222 124
99 7 106
86 102 18
27 106 237
190 37 186
237 157 107
22 61 140
216 208 118
214 192 200
35 189 112
121 159 250
31 121 105
31 162 34
92 98 27
199 111 92
124 227 221
60 157 189
127 92 243
91 142 138
189 67 44
48 53 101
57 5 29
175 72 51
2 33 106
220 208 139
143 149 81
64 146 131
113 123 185
213 47 110
173 10 110
206 160 13
174 182 39
29 16 56
42 161 51
202 157 108
137 82 9
141 225 180
40 110 240
225 149 15
212 99 148
97 113 65
64 230 170
17 34 11
155 228 106
50 229 213
160 157 103
20 61 7
19 99 187
43 227 103
30 114 94
6 174 183
164 180 111
125 168 75
209 82 125
206 168 69
69 201 82
53 86 203
219 93 149
174 205 69
142 162 55
103 113 169
210 87 15
147 147 204
251 124 155
29 98 221
235 251 230
157 207 200
40 196 171
219 148 92
195 189 76
212 117 252
115 214 147
128 107 244
149 195 238
152 56 243
131 17 192
112 116 170
176 174 67
43 163 226
153 217 195
214 251 236
209 203 218
251 146 57
192 72 88
176 178 31
215 185 206
66 66 223
92 70 128
219 94 123
65 197 104
49 54 58
57 254 10
246 83 58
174 19 103
150 195 161
104 139 65
253 77 120
72 195 157
96 165 158
221 117 230
198 57 124
251 77 151
163 40 0
25 250 157
10 230 252
138 79 49
55 94 76
102 40 36
186 137 185
225 236 143
254 170 126
236 243 207
142 252 32
235 243 38
83 58 164
210 251 146
48 46 249
48 239 206
161 116 56
109 41 247
23 175 29
175 18 137
69 87 22
221 177 232
87 99 19
242 63 113
144 104 231
164 234 112
230 71 249
119 246 130
8 150 237
8 192 246
18 112 230
253 115 248
142 9 50
107 117 51
76 209 132
154 1 108
33 105 108
8 47 152
136 143 198
84 63 248
173 69 135
118 139 41
100 140 32
184 13 66
112 242 12
116 24 24
185 121 14
117 196 224
216 73 200
63 106 186
77 174 195
18 93 180
35 1 191
216 127 242
150 5 200
176 141 117
61 124 238
19 233 227
230 77 96
127 16 111
62 235 5
54 41 207
18 153 219
133 65 210
170 141 242
148 254 222
238 39 176
163 233 231
10 127 218
27 238 18
207 21 221
243 248 104
138 154 220
143 144 27
160 63 27
11 225 138
200 27 162
150 151 217
17 27 118
123 8 135
205 0 25
201 13 151
180 97 69
180 231 112
192 177 253
240 203 52
162 117 154
42 45 65
156 12 124
225 83 117
76 186 32
138 52 172
99 84 250
47 103 102
18 190 123
195 113 188
244 42 55
148 25 1
252 204 55
225 133 105
62 218 197
73 199 121
184 252 106
43 16 123
12 153 68
33 119 30
62 177 162
239 205 91
134 251 19
83 23 133
114 186 225
11 171 224
241 34 216
26 245 31
195 184 118
83 111 112
27 41 125
190 113 255
88 212 202
130 219 27
132 106 210
116 125 20
78 215 115
76 118 41
114 70 148
26 11 179
205 252 132
30 229 249
177 242 173
208 35 231
150 125 207
197 191 26
108 90 115
95 171 78
42 2 170
139 134 30
157 137 233
137 113 89
53 202 32
28 252 174
80 62 129
227 74 150
57 229 26
247 254 252
159 151 73
142 88 243
244 11 96
54 7 53
87 22 40
23 7 153
99 109 26
77 209 76
205 112 216
128 90 113
212 98 57
206 250 42
50 73 67
16 228 49
143 200 199
134 200 23
89 120 25
53 0 233
38 58 176
250 41 202
141 137 76
115 236 46
169 165 94
212 11 211
202 255 131
130 192 106
168 15 57
255 125 103
102 232 169
130 161 197
33 76 179
11 231 150
14 231 165
117 248 42
29 191 42
124 105 64
11 207 222
233 197 39
186 146 192
251 253 126
35 78 44
188 130 156
63 7 21
27 161 184
146 183 102
111 179 159
25 33 193
51 19 203
75 115 188
251 238 109
93 88 245
163 15 217
20 148 252
7 185 237
62 73 226
244 190 191
96 63 201
197 246 79
1 200 198
138 191 203
221 236 105
33 148 212
188 179 69
156 76 125
88 130 28
222 190 228
87 103 28
144 176 140
41 189 208
43 32 222
175 223 81
230 202 56
160 88 166
35 93 38
147 21 243
147 130 238
206 168 42
192 213 160
37 96 95
111 176 241
135 172 83
168 12 232
28 225 101
153 52 236
62 133 208
155 26 84
63 137 178
10 162 16
90 164 78
59 245 206
11 232 2
219 31 23
42 53 41
234 17 125
108 55 65
48 185 199
46 114 113
150 13 42
149 244 119
71 254 115
145 228 205
3 5 233
31 234 215
166 55 255
14 56 180
48 67 92
94 144 229
213 164 149
159 125 147
15 172 151
220 184 138
144 97 130
45 109 58
103 178 231
216 195 140
2 89 14
203 200 238
104 144 220
38 27 96
120 187 92
49 245 183
10 66 104
82 119 100
16 181 9
28 42 153
40 103 200
2 153 83
195 144 193
190 35 249
185 110 134
109 25 46
28 145 215
235 66 182
107 244 211
8 169 197
185 5 79
110 86 79
33 40 144
112 114 183
241 204 161
108 192 95
251 174 178
240 217 219
182 112 26
145 12 161
72 177 251
134 17 27
129 62 124
94 122 197
181 192 114
65 170 179
66 179 155
121 5 14
9 114 97
211 119 105
33 74 102
77 4 186
243 213 165
169 243 38
93 196 102
28 156 183
219 110 124
27 125 174
157 219 56
66 33 185
51 137 75
236 21 176
97 71 156
52 98 207
217 135 56
229 238 46
52 11 192
238 235 197
69 85 135
172 44 65
201 119 81
238 17 78
126 160 105
181 48 101
8 250 188
152 5 80
234 33 85
127 127 137
233 238 238
158 15 104
34 236 20
206 152 201
19 75 238
193 154 185
225 136 121
20 226 122
138 161 163
182 99 3
50 127 18
39 120 154
165 156 55
175 130 44
223 160 55
249 137 185
11 14 55
7 141 2
116 210 76
17 71 210
163 202 36
52 171 25
189 56 70
75 70 253
198 35 2
110 101 124
71 254 246
146 229 17
105 112 42
0 5 111
253 239 171
75 84 148
149 69 183
27 6 64
65 199 179
29 43 158
97 189 176
18 116 65
93 207 44
13 221 56
30 144 67
128 49 32
99 14 146
71 70 14
211 32 225
157 143 183
244 15 223
190 240 143
172 84 41
12 254 37
29 224 213
153 117 156
61 186 168
119 50 215
45 177 188
145 76 168
88 222 184
58 4 50
172 22 235
201 10 195
69 211 87
112 218 105
201 175 91
85 4 138
15 250 175
26 205 231
114 56 111
69 69 15
209 176 57
65 233 174
95 188 88
121 232 224
207 200 127
7 231 46
152 30 252
200 51 218
56 227 252
92 3 25
53 76 96
94 100 114
123 169 237
183 139 2
45 5 241
161 193 65
63 66 239
179 134 86
33 82 104
6 222 224
117 206 244
252 75 80
104 158 80
208 242 180
155 210 164
166 159 184
83 244 14
183 225 79
168 188 139
184 225 11
28 5 207
174 82 244
2 99 53
200 242 44
227 234 176
94 94 241
90 67 187
185 194 131
161 47 201
17 126 94
51 6 37
143 223 77
231 253 142
44 250 134
59 235 45
141 255 92
40 37 212
29 7 113
190 222 164
26 178 169
212 246 194
238 109 78
87 7 80
9 74 173
198 109 234
194 211 94
21 1 186
176 10 193
3 213 158
24 41 83
122 16 95
100 91 159
46 235 120
51 87 209
10 184 0
194 228 122
29 194 96
6 169 159
58 132 105
157 240 148
224 142 154
63 155 233
101 163 205
72 216 27
90 137 13
115 203 11
99 135 188
240 61 200
30 37 176
200 215 193
252 79 180
76 111 24
186 227 189
26 69 246
143 255 60
20 138 201
206 124 245
77 211 247
146 104 165
155 42 166
180 23 60
119 8 253
54 195 26
214 181 91
249 89 186
53 138 114
149 162 226
211 242 212
217 159 185
142 9 56
234 153 244
75 165 197
182 37 118
175 189 54
104 104 57
247 150 160
158 114 103
100 93 36
106 92 0
132 92 65
5 218 251
79 132 154
236 98 181
243 94 48
178 232 25
64 209 31
109 30 254
57 166 210
253 217 12
207 46 246
19 189 17
174 69 207
146 124 12
248 165 234
137 50 131
210 148 58
222 60 245
86 237 247
252 237 42
152 12 127
104 49 184
246 78 32
215 229 184
151 6 85
175 34 26
62 201 93
214 35 246
48 167 151
181 169 33
176 83 233
124 87 113
202 226 203
187 76 239
155 104 169
101 29 238
18 96 200
20 239 22
35 44 164
245 132 17
187 8 235
63 221 203
236 48 131
89 192 137
119 62 249
187 167 181
228 58 103
250 74 146
221 59 208
213 183 237
41 237 127
36 8 82
249 40 213
3 150 193
71 184 20
128 58 43
116 227 70
92 42 46
83 100 89
219 141 69
48 14 253
223 150 156
163 154 106
245 236 139
187 177 123
117 230 3
191 42 105
81 191 79
230 248 172
134 154 8
127 175 146
150 93 254
75 208 165
155 193 28
58 193 214
169 155 190
181 1 53
216 55 198
61 109 204
60 177 68
75 110 189
227 57 189
153 215 171
53 204 33
180 243 239
63 192 122
181 244 181
191 22 99
165 103 128
77 250 130
219 123 68
81 58 147
140 104 130
169 12 200
37 251 115
46 130 186
120 175 173
202 26 52
85 14 119
79 184 145
117 155 40
72 215 83
239 4 15
144 37 250
150 146 34
187 116 250
218 224 237
54 167 172
22 221 144
99 228 198
103 81 119
97 170 86
12 146 217
69 122 223
134 237 100
150 206 249
83 40 198
123 220 188
41 237 234
223 64 138
206 60 23
122 7 176
210 67 18
15 174 70
215 173 187
64 33 70
144 35 197
63 164 243
86 64 57
116 98 176
255 107 202
65 188 119
46 165 184
50 200 168
1 34 31
200 152 252
235 61 200
239 130 22
89 193 167
219 185 175
252 52 73
202 192 47
58 222 108
125 234 85
72 131 189
130 221 196
20 21 22
251 251 128
254 24 48
124 181 152
159 138 102
13 107 146
244 173 141
224 97 137
247 188 108
57 40 47
19 189 167
66 100 244
17 1 137
7 201 232
143 103 117
222 41 184
27 121 187
228 6 195
132 41 73
247 112 121
153 98 185
172 195 176
61 164 90
104 5 250
189 31 253
73 96 125
77 236 216
245 90 131
252 114 63
62 43 59
190 165 249
161 69 86
140 183 244
134 107 108
100 34 19
86 152 17
255 14 87
11 86 126
89 70 113
91 13 35
210 80 81
138 151 103
188 9 81
10 6 242
89 247 156
169 1 232
10 151 220
64 59 184
128 230 212
0 92 103
3 79 147
157 220 57
77 105 164
13 128 165
182 8 165
103 157 154
167 197 59
118 106 113
203 239 136
250 136 70
155 138 184
118 186 36
40 20 64
101 82 39
111 156 208
147 72 192
147 99 48
220 133 121
243 91 6
248 39 102
219 11 186
5 15 222
81 82 180
214 58 238
181 39 207
46 10 98
253 28 82
251 223 161
55 93 254
226 215 79
59 199 27
252 191 183
240 216 39
223 192 63
87 1 157
65 232 6
144 242 198
191 63 29
163 30 239
167 129 119
220 22 200
250 10 31
121 247 38
225 107 58
58 142 246
111 62 243
90 203 244
97 100 194
90 218 1
222 74 9
225 169 75
7 29 1
183 30 65
72 215 228
40 233 228
218 154 57
30 194 167
23 138 58
196 157 38
0 67 26
38 71 35
25 215 178
155 164 203
70 219 56
151 234 163
148 18 156
104 52 157
39 130 204
166 34 55
223 182 148
252 216 197
61 34 54
119 183 108
79 231 239
144 219 203
121 215 56
137 172 93
58 90 250
171 8 113
151 53 91
216 195 204
145 181 245
242 23 22
70 161 150
42 101 142
74 32 248
75 179 152
8 118 113
243 229 14
148 133 121
47 0 26
79 111 220
41 244 241
41 64 94
44 208 199
228 82 101
215 89 29
28 1 119
114 115 25
191 30 185
198 189 223
179 67 77
137 32 242
69 29 72
30 5 170
247 203 217
33 118 174
42 152 28
250 210 46
61 119 208
233 216 18
39 89 182
28 58 82
230 156 218
175 172 220
183 125 98
30 97 173
53 181 251
138 230 102
209 94 146
64 51 101
233 62 101
8 195 201
2 117 56
222 24 174
252 89 140
192 106 146
159 35 226
92 60 232
192 1 91
38 249 152
134 120 201
125 188 108
183 189 105
38 174 16
44 206 56
248 33 130
164 210 233
60 216 234
126 25 97
193 236 109
65 210 206
144 9 38
32 225 187
210 193 161
254 75 169
153 105 196
31 126 205
24 47 176
160 208 249
234 39 47
142 44 174
107 83 11
97 112 106
4 205 161
133 241 70
172 254 123
168 162 41
249 188 198
113 201 167
81 44 41
173 115 63
2 45 136
206 181 227
196 53 90
183 59 236
93 56 113
249 231 47
120 132 170
113 115 81
125 250 83
15 231 126
162 231 196
25 170 46
62 52 157
125 7 141
197 186 58
228 97 127
125 30 14
251 118 151
130 177 232
69 9 210
63 30 196
181 234 61
168 96 8
45 48 134
239 107 128
82 92 144
206 185 231
15 220 99
194 48 30
126 201 201
26 5 234
74 173 195
215 219 45
122 17 177
57 114 73
213 119 1
39 121 136
232 165 143
120 207 20
192 53 243
145 142 160
145 185 206
218 122 91
1 187 178
78 143 8
113 168 14
154 176 219
62 52 139
183 5 194
27 211 72
245 102 122
201 186 152
40 123 155
102 37 89
156 4 93
109 227 82
231 83 95
13 64 144
80 180 199
252 144 46
99 48 86
162 225 8
224 212 118
212 9 199
77 182 202
225 104 26
135 106 69
185 103 83
197 132 19
215 175 206
114 212 106
23 5 94
13 202 181
23 21 246
109 145 94
147 200 215
106 81 128
81 101 233
46 26 180
139 83 166
108 47 94
222 113 158
174 218 159
224 126 67
211 28 168
46 134 5
226 74 138
133 254 240
178 244 244
132 49 37
180 160 150
92 137 226
69 95 183
54 114 213
66 122 36
193 84 4
208 11 60
116 128 149
132 172 216
19 86 47
97 176 218
251 188 239
157 165 76
105 43 245
12 112 236
23 36 60
214 157 67
121 80 28
215 110 202
185 147 24
179 228 33
133 49 180
157 208 182
250 245 130
129 198 158
218 196 87
46 228 161
187 159 216
193 18 228
224 147 184
149 219 152
12 59 2
252 211 36
70 214 195
220 224 53
112 112 3
206 159 248
216 37 146
194 239 165
203 188 19
155 212 6
245 193 112
248 43 222
217 153 123
96 118 224
147 12 254
135 200 148
156 115 8
32 173 179
184 34 74
29 117 123
2 52 182
11 249 169
102 19 187
77 84 152
170 157 201
72 251 225
177 206 199
99 14 47
14 185 184
169 24 2
2 20 213
246 230 181
79 206 195
210 61 139
151 129 191
236 94 196
213 97 252
48 251 114
80 24 195
176 151 26
45 31 253
169 164 34
216 84 99
146 143 44
56 194 42
148 101 230
209 255 39
215 196 132
132 81 221
254 16 12
18 124 70
43 132 254
104 247 234
114 235 222
72 2 238
219 23 1
254 164 33
155 146 106
49 48 62
102 70 187
126 3 169
101 120 43
198 125 17
183 191 195
238 177 135
41 142 253
109 248 136
15 216 142
81 2 252
181 70 15
136 195 165
26 152 31
8 206 49
140 89 169
252 102 75
239 54 46
123 231 242
52 205 60
162 47 41
187 177 13
20 216 128
151 105 207
202 1 113
197 44 78
37 40 179
86 175 208
119 20 108
82 150 32
200 97 33
110 212 50
237 254 221
34 71 231
51 66 157
137 162 114
151 14 13
70 237 120
157 228 104
239 130 31
198 99 168
165 217 53
103 124 237
191 255 75
219 165 33
187 22 69
124 40 34
8 183 55
196 220 185
51 109 144
15 102 117
33 161 44
87 47 194
219 44 231
124 95 38
99 252 169
49 248 223
63 12 154
86 24 164
194 69 74
145 170 113
211 109 205
239 187 106
64 129 39
53 25 162
63 121 19
180 134 136
32 64 109
184 83 27
118 128 109
161 6 107
224 228 157
209 191 216
175 50 72
62 224 176
123 3 80
30 68 211
157 122 25
78 44 169
51 20 59
124 187 45
240 219 152
60 36 73
54 19 153
63 83 184
153 54 25
99 68 62
88 221 114
75 198 196
226 111 83
66 153 205
165 91 162
4 154 52
64 21 182
79 158 143
108 66 90
187 16 145
226 209 121
14 106 245
138 109 31
99 46 60
249 83 174
97 133 154
177 86 22
219 224 146
222 36 224
182 26 43
220 168 13
191 60 72
20 50 125
208 44 233
203 5 13
37 2 139
193 117 121
194 120 14
132 210 195
16 163 122
174 243 160
199 2 165
77 57 62
142 238 59
108 21 72
123 16 242
192 216 148
31 114 128
126 197 54
121 134 184
149 115 39
3 8 166
57 248 159
116 192 83
74 102 160
57 59 234
115 74 253
152 141 200
105 119 34
59 76 92
51 51 161
153 27 80
140 129 175
114 168 235
241 138 248
181 12 166
172 221 20
72 145 43
98 92 71
192 6 203
73 225 29
184 254 169
205 181 121
46 26 92
190 53 238
81 84 231
150 11 64
149 32 77
12 175 203
241 232 174
69 97 108
1 113 239
228 34 86
39 168 3
196 142 226
108 183 241
12 0 10
1 246 237
93 213 203
47 111 188
118 255 189
150 152 32
139 135 119
191 214 39
254 42 89
98 205 228
48 84 123
214 162 80
16 40 36
119 51 121
86 131 209
29 76 91
113 83 224
16 230 4
141 133 198
101 110 75
168 2 249
210 83 25
250 102 6
144 25 46
119 70 209
83 142 237
31 99 43
153 7 181
193 206 195
117 156 168
245 68 130
13 163 221
165 108 117
26 165 130
147 108 20
166 182 151
44 165 40
232 58 150
109 254 20
153 121 81
64 140 7
32 49 240
127 47 26
207 50 98
179 122 195
131 126 6
205 170 150
68 125 211
189 163 127
28 115 167
79 184 5
116 194 214
87 235 146
225 65 167
201 132 32
42 166 181
131 8 20
189 47 105
209 173 201
88 151 187
123 35 181
34 64 171
32 208 206
181 25 253
198 225 52
251 205 237
32 57 248
187 109 145
76 17 171
84 227 72
243 125 227
81 185 193
190 114 32
183 95 187
226 62 123
252 4 160
238 186 166
166 169 5
6 151 94
249 1 37
154 45 47
173 148 191
94 118 137
161 115 123
166 34 21
58 111 157
252 59 244
216 186 91
31 23 141
134 142 151
67 92 10
200 29 2
232 142 214
240 177 168
194 24 122
216 10 125
199 214 60
45 210 13
223 180 54
38 227 89
31 26 125
79 40 239
168 64 141
189 228 246
101 132 68
115 81 234
104 127 131
149 16 82
188 230 64
242 20 117
91 93 38
116 194 80
198 35 235
136 56 97
171 195 181
77 164 28
41 164 226
99 172 244
175 107 200
57 239 151
13 235 46
11 138 119
20 93 189
75 131 233
189 96 23
164 45 217
31 95 234
186 90 55
167 126 55
38 252 144
109 140 24
21 15 120
43 205 69
63 43 184
27 106 203
225 82 119
147 60 48
243 221 164
203 47 212
205 55 105
250 224 145
40 119 79
71 17 13
188 27 46
252 16 184
122 210 44
169 109 150
12 154 240
92 21 228
53 157 174
151 135 74
151 127 253
159 61 56
12 116 247
214 28 11
95 46 1
160 191 13
183 149 60
169 91 15
246 156 151
128 111 115
154 237 23
79 21 190
200 144 51
226 116 69
60 229 125
121 207 199
181 67 40
85 106 214
35 161 27
32 147 162
156 160 94
198 108 242
12 28 138
37 2 4
95 233 248
213 149 38
236 244 183
226 10 118
185 99 225
8 228 218
107 167 104
222 222 193
141 4 132
164 223 16
250 192 32
132 42 3
118 75 35
31 87 101
50 74 242
124 232 13
82 144 138
99 120 12
13 32 120
235 94 218
175 27 252
187 234 164
4 101 213
181 155 106
112 114 48
85 170 36
234 136 51
199 107 105
154 160 212
246 99 32
9 68 212
101 55 133
92 103 22
229 241 193
141 179 227
169 108 139
76 114 204
30 182 71
166 180 173
176 252 63
248 207 63
120 124 48
65 208 104
21 141 20
151 207 101
108 77 96
13 219 209
69 124 4
108 40 170
192 46 43
191 205 170
139 136 136
134 255 99
87 28 180
84 231 56
180 131 13
241 209 100
165 149 27
156 1 236
245 96 7
56 147 75
185 10 20
57 104 201
106 16 65
43 68 139
177 181 59
120 29 5
65 89 19
56 245 145
88 56 50
154 35 160
194 14 132
231 177 220
94 221 239
134 49 137
215 213 207
146 136 35
82 150 121
1 96 210
162 56 2
44 9 53
76 243 202
156 34 234
216 248 113
11 75 199
123 59 115
186 145 153
179 87 150
224 130 159
233 189 113
210 34 23
232 159 129
119 64 59
49 153 195
250 226 203
107 26 173
238 214 28
132 92 41
155 17 84
217 22 169
224 227 123
120 50 147
221 43 234
151 116 199
5 30 183
189 187 184
195 48 125
19 144 217
219 113 143
136 238 183
147 48 81
42 235 254
185 15 80
216 65 38
174 90 193
70 2 100
109 9 181
37 223 108
162 169 131
171 107 210
212 208 86
78 93 157
150 68 134
25 204 69
23 161 41
187 63 3
245 247 87
180 206 183
52 127 239
179 157 76
192 195 235
113 47 92
149 200 192
21 51 179
164 48 13
60 37 36
125 6 131
185 188 123
180 165 82
16 4 1
227 143 47
106 172 7
18 74 88
177 113 92
169 190 34
129 152 219
46 243 44
137 87 35
60 5 169
80 34 153
220 84 85
244 78 11
47 174 118
201 155 175
175 212 156
47 151 20
21 251 79
87 224 84
22 7 214
240 237 78
219 229 64
28 108 135
50 14 124
30 236 73
241 87 45
72 71 170
203 72 128
57 35 230
130 66 49
27 23 151
18 62 4
137 112 17
200 98 24
176 218 142
103 41 172
60 175 252
116 158 76
127 82 200
51 168 182
197 5 211
72 209 165
137 156 31
35 211 222
191 42 172
79 104 70
140 14 236
188 252 99
31 233 135
115 234 227
94 103 224
198 103 129
164 109 140
15 40 12
112 250 57
68 51 253
24 36 220
75 46 5
212 222 245
249 148 202
47 6 108
85 21 61
138 64 65
41 189 63
153 229 182
53 158 98
33 102 20
144 184 63
159 69 40
192 166 148
105 130 5
116 37 72
158 191 196
198 91 206
234 180 198
139 174 138
80 35 77
118 201 37
137 111 252
111 102 253
138 195 174
201 12 226
185 111 166
120 17 154
140 179 152
123 212 9
56 40 204
52 133 45
28 20 242
91 186 145
147 227 184
92 191 57
131 130 121
102 197 240
8 252 36
167 188 77
144 92 183
55 229 33
193 152 41
227 100 224
88 237 94
48 65 144
134 7 14
27 126 30
175 84 209
156 197 54
14 252 42
169 130 191
37 37 155
62 140 31
109 94 31
213 62 62
146 175 23
49 217 248
233 101 9
76 219 181
92 32 134
195 107 77
42 26 157
211 96 18
30 147 103
80 133 46
222 241 231
164 179 69
26 163 34
227 46 152
94 231 246
70 199 223
95 126 229
236 0 18
89 112 9
253 111 7
190 88 32
46 109 215
235 164 105
141 239 59
197 107 67
203 20 74
155 39 74
13 154 161
161 252 196
121 52 9
182 107 254
199 81 241
72 125 114
129 223 146
143 87 62
188 151 108
98 206 114
88 105 119
98 234 82
25 103 152
9 204 245
156 97 27
112 158 92
188 128 66
190 222 253
112 132 222
61 174 9
152 22 36
114 75 61
67 113 236
221 185 33
74 248 176
118 57 10
190 122 124
21 173 162
163 110 232
0 131 190
217 64 26
90 233 111
162 83 13
188 121 184
82 195 59
178 97 119
60 217 216
3 20 145
159 228 8
63 151 24
175 105 106
68 48 105
42 30 22
224 29 141
154 164 46
213 27 119
158 200 243
223 175 187
49 72 51
33 211 149
133 238 242
177 184 135
126 170 191
208 93 226
227 4 148
121 35 68
28 168 119
249 95 200
17 38 101
138 74 82
122 128 23
20 36 2
80 26 80
211 130 17
164 185 19
2 250 179
235 227 212
218 13 4
26 214 133
93 205 3
234 253 156
38 209 120
92 154 163
145 122 167
156 43 38
184 40 166
173 180 10
108 132 129
14 40 61
54 42 90
95 62 113
64 73 79
55 119 58
243 55 103
55 92 137
125 197 126
144 88 136
27 190 223
219 225 51
165 167 169
161 30 120
136 135 103
189 82 146
20 2 17
59 48 201
192 76 117
219 132 96
3 206 125
6 255 127
207 144 168
120 152 77
189 168 251
223 114 110
215 204 160
225 227 206
162 188 195
39 119 200
223 210 46
198 127 194
137 131 212
11 79 12
236 24 183
46 204 202
149 31 221
141 117 203
152 151 31
233 173 42
3 173 114
143 36 4
41 99 225
141 108 30
6 17 248
233 148 195
14 41 156
72 130 131
179 101 25
249 209 74
74 246 4
131 115 141
126 0 16
243 51 106
163 9 143
193 42 0
83 162 196
145 16 227
43 150 47
239 4 30
145 125 224
49 177 35
69 75 14
172 67 223
102 141 111
235 58 53
136 211 46
193 252 45
100 58 54
219 202 80
88 97 129
164 33 22
26 110 176
160 135 150
33 244 21
2 22 76
159 204 23
218 42 65
94 28 68
14 80 97
100 39 239
227 119 5
118 38 105
233 10 206
5 89 204
168 240 61
175 194 143
240 132 175
24 42 160
60 248 168
32 20 28
218 222 130
3 216 185
217 23 90
116 128 196
185 39 147
119 27 126
180 252 242
21 150 104
52 27 167
187 42 155
31 205 87
144 69 33
145 50 40
115 138 112
182 79 112
111 227 30
24 87 174
99 113 39
145 170 96
152 45 233
45 120 175
227 181 108
24 151 241
37 174 92
87 114 253
110 169 93
200 105 173
218 99 118
205 39 109
0 60 149
89 42 123
41 53 31
169 141 175
29 68 25
209 110 87
10 105 229
40 160 4
149 166 140
111 32 138
98 185 48
213 224 168
46 33 159
182 157 46
104 0 199
214 93 193
252 129 196
108 1 65
199 27 188
42 97 119
178 156 201
221 32 250
170 137 149
198 45 193
228 121 219
44 212 49
246 143 155
217 183 38
255 191 146
102 169 14
58 49 111
15 20 62
183 7 80
67 174 109
159 59 214
130 72 166
241 78 156
236 156 175
151 198 56
118 204 67
15 26 204
82 77 23
181 5 220
51 10 254
3 218 178
194 48 209
118 116 9
134 61 213
131 137 248
107 93 23
65 105 6
52 213 27
176 58 162
92 197 171
183 25 48
248 17 63
172 53 164
54 167 212
23 77 130
67 208 92
231 43 177
69 80 12
109 208 107
50 248 134
230 101 244
242 184 136
240 152 50
127 35 80
93 216 32
199 27 185
56 90 98
187 194 159
27 19 163
242 34 47
126 85 120
125 234 8
238 183 28
244 68 211
161 13 137
69 223 90
239 101 213
66 84 211
221 241 99
146 88 90
71 88 38
38 62 197
190 183 103
210 49 97
169 16 165
74 129 48
214 40 27
42 152 150
60 126 136
103 248 103
255 88 77
229 34 96
4 15 53
56 138 133
152 149 213
218 105 162
103 116 187
163 198 195
75 97 129
123 188 200
181 236 178
165 166 40
136 83 65
1 148 20
50 184 165
15 209 183
79 140 50
162 211 51
0 41 19
206 77 92
123 201 210
249 111 72
104 198 138
151 217 130
36 66 57
113 103 241
179 6 91
211 147 43
185 102 151
56 91 84
170 132 171
57 73 203
238 158 190
250 170 183
168 255 45
24 17 56
178 1 218
164 179 246
152 59 232
239 118 76
148 34 9
226 206 13
217 87 157
98 193 54
33 28 130
220 157 163
56 75 139
214 1 148
186 195 31
149 197 243
130 161 24
131 83 82
138 173 111
104 115 123
70 245 127
36 92 195
168 118 67
73 119 21
61 116 144
12 232 232
200 209 72
176 11 75
118 102 192
7 50 46
134 223 101
155 83 25
200 247 66
180 99 211
199 29 245
26 193 58
37 64 49
195 92 231
76 43 199
76 210 238
164 32 61
107 175 5
123 255 112
138 225 187
123 27 190
236 204 253
91 115 219
190 218 253
210 83 79
214 205 202
170 98 172
36 178 23
218 42 19
106 182 132
188 220 162
19 243 166
54 43 108
26 43 172
226 22 108
233 111 2
45 141 103
35 215 174
92 209 252
118 186 194
189 197 98
109 115 219
212 74 139
52 6 103
231 115 243
242 48 54
46 64 15
31 140 13
17 42 232
197 195 251
168 92 21
123 172 77
178 254 201
107 156 83
172 249 249
113 193 44
85 79 148
176 55 1
120 147 181
179 144 198
163 58 224
155 76 80
176 223 108
48 12 178
142 29 20
207 182 62
19 66 56
197 191 240
175 230 198
31 58 193
149 26 143
90 98 117
117 204 153
187 46 20
48 210 27
19 30 132
57 152 67
115 119 117
169 124 12
82 35 111
111 164 36
22 0 193
89 90 15
198 34 71
158 1 93
25 68 214
49 102 6
124 175 173
219 175 253
80 90 217
239 37 222
170 85 26
221 11 13
119 137 247
149 102 138
90 87 227
56 211 30
237 176 42
74 179 94
37 24 180
176 170 139
241 195 3
190 86 108
158 128 80
36 187 198
158 129 62
138 188 223
91 43 41
102 209 17
169 89 94
21 221 34
154 113 168
106 187 168
64 201 197
30 111 68
128 74 103
70 159 250
155 155 87
216 182 177
93 163 56
30 150 172
201 142 235
118 47 12
49 109 119
74 104 56
197 14 111
85 36 37
251 180 196
162 210 209
150 134 146
76 121 50
239 183 16
49 247 18
12 146 32
136 251 169
125 199 181
84 44 199
37 105 100
215 175 160
174 225 208
251 136 110
78 24 16
164 17 5
228 12 188
140 174 194
150 197 199
162 126 192
61 82 83
159 103 222
9 96 57
178 165 52
204 164 36
2 22 122
251 39 142
202 133 44
209 1 48
103 101 74
179 179 71
137 44 50
45 70 220
225 214 59
185 54 201
73 70 179
19 178 50
106 9 78
107 138 114
117 39 254
159 99 205
85 77 153
107 120 154
115 33 87
11 219 143
153 64 58
107 75 204
140 109 117
23 78 235
129 48 23
166 223 209
28 229 138
182 166 203
141 84 141
128 229 206
159 194 54
15 77 56
20 88 140
179 105 24
251 249 32
107 20 245
220 48 110
232 102 139
110 171 168
55 213 50
134 41 17
21 14 193
143 155 21
223 186 102
12 182 115
65 98 129
54 224 206
242 136 249
191 102 179
229 37 242
106 247 120
240 40 212
3 25 67
2 97 237
52 7 41
104 91 201
99 60 173
58 52 49
26 18 110
156 171 58
97 157 188
220 85 82
121 243 37
124 234 53
198 232 120
19 78 67
96 238 82
126 36 58
13 238 89
80 219 50
202 48 106
86 102 127
173 101 56
201 101 75
74 30 204
57 105 106
105 112 164
66 179 99
246 74 96
242 14 144
158 89 91
110 7 47
19 198 133
242 208 160
95 208 51
163 139 241
99 198 189
238 73 47
225 96 73
255 222 194
104 228 159
244 103 7
31 44 217
251 112 196
199 86 134
6 253 187
40 110 32
240 9 158
78 100 90
173 171 78
166 75 185
234 209 12
164 241 60
116 163 145
124 154 162
92 232 2
174 181 77
75 217 138
151 246 171
124 185 88
152 70 54
193 102 221
245 17 231
178 125 103
206 221 240
88 105 187
103 137 154
64 162 27
206 132 1
142 58 194
218 157 181
203 195 153
201 63 233
162 15 230
62 175 140
166 227 236
25 157 31
234 166 110
14 74 166
200 221 233
4 240 220
169 16 142
47 211 33
116 202 98
138 82 29
53 209 229
194 196 81
97 123 59
49 213 172
230 126 80
170 43 135
205 34 185
148 129 129
251 54 108
163 247 77
18 246 22
234 0 222
203 60 247
24 127 144
154 186 90
76 86 126
235 117 241
92 149 252
106 12 79
67 59 103
137 255 55
51 220 17
156 216 222
8 186 251
77 166 155
250 212 121
90 23 3
199 225 170
237 158 112
213 148 109
32 75 184
120 93 61
174 175 194
45 241 241
40 12 190
105 136 64
135 204 20
183 34 217
41 212 224
115 207 190
175 98 80
240 95 111
158 64 47
19 231 123
184 86 116
21 228 188
43 131 138
10 128 104
208 50 152
223 243 37
235 148 246
230 186 181
251 59 161
193 193 171
170 31 237
195 20 63
105 103 168
65 14 202
170 111 166
237 26 168
52 124 229
36 183 186
130 156 82
27 83 58
138 229 212
176 240 153
252 210 125
159 42 50
193 234 34
10 211 112
90 128 248
222 226 99
126 215 30
60 171 76
76 116 3
136 127 163
44 63 23
238 49 117
197 62 51
10 114 155
195 216 231
67 25 250
101 88 223
230 102 145
75 54 76
197 11 111
140 95 125
177 139 24
232 3 140
134 134 187
192 72 117
184 92 97
97 131 152
156 15 232
176 255 41
195 64 17
92 90 251
46 236 1
206 240 161
213 155 90
111 58 243
115 42 75
126 119 253
43 249 77
64 109 157
66 120 134
196 214 193
74 19 35
87 92 234
126 95 177
12 127 177
115 214 67
43 4 243
67 234 237
241 161 228
140 22 72
128 230 234
189 221 151
255 109 22
75 112 217
109 42 103
89 171 198
179 129 28
81 134 48
62 12 165
243 204 123
93 12 147
133 64 202
81 109 100
89 53 124
231 233 73
132 167 103
179 39 158
225 194 148
187 217 33
200 75 108
172 184 48
242 174 69
83 26 47
95 165 174
14 189 167
170 137 107
191 154 248
224 209 53
52 4 0
68 114 1
225 124 51
18 105 149
216 158 169
130 100 174
177 66 160
216 95 247
109 206 192
29 165 246
77 160 183
30 57 164
30 60 149
221 42 92
218 126 165
49 8 89
85 150 128
92 157 7
242 81 206
196 93 183
242 82 89
196 158 212
111 124 25
41 158 155
138 114 163
251 203 20
163 215 234
44 107 177
177 41 145
99 95 183
207 23 212
35 29 142
224 22 234
154 183 204
65 24 151
39 124 186
227 181 123
56 219 99
157 102 57
157 132 178
108 115 191
96 24 176
94 163 86
130 231 157
52 255 40
186 136 8
30 199 196
13 180 212
196 158 115
198 157 23
33 64 244
156 87 171
211 38 47
187 64 217
126 224 231
203 224 219
61 248 69
67 154 227
113 91 214
88 175 134
101 211 213
100 116 244
147 47 245
161 69 61
152 234 234
95 0 70
167 158 171
51 196 105
58 102 188
9 151 165
90 232 224
101 212 177
145 191 151
65 62 4
52 94 22
92 246 118
243 123 12
136 10 64
37 133 168
128 133 162
18 147 120
30 129 73
21 190 38
149 37 67
163 122 158
11 155 111
57 173 30
254 249 166
116 52 253
194 38 172
100 135 163
131 145 12
47 148 89
7 230 129
127 111 184
187 250 144
230 60 200
64 242 197
23 148 211
125 232 178
156 139 219
9 6 182
141 69 225
20 162 59
143 200 229
71 245 117
209 24 243
162 189 109
236 108 12
115 121 143
249 28 68
63 106 48
83 240 136
22 41 111
92 173 83
184 101 147
93 122 21
120 187 219
201 138 233
192 107 108
61 192 33
31 5 69
13 203 144
91 67 248
179 169 62
49 60 241
229 226 233
2 201 68
82 39 208
61 26 44
58 168 220
95 234 178
253 208 9
123 28 222
101 14 86
255 53 150
146 23 17
112 211 2
151 124 151
103 124 136
242 110 124
125 33 227
240 224 215
19 247 96
52 251 116
13 182 86
174 97 50
208 111 243
215 118 131
46 245 193
220 48 179
22 112 159
199 222 242
191 61 103
67 177 116
29 122 195
212 2 10
54 103 45
78 110 149
30 250 37
31 56 184
0 162 131
63 86 248
156 165 127
198 4 180
67 109 235
96 103 171
208 30 7
221 44 121
225 251 3
121 194 203
91 5 142
176 44 116
110 163 202
49 223 92
82 37 178
128 24 63
60 4 115
172 246 31
168 162 44
60 4 197
43 135 205
112 196 12
79 101 112
95 64 101
109 178 252
164 84 135
229 38 64
73 187 12
1 217 135
54 115 52
187 110 216
219 122 228
212 170 218
242 132 39
158 224 255
61 197 124
255 136 250
158 214 13
52 91 166
241 132 54
31 236 252
225 203 142
21 69 249
92 220 18
170 121 133
2 43 85
98 230 72
61 134 188
68 79 189
165 250 217
27 223 173
133 254 19
131 16 91
39 135 137
184 86 208
164 1 160
68 222 124
171 123 205
190 231 39
254 103 26
198 63 87
123 1 209
28 171 123
43 219 21
5 170 223
82 246 26
2 211 246
122 141 187
136 97 225
200 198 35
170 102 202
230 75 227
39 194 245
5 84 38
139 27 70
88 64 180
100 239 128
41 60 136
190 206 239
83 15 4
21 64 2
204 100 173
221 219 129
197 118 192
226 86 182
0 235 146
60 59 217
214 206 65
11 24 42
130 240 242
34 180 32
219 66 243
14 111 24
32 12 165
243 56 220
80 87 235
75 136 147
244 198 69
148 58 59
152 36 33
51 188 218
125 89 114
162 53 183
53 25 247
108 105 16
100 37 132
178 92 251
106 82 216
44 37 173
67 190 89
151 203 201
176 16 49
175 152 52
116 88 142
209 221 47
69 241 217
6 157 33
212 144 86
188 32 46
210 189 42
174 168 0
242 104 142
193 191 93
28 231 188
49 197 5
17 178 177
111 21 38
236 17 157
208 19 75
223 198 136
43 187 118
76 66 83
152 102 81
117 63 65
186 165 240
101 254 193
102 129 161
78 246 218
12 102 135
114 97 95
111 195 121
193 65 115
123 28 0
142 133 75
114 79 31
124 190 184
172 125 42
219 200 22
252 121 89
167 73 223
185 14 64
145 119 113
52 235 233
24 90 133
212 74 221
237 16 134
105 17 239
132 46 139
209 239 14
56 47 193
145 116 205
210 160 34
245 10 142
190 19 37
249 31 46
163 39 166
91 194 93
95 243 163
135 167 182
125 58 56
38 61 142
172 12 172
187 79 203
57 22 120
183 73 217
89 21 180
224 0 84
215 98 193
55 242 117
179 77 111
207 172 61
18 143 7
15 174 209
26 118 55
75 108 34
170 14 244
64 74 34
21 241 196
81 44 111
221 28 61
68 56 183
1 214 114
203 122 129
166 131 79
195 102 194
252 153 144
77 45 243
149 32 213
1 66 7
204 117 236
190 135 57
68 46 102
215 210 165
228 92 146
134 200 158
53 7 112
141 38 214
115 176 12
164 229 95
44 166 105
72 248 72
36 160 119
161 60 248
156 214 165
1 182 142
242 241 25
102 81 90
66 120 142
186 4 214
168 104 219
163 241 76
65 239 11
157 190 150
220 165 255
223 237 93
4 120 228
75 212 41
109 247 184
219 6 160
103 206 24
6 177 239
238 245 29
114 226 91
135 56 34
184 145 36
87 80 60
207 67 144
198 125 178
68 193 184
96 185 4
169 146 153
102 123 182
77 57 150
167 118 225
203 247 243
116 229 72
126 137 17
31 92 98
230 111 148
173 248 40
120 138 203
105 114 195
60 42 68
2 1 74
175 149 66
233 68 177
132 5 12
254 28 172
81 187 191
28 24 66
104 29 178
79 30 211
139 13 153
207 66 215
114 45 52
230 77 83
209 249 0
164 114 132
139 26 182
167 196 134
165 168 100
154 11 118
177 134 102
31 62 180
75 214 23
16 66 50
87 91 157
40 84 166
222 95 146
154 80 142
35 125 128
121 160 186
131 158 59
164 107 168
149 91 160
157 154 247
189 135 194
87 124 185
119 52 233
171 151 35
107 35 20
37 65 106
132 125 109
180 101 49
176 219 161
129 206 253
105 137 138
7 205 197
237 64 127
43 178 216
51 90 110
92 237 111
235 192 23
43 224 177
177 183 76
238 47 85
137 133 132
223 244 228
122 67 210
141 150 193
59 241 142
59 73 183
82 173 173
239 12 112
81 155 4
150 183 130
246 28 66
231 193 138
65 6 35
159 165 131
190 129 228
230 206 161
212 164 109
177 33 44
164 182 16
249 112 92
173 204 106
89 65 236
181 124 60
93 151 62
160 218 142
24 239 161
114 235 23
114 207 32
83 162 74
166 63 7
187 63 144
248 76 61
105 109 68
76 176 213
107 150 91
174 22 81
55 167 181
133 114 180
89 192 77
210 105 217
235 166 75
150 10 55
50 69 145
193 218 107
132 112 131
64 221 175
137 105 146
246 70 26
11 232 134
235 46 205
70 86 134
244 190 248
146 27 136
76 242 49
50 197 33
111 202 164
88 89 1
107 151 152
80 215 28
216 158 164
221 153 160
29 244 82
85 67 112
158 109 243
98 25 205
210 20 90
140 62 67
244 89 66
191 123 195
96 198 42
62 185 214
248 119 173
88 229 223
140 100 110
115 144 249
239 113 230
122 160 198
123 48 25
4 97 168
43 200 253
71 17 7
35 135 45
166 102 199
11 113 93
133 173 194
177 148 5
231 14 182
78 22 225
57 186 158
205 249 20
111 57 206
62 54 86
96 195 39
113 16 26
130 65 207
82 176 111
40 153 222
65 105 174
85 213 170
144 31 188
59 54 77
194 199 26
252 85 20
209 245 88
201 56 89
119 181 246
243 112 176
126 194 211
194 173 30
166 121 124
159 42 182
12 236 73
209 172 106
125 232 118
123 89 33
187 158 128
73 190 154
241 80 95
239 150 87
69 189 47
195 117 211
112 47 153
44 238 23
224 224 70
98 194 87
65 171 237
198 223 165
235 220 4
197 218 13
254 222 118
48 134 247
87 148 173
89 90 200
65 31 91
250 49 8
117 49 149
177 90 77
226 92 107
199 39 219
60 48 44
83 64 94
8 216 43
135 254 27
36 4 61
151 97 138
131 189 225
240 8 18
23 117 94
121 246 136
162 148 89
195 104 134
235 137 127
19 60 188
18 33 124
102 161 118
59 77 52
222 196 85
23 154 111
248 72 134
141 34 215
224 204 138
183 232 14
205 34 21
122 243 109
104 78 140
6 198 252
85 212 228
13 66 82
98 118 131
75 61 19
4 4 165
152 234 156
124 205 86
1 19 132
31 160 9
222 138 135
86 189 90
105 132 82
200 126 131
62 34 113
64 82 132
70 128 201
47 26 60
123 19 40
29 217 253
86 69 106
184 174 239
138 225 46
202 163 62
246 97 178
51 102 221
148 175 216
132 38 74
64 111 178
253 134 73
64 29 138
179 135 89
0 118 89
101 208 220
29 59 154
192 98 197
128 47 232
236 92 1
168 197 48
6 90 125
251 194 185
227 118 240
23 244 95
140 144 70
39 100 240
26 238 255
118 81 200
204 129 238
55 171 17
231 56 45
22 232 158
92 40 255
159 17 56
161 20 182
33 50 33
239 201 44
187 243 112
175 29 113
18 22 143
89 203 156
0 71 47
244 46 127
46 130 99
7 145 122
158 47 113
175 235 200
243 100 197
110 230 226
134 14 215
89 153 123
106 137 54
126 35 9
253 207 35
26 220 247
66 118 1
252 214 234
48 78 123
196 229 74
1 166 174
39 71 74
4 207 151
3 4 65
56 197 12
90 90 166
236 113 36
226 255 183
157 101 190
32 227 25
134 213 22
200 200 144
124 157 68
126 178 120
121 100 206
2 111 37
4 27 129
110 73 254
18 138 130
64 19 235
245 24 107
60 213 103
20 130 63
63 130 181
158 59 176
148 164 104
150 3 13
165 42 7
54 44 123
243 148 202
233 3 19
101 63 89
169 41 134
34 151 190
22 87 125
89 117 153
24 227 64
111 113 191
143 244 150
58 176 76
152 103 144
41 155 151
104 23 96
253 253 108
252 130 99
100 60 49
211 210 55
22 142 177
205 94 54
66 35 91
151 243 220
61 215 247
147 189 4
184 239 199
2 89 66
121 99 46
158 204 160
242 44 110
85 162 243
230 182 243
190 26 234
127 152 1
113 28 118
24 42 159
154 161 112
94 15 100
94 62 72
119 17 128
47 124 144
87 217 180
194 191 130
16 152 97
158 40 112
26 58 208
252 103 96
175 51 248
71 150 68
95 198 187
190 200 23
104 105 125
226 208 184
106 228 223
168 188 71
176 107 133
86 231 6
145 198 134
205 106 227
202 76 204
169 155 206
31 157 133
25 237 10
187 240 99
231 219 18
91 91 121
47 18 129
79 12 129
186 56 252
154 4 41
80 110 119
218 227 149
110 44 115
8 75 88
5 121 72
254 232 106
87 217 203
87 79 188
187 167 239
28 38 5
255 37 39
90 52 149
77 248 112
87 166 245
141 19 72
106 200 84
210 45 142
196 26 193
62 231 138
17 235 179
144 92 24
251 113 204
54 147 205
241 86 104
127 121 115
96 69 35
85 176 79
29 244 252
163 40 185
35 70 117
173 151 97
255 238 19
6 94 130
49 97 138
13 89 9
85 128 74
150 45 30
3 70 169
145 126 240
32 124 186
229 204 2
215 184 161
247 82 131
2 128 196
143 38 208
162 190 192
49 100 112
51 192 130
30 203 8
195 126 91
216 97 7
185 79 118
53 217 15
80 123 120
186 212 114
131 181 55
129 68 223
114 190 155
18 127 9
113 166 80
19 104 218
10 172 225
182 127 43
174 139 23
254 130 77
255 133 198
5 241 74
148 138 177
68 7 73
61 52 137
65 175 108
216 159 126
208 3 164
187 30 3
139 234 204
3 103 109
16 59 183
78 49 208
193 7 109
169 47 184
93 195 42
134 102 15
37 179 129
207 61 237
178 64 100
188 74 174
130 88 210
163 9 31
245 212 220
4 10 78
90 168 87
224 217 118
73 1 156
199 3 105
139 121 49
112 189 198
61 197 156
209 227 47
92 0 94
160 52 66
15 223 171
157 154 227
236 40 163
175 153 59
84 35 177
82 19 109
157 131 189
165 6 127
224 236 189
179 217 185
87 240 131
219 28 24
26 231 203
225 54 203
157 179 243
228 58 118
110 181 122
178 6 181
195 172 216
241 241 216
234 141 210
49 16 41
26 246 104
103 168 74
192 202 161
114 114 233
165 241 188
14 130 55
241 112 21
210 93 137
120 47 137
172 73 179
228 216 164
209 254 251
251 135 117
63 93 91
115 61 95
178 246 128
196 54 174
51 184 236
37 251 220
190 137 121
218 107 72
33 149 88
148 230 6
19 22 108
55 6 52
246 252 185
41 244 228
176 31 43
235 181 127
137 109 73
2 100 160
22 33 110
132 220 238
206 215 17
65 248 105
251 227 198
201 144 122
195 87 203
39 199 100
201 248 46
158 99 137
19 188 41
90 81 228
125 109 191
245 165 78
170 90 115
120 164 74
176 78 67
98 19 165
21 4 194
209 98 194
15 11 233
194 23 135
193 70 27
61 199 71
105 24 9
188 87 4
40 143 110
8 129 212
39 136 211
243 243 239
89 184 146
181 57 179
207 231 14
38 54 113
174 177 179
118 74 30
124 70 162
224 250 251
43 2 19
197 198 139
213 136 31
145 14 191
4 154 46
107 123 214
109 178 245
247 159 123
225 128 114
164 186 22
183 132 6
91 125 129
117 225 45
25 248 101
84 232 213
157 88 6
130 151 243
217 206 206
222 157 19
223 122 253
19 18 164
252 37 186
36 154 141
111 164 60
108 57 13
160 215 172
201 156 89
133 104 111
241 231 12
254 11 227
171 53 188
0 105 68
141 66 97
47 147 69
9 4 167
3 214 66
238 152 250
121 235 28
213 224 87
65 193 112
212 145 243
195 107 40
218 80 2
4 25 225
182 243 195
252 79 64
131 146 216
161 84 47
108 169 131
163 173 7
61 25 134
104 169 115
25 50 41
247 49 255
56 12 100
94 58 194
147 146 72
50 218 106
103 86 32
68 118 91
222 162 25
86 148 30
85 61 32
95 182 236
33 122 172
115 215 5
120 221 82
229 169 164
3 52 30
212 244 52
60 199 45
74 19 21
17 204 157
243 208 165
68 145 173
61 12 19
205 105 85
65 32 238
141 76 90
85 13 151
254 171 65
84 58 45
239 13 158
199 129 82
212 178 44
10 118 80
145 196 148
139 60 56
245 187 14
106 27 118
59 217 67
221 48 139
225 237 236
136 89 39
26 149 203
189 195 157
221 221 8
133 250 110
47 63 151
104 68 135
26 128 198
213 217 219
253 78 201
136 28 169
38 32 101
154 148 147
82 41 32
168 196 223
231 105 22
99 85 54
189 51 251
62 134 131
41 255 29
23 190 127
118 140 185
141 221 3
37 153 233
182 92 85
229 163 212
54 150 235
247 194 71
171 128 170
235 253 125
201 14 52
197 86 4
118 186 88
90 83 227
181 30 228
221 42 228
141 90 183
20 35 4
81 39 206
21 134 86
85 152 215
214 42 68
105 69 236
223 188 195
193 228 48
72 194 123
191 1 200
136 241 213
24 38 193
234 154 213
135 76 172
229 200 202
148 105 6
254 71 73
80 107 104
155 199 95
197 110 154
102 171 130
25 252 32
126 97 138
86 154 11
175 85 152
184 239 153
34 88 180
43 132 163
226 160 64
21 61 28
132 99 193
221 96 201
41 183 241
216 224 241
64 123 188
23 59 251
225 26 18
77 36 81
165 136 66
222 165 242
164 152 107
221 119 144
247 42 134
154 226 125
212 167 138
142 15 207
20 212 94
109 26 21
241 55 44
140 100 52
178 160 45
197 151 103
50 232 226
207 53 4
108 224 73
202 7 116
40 76 204
248 20 51
185 212 25
173 178 81
212 95 43
63 79 128
58 208 101
89 255 106
141 243 241
209 210 187
1 143 168
76 173 86
21 19 5
158 251 28
69 184 42
195 26 149
16 115 225
21 52 83
69 134 39
123 71 186
127 222 136
213 54 254
10 36 248
150 90 139
214 44 194
63 109 70
50 192 243
209 113 94
122 172 178
111 205 255
71 184 220
97 192 48
34 85 182
58 216 94
195 2 50
87 68 200
74 93 181
161 124 174
164 109 19
76 30 82
162 16 194
235 13 154
239 110 42
80 12 51
239 193 23
201 80 93
72 81 112
46 179 89
227 239 168
114 33 111
239 99 137
139 193 10
175 106 32
106 89 11
128 92 95
70 91 199
65 139 175
108 42 82
24 52 213
133 183 201
1 26 75
51 123 244
46 114 60
72 113 57
128 204 43
114 249 160
167 152 214
94 78 67
255 223 157
234 41 203
154 57 138
124 89 68
28 17 209
37 201 128
23 56 145
201 228 251
118 43 123
35 119 211
130 17 76
122 3 213
156 141 123
6 183 97
46 233 179
222 197 134
94 60 143
153 100 176
98 237 168
4 191 104
14 249 150
136 91 240
13 133 33
252 103 99
31 86 43
52 118 64
239 42 117
117 223 160
28 212 233
180 42 238
42 117 178
42 93 59
134 151 139
199 175 123
86 182 171
204 79 248
142 62 132
70 191 112
77 21 59
19 229 8
62 170 245
5 86 141
29 126 13
126 129 14
189 214 132
241 220 233
190 99 228
182 190 131
38 185 78
67 104 97
34 254 33
6 54 81
148 76 72
73 137 22
106 208 9
219 70 213
216 22 251
167 238 240
196 35 15
161 43 4
208 31 122
19 247 211
61 135 22
245 17 126
130 168 98
209 194 54
114 192 30
3 48 249
107 111 18
163 141 47
174 42 121
44 110 50
117 101 140
242 200 67
221 27 128
253 28 51
242 6 56
222 68 176
142 99 80
102 74 152
168 42 142
65 58 125
200 153 64
252 220 172
229 24 182
60 145 96
2 208 48
223 190 134
41 204 110
192 190 37
165 19 251
228 143 226
105 124 185
60 113 92
199 107 203
230 40 66
151 238 99
78 2 56
103 238 238
1 70 21
166 30 182
214 64 23
167 90 103
47 235 159
93 144 24
215 86 235
171 5 222
188 216 118
136 96 240
171 254 155
21 110 192
163 47 192
255 141 171
20 250 86
135 54 135
176 133 32
112 84 215
37 38 29
183 183 216
178 47 125
102 29 117
254 187 243
92 117 190
96 162 32
69 239 238
149 62 201
7 60 87
141 128 160
191 113 232
186 29 21
144 2 151
11 172 184
220 7 102
148 82 126
154 203 94
95 244 217
1 39 229
72 181 173
17 122 56
130 31 90
194 120 145
179 184 232
180 242 121
138 15 95
51 236 110
166 135 166
247 47 225
76 77 241
199 3 105
229 217 242
232 220 203
42 243 242
177 160 104
139 82 136
251 110 155
182 52 165
32 151 119
76 55 246
169 30 25
178 14 90
38 186 175
192 245 46
151 237 85
133 202 56
86 188 206
248 249 111
152 16 36
30 227 213
14 174 251
235 31 11
192 133 96
165 58 189
212 26 28
188 199 113
57 207 234
246 226 134
242 110 77
28 226 184
176 167 46
237 195 138
80 133 55
130 241 169
130 254 75
109 227 4
10 249 25
122 86 209
86 94 29
237 109 102
159 25 97
155 57 184
190 248 125
255 2 155
193 66 19
106 105 104
7 216 203
216 28 218
227 208 191
242 96 195
215 73 11
16 249 39
1 215 104
113 139 43
89 20 155
153 6 124
14 110 83
154 37 173
114 236 113
187 167 124
146 228 241
61 64 116
42 58 8
89 231 231
145 106 173
58 196 104
88 236 139
8 40 144
142 179 147
195 165 94
180 234 115
169 170 139
41 54 109
46 135 5
100 14 142
200 31 235
234 30 99
173 29 60
10 41 87
246 237 206
230 48 250
55 233 154
46 71 1
79 9 220
80 252 250
164 142 82
71 222 94
138 27 141
130 29 62
191 185 203
55 152 193
150 163 228
134 114 104
253 177 157
104 66 75
46 238 212
100 89 194
154 250 182
18 90 195
164 94 81
33 174 92
194 101 57
105 37 131
191 215 113
0 239 28
176 82 95
28 31 174
146 240 101
101 91 204
173 120 186
91 120 11
242 230 60
11 70 48
72 118 124
92 70 36
222 11 186
7 87 44
220 69 81
251 85 167
26 134 148
0 79 246
107 196 149
43 11 79
27 62 217
176 89 199
11 149 54
193 76 63
52 31 253
54 166 223
159 172 106
79 204 27
40 69 157
55 10 147
158 58 3
143 26 27
175 238 244
72 106 54
154 239 192
33 228 58
95 146 32
184 245 85
112 210 214
2 148 106
247 133 14
82 25 197
70 196 158
174 169 253
199 89 15
73 136 1
34 179 154
220 225 117
85 247 68
240 128 197
38 115 134
201 78 175
52 96 83
211 52 249
123 84 104
31 242 97
212 79 218
144 215 3
250 239 32
53 242 110
187 175 0
241 109 91
35 24 122
204 139 133
24 133 115
150 62 86
247 40 39
36 80 240
23 29 65
156 16 42
75 114 199
54 208 8
166 130 35
212 148 97
143 45 95
142 115 44
59 81 75
22 90 201
42 81 225
219 183 86
135 126 216
223 102 193
174 40 148
242 5 241
143 80 8
14 130 33
184 47 128
84 125 176
241 94 96
223 95 97
166 131 12
88 234 123
109 16 93
86 64 244
53 117 30
209 190 144
98 181 181
31 193 131
70 250 19
255 114 193
148 162 142
241 123 200
105 149 153
108 231 36
195 3 227
72 217 89
70 56 162
169 230 110
21 59 84
48 81 161
65 250 207
79 78 143
106 246 51
108 237 59
78 80 183
132 103 72
37 110 4
255 176 225
155 193 248
105 8 228
147 148 2
176 60 117
246 20 41
53 139 221
68 202 39
101 187 107
254 61 27
241 154 1
29 27 105
64 179 75
142 38 221
77 72 224
196 148 148
174 11 29
118 243 87
246 12 189
177 88 120
134 233 208
220 145 42
220 160 149
2 69 20
3 125 137
25 11 204
103 7 11
75 138 145
22 202 39
40 247 25
183 102 7
77 14 30
57 228 122
135 90 24
231 120 81
33 159 235
170 91 209
161 38 191
44 152 30
249 232 7
43 89 209
121 254 151
89 117 213
13 111 122
42 233 233
55 90 177
238 78 60
207 209 254
148 155 155
9 214 135
213 224 78
111 15 42
226 41 165
93 4 216
55 70 226
174 205 39
242 189 165
174 90 20
15 123 170
228 199 79
172 183 164
222 47 128
159 20 31
228 201 231
0 64 203
163 114 10
100 90 25
49 183 175
131 116 108
43 248 127
120 250 97
249 235 206
205 225 221
183 203 190
30 170 35
152 121 168
7 8 201
179 230 168
142 106 44
57 117 102
56 134 229
107 86 208
234 1 146
112 65 180
196 13 122
127 132 65
65 159 192
66 101 74
230 191 107
149 58 202
15 193 106
202 18 32
202 222 130
196 36 252
221 75 7
80 169 107
208 181 64
244 18 224
33 143 110
184 240 247
114 0 70
128 38 133
41 225 190
80 30 231
247 73 102
142 217 90
243 79 96
166 36 221
13 187 30
207 103 48
80 201 161
191 30 133
73 51 21
183 102 73
173 32 121
162 219 98
207 122 147
217 156 105
161 46 95
34 228 221
19 26 144
208 29 100
98 64 113
139 110 158
130 51 55
236 20 191
32 229 207
207 28 129
150 84 194
164 121 216
173 234 243
139 241 18
109 90 177
14 53 199
58 103 17
50 190 227
133 184 22
63 225 161
198 219 74
240 181 25
50 144 106
70 251 206
206 235 93
151 132 17
1 16 172
222 65 239
60 137 243
252 19 71
11 88 236
25 214 197
158 41 146
175 128 111
224 11 228
131 11 57
152 0 223
175 219 154
112 4 166
89 59 235
162 88 85
222 208 65
113 174 207
190 222 134
249 96 80
106 142 58
31 239 78
126 207 202
74 61 65
129 126 190
154 135 8
240 10 1
190 75 183
39 197 155
94 158 44
79 28 79
161 74 117
21 197 238
73 67 161
44 88 232
174 75 143
173 7 13
75 95 210
9 60 41
185 39 148
215 103 39
10 60 113
75 96 220
85 132 17
120 21 53
195 105 89
36 234 2
205 135 251
43 74 176
217 3 61
156 184 150
54 231 88
143 10 254
46 50 170
215 254 138
10 57 55
216 62 26
44 157 139
28 70 188
249 172 112
108 89 168
63 100 112
27 186 105
159 34 74
112 207 187
167 194 245
204 154 115
140 136 10
206 24 201
255 238 189
149 113 75
85 127 88
25 121 159
129 35 239
107 101 32
237 27 108
249 90 70
180 17 25
60 182 253
16 204 230
154 188 195
55 182 40
255 250 159
29 188 239
184 113 21
168 62 171
227 246 87
72 118 185
254 8 177
219 189 75
215 54 113
108 192 205
192 12 95
115 143 135
160 118 235
232 7 171
155 80 9
65 34 164
40 59 145
127 34 30
16 84 223
103 86 227
236 127 84
149 5 253
217 78 87
121 216 185
213 44 24
194 185 43
59 231 17
183 95 151
170 241 162
92 195 41
141 214 164
112 45 194
240 194 233
82 2 153
25 27 30
199 191 50
99 38 197
42 255 59
199 188 48
10 250 24
137 71 157
254 99 65
12 27 169
19 145 80
183 216 175
250 154 105
13 207 253
21 63 139
89 30 142
116 199 101
153 209 29
64 193 169
254 93 207
211 92 92
34 150 176
53 136 76
176 164 95
191 79 121
8 114 111
41 196 160
23 246 160
239 124 249
203 108 138
21 150 4
177 247 123
157 206 1
237 184 239
249 69 249
218 154 231
120 242 25
231 57 140
141 135 109
217 214 146
117 32 29
1 97 38
14 158 23
154 59 198
12 37 227
221 185 79
35 184 30
132 21 90
139 50 210
150 25 160
242 171 107
60 175 245
137 231 108
210 154 236
166 134 159
198 111 250
172 188 166
100 166 153
77 107 175
203 124 218
43 171 42
134 132 156
0 72 254
143 30 65
34 19 44
219 145 122
134 126 94
213 110 78
131 186 231
192 201 10
70 235 111
109 28 211
52 6 75
5 109 79
211 220 198
88 188 181
200 134 23
239 250 34
38 5 162
67 104 254
251 160 2
17 229 19
34 201 158
134 157 9
47 211 193
148 116 226
85 150 189
134 190 149
184 21 98
4 47 73
65 191 42
226 174 201
57 82 3
202 203 136
125 62 169
126 131 248
226 209 121
53 19 46
138 30 238
95 168 239
157 117 205
153 142 214
24 124 135
33 193 178
177 174 218
8 169 147
6 255 34
246 229 182
17 223 153
177 206 116
141 229 246
99 98 221
107 126 210
127 184 215
210 203 244
121 118 243
110 133 197
182 206 51
61 223 214
51 53 159
47 160 118
78 245 45
211 25 234
29 47 160
248 174 131
193 110 168
203 107 244
137 248 48
247 65 239
159 172 61
245 153 173
221 24 202
173 42 146
71 94 92
255 202 134
189 244 70
219 47 161
126 121 158
162 62 127
176 254 141
233 222 38
4 109 62
109 158 162
184 233 140
253 73 23
45 72 224
9 39 53
95 123 202
200 202 91
10 114 142
116 63 195
181 111 234
113 20 106
100 225 230
168 112 98
239 51 147
90 73 226
140 177 115
42 201 240
121 108 236
7 225 105
148 135 166
47 29 154
75 135 116
54 116 131
161 235 245
15 53 225
144 154 142
56 117 240
234 206 207
232 255 141
8 120 76
222 36 146
37 134 24
185 54 176
156 31 135
201 85 69
7 25 97
65 24 227
72 186 98
197 191 4
182 51 7
162 108 251
161 207 9
27 104 46
253 33 211
65 97 14
119 123 241
26 66 236
94 95 247
136 198 183
83 218 87
25 143 82
42 211 24
178 129 83
88 138 198
31 8 131
173 145 245
133 214 154
81 173 144
209 177 248
254 136 115
98 225 74
97 113 148
27 107 129
61 12 11
199 201 171
45 106 69
119 127 158
175 179 96
87 49 219
33 168 241
106 202 111
33 177 118
115 233 244
170 252 81
226 202 55
7 214 145
148 117 53
68 186 26
254 95 181
170 134 215
62 60 146
215 135 235
225 164 112
97 122 141
16 134 68
103 205 183
81 199 191
221 172 37
200 22 87
31 104 34
170 116 102
249 68 44
90 71 68
197 168 225
91 52 236
69 246 145
66 27 52
89 149 60
44 154 197
115 216 89
253 251 24
217 87 47
231 245 252
43 220 96
107 209 73
29 30 45
147 166 25
200 207 224
164 179 63
195 170 241
5 118 127
42 203 159
148 120 50
142 7 126
190 194 234
201 70 178
29 51 19
10 23 103
143 175 30
189 234 223
192 148 144
53 10 134
186 27 243
14 51 45
75 49 95
173 206 163
71 120 6
85 239 163
173 110 112
141 96 22
1 138 97
220 255 249
49 139 60
237 188 153
168 178 220
99 245 32
96 254 131
119 88 114
7 3 124
86 180 112
173 79 80
127 55 27
226 210 201
221 62 129
203 167 189
205 152 87
211 126 29
154 204 242
149 12 163
223 210 202
147 5 207
123 55 147
113 250 99
92 241 62
19 201 172
122 158 60
96 114 194
41 4 119
8 199 127
36 98 143
181 42 196
176 67 114
7 217 104
62 229 101
224 207 208
250 152 106
59 41 187
252 22 69
28 203 64
45 89 28
223 84 226
205 22 142
223 10 192
189 46 146
57 155 0
226 88 68
147 232 14
224 182 34
33 26 21
99 115 151
183 174 41
157 192 43
165 19 40
3 7 123
158 180 129
42 22 127
200 59 240
222 166 92
166 13 217
15 64 142
40 125 44
180 101 190
2 128 220
4 206 100
117 218 41
252 5 24
132 113 124
197 143 246
205 239 15
183 93 202
56 5 99
173 38 157
18 107 56
218 244 96
197 150 204
49 34 13
4 14 195
167 162 68
73 116 214
39 220 192
83 86 36
179 174 242
3 234 248
176 19 228
116 93 154
173 114 59
24 198 0
63 13 100
87 57 12
248 10 94
16 141 57
105 53 170
177 134 12
243 165 64
19 41 109
198 77 59
75 165 89
64 126 48
162 218 0
231 5 145
217 176 29
133 151 32
80 237 192
146 96 56
177 0 73
161 207 228
31 17 30
117 41 206
252 3 138
215 205 77
88 35 226
229 46 100
140 197 91
68 13 228
227 123 37
37 142 171
93 153 129
159 58 134
194 111 143
209 238 134
22 162 95
234 73 111
92 15 41
76 166 231
249 224 148
66 15 64
231 254 222
131 57 134
191 102 25
159 108 190
216 16 243
148 140 157
82 122 36
167 225 191
193 241 1
185 46 24
127 15 19
85 82 217
86 76 93
1 170 104
228 47 184
220 56 251
86 17 188
7 97 20
243 77 73
200 188 253
61 82 121
11 211 116
15 220 99
255 50 216
99 148 115
96 154 108
130 14 197
222 142 39
75 28 84
205 168 166
85 248 112
218 24 247
119 175 17
188 236 13
45 74 17
196 195 240
7 244 254
184 204 71
145 189 255
60 74 54
65 84 119
201 210 243
51 158 247
251 190 151
240 119 33
37 208 22
239 221 130
204 5 13
166 138 173
65 44 16
50 212 243
242 243 11
189 173 7
4 93 26
223 160 197
171 99 213
179 92 197
108 115 66
143 15 195
10 164 209
88 76 70
29 80 219
148 174 144
166 11 181
0 65 143
52 216 16
95 166 253
143 225 219
199 72 185
155 27 29
123 17 31
52 85 64
148 155 5
164 127 89
143 235 229
169 251 207
240 223 217
150 157 223
83 79 46
118 84 129
62 41 99
201 57 167
38 0 170
151 189 83
38 16 84
176 241 41
120 120 27
194 177 69
27 233 78
167 142 172
206 58 225
219 123 244
118 216 216
137 147 215
132 101 122
19 179 67
103 120 86
125 80 2
110 127 11
50 182 39
82 60 19
181 84 200
30 228 87
240 220 114
37 227 135
31 191 71
21 135 213
250 134 203
64 105 234
108 87 129
169 15 61
63 196 58
201 69 176
221 157 176
210 6 13
125 144 98
243 71 186
155 116 241
52 106 98
171 155 1
28 78 249
220 148 46
8 7 59
137 134 199
99 42 3
252 65 60
48 68 21
226 204 156
184 85 113
244 14 220
100 73 153
184 66 92
188 176 124
209 139 78
251 240 110
88 153 121
63 249 102
172 166 183
119 37 216
222 197 121
76 142 185
39 36 199
162 92 84
145 109 202
139 228 148
243 94 58
23 159 104
196 7 28
88 85 145
217 150 58
12 226 200
5 46 28
167 141 151
33 212 11
160 175 93
140 79 226
235 175 214
104 115 60
204 195 157
50 215 153
250 236 37
145 97 216
209 78 63
98 74 140
76 37 176
235 90 129
0 165 31
159 197 203
207 127 160
41 57 18
81 126 114
35 10 82
142 219 50
140 80 67
194 64 89
91 93 26
47 9 59
199 161 88
4 132 122
237 213 2
221 225 91
9 206 211
115 72 227
254 111 158
197 65 239
219 243 156
87 195 2
146 184 168
44 23 149
151 171 195
39 206 83
75 179 151
97 101 136
157 199 76
55 39 153
205 163 104
115 5 137
58 86 57
186 110 7
22 180 168
94 237 214
235 132 120
40 132 134
162 12 173
116 29 190
92 16 193
161 200 249
253 199 107
180 209 231
87 184 139
96 244 26
168 19 93
14 22 164
236 231 62
55 245 43
175 10 139
68 28 230
157 28 130
238 42 59
164 47 206
173 144 29
49 255 2
4 130 110
139 29 133
25 112 235
186 90 2
28 182 109
55 190 250
38 180 186
151 33 163
176 121 213
145 175 110
55 224 239
44 15 131
173 141 137
167 158 146
125 37 129
59 2 134
116 195 5
11 10 37
167 208 10
120 84 86
224 249 72
127 249 161
104 70 104
85 162 18
150 196 69
65 252 30
122 170 195
181 185 15
11 198 224
206 91 245
203 132 104
230 187 114
189 159 158
98 128 124
168 191 149
73 70 211
187 228 230
65 27 60
144 126 213
239 6 10
116 75 170
1 236 77
178 220 167
5 49 66
88 42 173
199 93 90
139 63 121
25 31 229
8 50 51
151 9 117
240 51 143
167 172 102
136 34 239
180 141 9
133 51 100
101 22 110
186 127 223
186 91 33
107 107 249
102 142 12
116 34 232
233 85 75
64 174 108
229 87 59
126 90 220
15 163 55
62 69 30
195 158 211
124 175 229
33 221 90
125 59 91
105 178 56
255 230 253
168 116 96
114 105 204
193 155 118
173 120 127
187 180 70
135 6 15
238 108 45
136 75 97
94 254 166
15 181 93
212 101 130
202 224 156
233 89 18
104 130 25
215 121 66
89 62 81
12 204 219
84 14 239
220 158 247
127 92 22
152 190 117
241 87 117
154 88 123
245 44 203
61 232 230
180 175 219
88 88 172
121 48 80
87 135 14
113 10 172
23 227 50
130 81 196
5 133 25
25 218 212
218 164 177
69 89 61
19 116 225
216 14 26
15 45 143
75 126 116
196 87 113
50 175 239
148 98 47
236 206 126
133 146 151
186 87 194
212 241 47
173 168 139
100 0 218
98 175 139
215 54 244
235 178 55
39 247 45
217 165 130
42 145 205
231 106 98
211 221 118
232 101 196
33 218 79
241 209 205
167 198 78
178 87 210
159 156 168
123 212 94
97 247 206
142 124 82
186 175 33
156 121 0
50 76 235
28 242 44
60 162 13
109 207 191
189 34 237
140 192 93
65 147 165
9 133 38
53 248 90
123 183 198
45 211 153
218 78 55
210 191 18
152 140 102
103 209 130
57 140 163
61 255 48
30 188 152
239 139 138
7 198 54
29 32 15
140 13 100
99 8 66
87 145 227
124 80 30
96 255 83
65 188 41
33 198 74
208 156 11
114 8 8
207 55 15
173 76 27
152 104 64
11 172 178
123 191 163
101 162 175
166 212 79
123 192 42
28 245 15
33 6 15
231 82 1
58 65 169
25 198 89
161 60 114
90 224 22
222 174 129
122 156 190
144 235 52
147 88 14
146 188 247
93 39 59
172 138 167
5 77 40
114 69 23
146 147 227
88 75 79
219 40 234
99 178 136
16 77 164
184 83 147
250 133 91
76 10 118
179 105 132
26 232 66
129 99 5
26 158 137
57 56 133
47 114 251
88 253 151
81 212 168
150 20 70
157 52 231
219 107 52
33 194 134
22 90 18
157 232 69
220 140 133
90 171 17
185 217 244
70 57 1
85 125 203
119 235 138
226 64 107
174 66 39
248 2 217
28 228 58
170 12 241
161 118 68
103 92 104
152 185 125
16 3 54
41 95 199
254 66 107
110 215 243
109 214 100
90 21 195
177 132 160
160 187 234
219 199 245
160 48 126
29 220 118
241 212 31
242 66 252
119 2 251
170 4 24
97 199 73
227 65 93
58 12 57
145 23 100
61 170 175
92 153 40
15 208 140
67 32 186
252 94 41
169 84 241
28 68 224
107 49 121
36 209 57
107 115 200
169 63 15
147 226 244
240 167 107
115 123 149
125 212 190
101 38 216
115 214 102
230 247 39
237 24 132
231 204 3
151 157 228
211 120 241
226 46 246
247 251 91
4 128 137
247 51 89
43 240 135
67 55 124
46 204 68
246 141 143
28 50 127
98 61 108
52 247 104
30 139 160
37 188 141
247 42 39
184 14 57
145 197 18
45 189 111
213 88 46
214 222 118
170 214 90
38 237 243
220 62 202
51 223 139
91 155 135
238 72 178
211 217 47
201 58 74
52 182 124
196 194 57
137 242 32
130 239 5
8 8 226
231 208 80
26 189 95
19 173 190
206 33 97
7 158 67
189 1 173
58 80 28
110 26 210
93 139 68
81 39 47
49 113 5
136 160 213
111 14 95
14 32 40
164 26 60
234 253 53
83 207 8
152 218 211
93 45 156
51 105 58
29 149 250
69 41 79
197 252 78
41 189 76
13 12 11
164 22 28
140 243 68
159 195 79
67 180 73
37 232 211
6 154 252
100 91 167
73 220 236
228 93 140
242 84 169
73 63 105
154 13 251
151 39 198
25 137 122
74 201 48
228 27 154
220 122 34
34 66 175
192 167 136
20 124 140
19 51 28
126 133 13
48 208 252
29 64 91
192 117 84
196 160 177
205 54 243
223 244 58
166 22 80
106 54 38
205 194 43
77 177 211
252 247 135
100 47 206
166 88 45
178 223 241
43 223 214
48 197 110
108 23 42
64 110 21
30 232 152
160 247 237
114 83 220
19 120 190
164 101 53
175 11 249
124 214 36
202 39 208
159 215 122
29 195 50
234 111 218
113 81 169
16 122 201
174 25 134
15 9 7
185 157 117
101 238 5
49 184 219
79 86 184
15 146 203
182 209 27
142 183 105
229 8 139
101 31 208
105 189 166
48 37 40
80 0 146
214 236 181
61 186 237
93 55 238
198 93 35
9 227 134
57 186 85
238 19 136
109 126 172
237 14 98
135 250 171
215 151 88
246 126 196
226 185 191
88 167 33
157 107 71
118 97 13
116 10 153
68 184 112
56 118 12
216 120 162
101 9 226
186 12 126
42 61 215
137 127 227
126 15 112
199 41 147
185 64 24
187 106 102
58 212 197
37 137 190
81 84 37
173 227 202
201 233 239
76 182 41
145 146 161
148 164 242
209 32 154
61 119 225
51 40 124
22 150 220
26 18 237
138 137 208
242 200 42
71 238 171
211 189 243
166 206 23
219 195 46
187 108 72
244 123 39
156 235 171
52 71 21
66 236 187
31 49 33
45 140 70
123 8 0
246 244 22
212 54 87
26 38 130
22 129 185
148 1 57
195 212 54
43 190 96
80 200 41
15 18 26
80 166 191
187 186 122
100 107 55
123 63 245
97 28 24
136 197 169
11 89 11
67 145 112
67 47 231
207 68 10
77 210 48
97 19 248
73 106 18
88 131 84
73 55 172
69 142 73
194 180 84
174 183 30
69 187 8
11 158 39
252 222 25
151 232 147
194 54 10
246 52 167
37 61 189
94 202 86
250 197 220
255 219 94
134 180 173
143 64 19
90 211 222
174 126 0
131 31 91
250 151 25
210 108 160
4 47 132
137 16 134
242 127 47
15 215 93
211 200 154
52 45 29
59 101 174
144 137 252
183 72 235
214 141 241
29 48 234
228 227 121
58 184 107
112 55 84
167 52 166
200 21 0
4 216 239
10 29 242
140 195 193
54 231 63
206 28 191
251 74 237
114 71 79
24 159 212
221 7 156
96 233 125
32 100 215
105 22 159
216 144 105
84 69 171
75 239 136
76 82 38
42 250 170
112 163 71
104 149 107
102 219 20
169 103 203
174 158 238
79 86 130
11 19 107
215 10 125
58 203 106
146 116 192
149 152 96
245 113 164
192 25 137
125 9 222
76 8 68
91 109 152
4 213 193
181 135 174
68 245 219
30 45 46
170 250 161
112 253 188
39 231 131
164 254 65
78 58 23
218 151 131
15 162 59
97 87 250
136 9 75
187 72 174
220 44 34
110 6 210
98 59 205
219 56 130
145 216 158
99 219 225
83 77 166
23 73 19
110 79 233
60 159 187
216 44 255
138 253 196
6 193 127
174 178 131
244 110 138
169 92 255
226 4 121
0 250 216
176 57 234
174 223 202
251 231 23
214 190 172
195 81 189
140 177 138
18 75 70
82 196 181
132 32 23
137 36 11
109 102 49
45 207 110
106 165 184
42 141 225
64 213 240
58 126 54
53 219 244
182 94 130
162 186 246
243 81 85
86 221 244
225 4 69
197 217 36
123 99 37
204 187 68
231 238 132
83 81 4
34 27 247
165 19 117
190 153 201
67 55 59
73 3 6
10 255 196
50 105 176
241 171 43
79 179 166
220 225 176
121 240 192
54 74 103
47 14 186
225 157 4
143 94 123
79 97 180
210 85 242
222 243 161
108 0 98
210 150 77
83 62 61
212 19 31
22 69 211
60 243 244
134 111 91
158 245 204
51 83 189
211 70 11
0 105 213
119 192 72
12 24 108
54 21 206
153 66 138
252 12 237
85 28 203
67 178 0
179 154 176
246 173 92
170 248 97
125 186 141
119 156 240
97 235 246
177 224 244
186 163 184
188 72 71
253 125 254
58 93 13
160 238 152
9 240 14
103 205 9
24 237 229
193 139 0
221 158 213
9 148 96
143 238 207
133 214 196
122 92 79
70 2 173
73 138 114
60 231 1
177 253 0
108 203 125
89 42 166
64 78 212
129 12 13
151 52 205
181 87 73
170 203 126
164 7 48
45 212 29
192 134 133
219 148 197
1 193 106
83 162 102
124 195 188
122 14 37
1 231 118
27 235 165
186 120 153
3 188 254
203 17 109
43 41 176
48 72 127
121 71 72
190 154 53
136 24 158
175 165 45
137 21 143
250 134 154
192 212 158
43 60 157
193 99 220
82 79 83
243 129 84
104 139 100
149 187 203
31 54 1
188 0 118
204 107 40
40 2 174
95 251 152
235 157 220
241 237 126
73 121 241
37 189 174
209 190 31
44 224 218
63 213 38
138 5 202
104 77 103
32 117 142
142 164 204
48 75 242
231 33 203
185 142 142
160 119 70
76 141 152
29 174 185
41 197 3
153 147 209
199 104 214
200 141 84
104 254 71
118 26 148
6 65 207
68 244 242
61 198 55
171 133 254
231 68 179
117 176 79
16 9 157
20 99 211
214 194 5
181 141 234
171 225 98
232 218 109
68 57 84
9 71 224
145 22 50
198 59 26
80 17 152
196 154 139
193 54 135
3 191 188
152 108 101
167 28 42
132 57 240
166 15 1
129 120 196
185 187 109
127 50 42
80 69 54
21 222 11
153 216 125
221 66 11
90 47 103
207 166 106
185 65 75
100 111 115
195 241 69
14 239 186
82 162 232
170 76 93
185 97 213
128 127 112
171 57 125
47 85 22
3 219 236
77 17 252
216 25 238
129 232 61
235 32 145
171 24 87
239 48 134
244 212 195
177 25 50
30 153 203
68 235 32
215 245 222
46 39 176
227 167 27
67 166 171
190 47 114
86 204 131
197 5 138
217 178 134
136 74 105
10 215 158
179 93 82
39 219 175
217 49 4
103 220 99
233 96 23
95 50 193
20 191 5
177 20 58
43 220 246
72 90 163
81 195 187
83 171 18
232 217 44
13 200 164
62 68 20
15 57 160
63 164 96
99 228 1
253 99 176
96 231 104
107 24 82
66 132 43
184 198 132
190 192 231
49 99 19
100 172 185
157 197 112
110 179 237
30 33 251
229 216 212
29 62 253
223 53 85
196 145 241
188 70 139
188 222 207
233 56 146
157 173 34
30 174 114
10 162 85
152 39 158
102 89 53
229 75 246
167 85 83
82 63 156
135 114 108
149 25 25
25 198 94
110 30 160
30 12 203
237 35 215
33 162 160
226 6 146
150 196 159
6 190 18
58 198 19
180 27 153
29 181 34
165 191 125
60 34 45
68 4 4
64 70 242
231 52 183
2 171 41
251 73 8
22 190 247
102 200 249
191 150 239
218 117 9
107 159 140
81 93 29
34 181 30
194 81 165
28 146 200
16 0 127
169 50 135
213 158 174
45 14 229
25 37 7
141 111 30
68 32 179
255 14 219
141 129 17
7 60 8
15 169 50
145 158 245
65 102 116
225 27 107
167 206 107
244 95 28
135 253 121
137 87 30
208 169 254
217 130 143
208 31 19
84 157 182
189 159 91
174 93 234
89 20 211
88 255 139
9 49 79
26 43 185
71 103 118
129 139 166
173 165 109
185 33 73
170 8 205
9 94 127
218 22 173
255 10 46
23 115 229
231 179 159
40 66 108
126 30 98
165 2 52
197 142 213
1 229 76
86 192 82
187 176 131
65 83 143
4 73 205
106 17 247
181 53 97
64 233 102
7 199 61
2 186 134
171 242 110
138 218 11
105 14 138
251 121 254
248 73 216
230 38 101
195 93 238
211 181 209
43 220 207
101 113 57
209 98 236
202 16 51
96 57 19
19 155 241
123 94 103
167 113 40
52 177 223
159 210 144
28 246 84
161 196 79
106 152 142
91 193 237
249 102 250
96 213 76
111 92 229
176 163 10
126 197 53
238 48 29
135 12 119
32 130 116
206 126 201
219 206 163
24 11 4
2 220 90
138 248 93
207 68 208
137 99 77
21 208 55
131 235 37
29 79 13
106 251 207
107 184 148
76 191 228
102 23 139
131 194 1
174 166 132
167 46 18
232 29 2
243 107 90
114 36 216
199 224 128
102 116 201
117 138 80
22 13 200
69 190 196
120 138 184
75 242 179
129 89 163
147 27 103
163 113 162
141 236 144
24 239 107
189 187 58
172 42 199
208 154 47
166 47 136
97 65 249
63 96 162
246 154 163
170 160 183
176 196 205
120 201 72
148 54 6
230 94 35
63 157 155
169 238 127
116 209 13
49 215 138
93 87 196
233 182 249
217 95 225
122 180 199
232 105 103
68 208 229
242 39 91
170 104 229
71 145 2
59 138 230
204 83 69
186 55 249
108 239 209
20 128 231
83 199 74
130 22 174
29 106 61
110 253 132
198 129 240
226 21 21
68 34 175
90 201 209
193 230 88
172 233 88
211 68 114
182 214 209
5 116 146
179 155 75
121 169 46
3 5 105
1 38 174
94 51 153
125 237 19
52 55 227
190 197 4
156 90 236
171 222 13
118 97 192
65 50 205
191 181 208
76 217 101
194 250 248
169 106 157
87 174 231
78 201 238
242 207 181
144 47 151
234 247 191
246 12 187
211 249 46
113 86 199
217 96 44
103 175 101
155 233 83
236 14 80
162 129 104
185 225 238
47 181 192
216 111 126
188 83 242
225 94 12
54 96 160
172 205 76
68 91 173
209 148 117
215 64 179
164 23 231
243 241 170
17 32 32
43 104 87
27 139 56
96 6 88
192 23 49
163 235 105
248 72 198
66 42 200
125 169 246
159 25 223
204 54 44
31 184 243
74 198 9
220 205 180
174 162 127
139 249 152
2 49 83
134 182 216
105 185 107
190 43 152
254 188 12
16 238 205
185 237 222
44 9 124
6 98 43
2 91 110
63 19 237
194 183 179
26 58 85
73 86 126
226 52 209
245 160 206
238 151 88
75 141 126
174 68 98
134 228 72
18 2 109
211 221 210
131 71 198
169 91 50
222 122 210
255 143 199
137 56 49
138 54 36
59 148 74
78 74 149
74 158 32
63 212 223
5 177 214
110 137 53
37 19 109
219 108 39
1 130 64
165 173 236
226 54 222
40 57 189
5 3 196
115 146 224
235 66 38
186 139 192
237 199 143
157 221 219
62 195 132
205 118 213
31 142 79
98 170 96
181 243 130
16 86 72
104 15 192
239 168 21
111 211 148
88 121 89
57 148 28
150 87 141
79 90 42
122 230 7
180 67 249
197 156 255
234 196 64
74 98 72
213 143 192
89 9 179
190 31 170
60 232 144
227 68 62
12 192 9
197 117 17
182 89 147
127 34 51
254 83 182
150 182 203
196 120 32
192 82 136
130 146 186
46 163 151
69 65 145
103 20 171
126 172 193
178 7 56
230 31 195
190 224 113
37 47 196
160 160 36
172 97 44
235 214 214
141 163 61
12 44 184
77 247 6
5 166 208
56 99 154
252 248 206
183 35 32
85 189 203
231 240 90
251 59 149
135 192 115
11 200 55
230 187 252
172 48 99
172 250 113
51 177 199
199 188 2
96 175 96
44 155 22
9 186 77
145 131 12
76 48 82
250 3 156
45 97 240
210 201 29
134 55 128
244 95 119
61 41 172
97 121 213
15 125 212
241 64 168
23 28 251
244 107 29
249 78 180
246 55 224
63 118 245
133 4 209
216 65 69
153 31 95
208 91 0
41 120 160
47 16 162
24 230 239
56 98 240
160 228 141
204 80 9
20 128 211
220 108 110
231 133 102
158 218 64
240 90 211
237 162 219
119 15 217
96 14 102
82 43 216
188 182 208
227 145 215
245 124 248
168 230 57
99 255 102
14 196 173
248 161 218
26 187 181
26 153 11
56 174 4
97 122 110
25 1 184
26 34 29
158 166 4
50 114 2
255 198 133
247 89 240
84 246 126
112 7 177
153 106 52
17 200 137
150 137 99
221 207 18
84 184 246
121 198 96
219 34 149
210 39 48
32 59 186
112 219 216
173 115 233
212 8 228
68 80 151
85 177 66
166 29 92
184 28 49
66 62 232
209 118 231
18 52 56
28 126 124
191 137 231
215 108 20
106 92 108
179 84 54
45 73 33
85 28 42
216 175 22
200 230 64
130 204 202
183 71 144
245 74 209
234 91 154
35 196 49
52 160 32
254 250 241
143 250 48
105 21 250
214 44 154
156 55 47
69 146 66
238 27 191
198 36 200
120 161 12
223 18 215
154 248 122
116 72 219
254 99 119
58 251 92
1 95 234
113 235 128
167 207 181
44 164 141
152 30 52
191 10 19
250 8 203
203 202 235
254 191 191
121 192 223
21 221 92
213 55 183
49 175 73
142 53 169
50 219 55
109 151 69
199 130 105
31 217 124
228 109 46
175 25 237
161 143 49
148 76 54
209 199 54
245 95 50
2 197 69
225 113 232
251 154 127
246 133 71
100 85 8
73 254 181
161 142 144
56 246 60
19 35 195
21 216 78
181 3 199
17 235 16
70 10 189
193 156 37
181 9 36
187 201 254
211 90 209
157 40 250
14 52 191
58 195 246
52 186 117
16 242 111
8 80 212
14 72 186
198 207 5
221 51 61
66 221 73
43 31 87
91 179 106
117 211 200
254 215 143
0 149 117
177 3 201
46 8 74
228 46 204
54 130 28
0 31 219
209 64 192
73 177 207
245 7 199
53 125 143
249 167 95
202 192 27
232 139 79
8 215 180
187 61 31
203 116 88
130 225 235
190 61 247
23 128 53
178 124 59
144 249 130
6 243 118
80 1 28
50 179 8
144 70 221
79 63 8
52 78 71
240 42 206
232 141 178
7 37 120
220 71 105
33 218 32
44 96 113
198 228 197
82 41 1
232 107 101
102 216 102
10 226 141
164 75 134
145 21 193
208 196 219
197 105 26
97 176 218
30 204 174
231 181 215
165 58 199
3 77 131
40 46 196
38 145 7
148 165 188
130 68 73
222 173 109
207 123 88
209 88 171
17 233 27
185 239 250
185 161 207
23 176 98
39 33 73
8 108 3
83 245 129
138 89 116
137 193 238
215 116 95
184 88 61
159 22 249
67 117 163
242 221 112
111 145 148
35 22 26
59 186 115
236 126 121
115 44 89
148 215 131
206 148 176
228 10 211
97 119 148
201 138 121
141 78 155
132 13 91
21 193 255
146 211 207
4 15 241
2 97 105
185 108 119
75 185 20
94 151 243
239 217 228
147 58 247
88 172 170
83 60 144
44 246 135
106 34 34
56 50 213
14 231 221
112 91 235
205 70 249
123 140 160
35 232 173
174 49 65
23 231 216
76 205 226
112 1 194
56 131 48
119 105 172
113 5 220
190 38 217
123 250 241
141 222 202
152 48 242
119 146 157
62 174 131
96 1 29
30 239 240
163 196 199
72 248 198
11 86 149
19 141 83
213 66 101
104 205 78
121 5 77
5 114 250
228 134 181
147 149 27
187 133 157
71 229 32
239 148 45
46 10 221
7 205 6
55 51 133
198 0 140
240 101 208
208 109 21
117 229 186
118 215 129
4 185 21
198 71 96
164 222 71
97 214 251
103 32 6
145 217 117
129 57 154
39 214 231
85 0 244
166 127 69
58 0 195
22 24 20
12 176 175
216 216 27
202 69 34
159 208 146
148 141 75
246 255 99
120 204 183
123 206 111
244 88 3
107 212 130
88 206 166
122 32 75
239 92 173
111 137 189
174 22 213
227 211 92
132 123 195
50 222 137
153 232 156
94 220 201
52 201 54
119 91 69
234 152 203
137 48 40
122 130 180
43 95 203
96 236 70
173 89 143
144 70 116
137 234 222
87 227 84
88 201 132
119 255 119
187 239 62
144 35 233
94 71 78
144 29 143
100 174 101
37 221 25
224 206 53
192 92 219
9 56 81
97 87 157
52 203 207
143 118 201
149 108 109
11 244 117
47 157 99
194 153 118
130 22 86
41 129 35
60 91 136
104 188 168
31 150 220
199 27 101
68 61 76
237 11 67
143 191 88
19 172 13
152 123 150
76 33 158
188 233 157
178 109 19
200 3 25
57 171 16
184 75 61
105 69 158
62 103 183
4 28 40
21 75 156
214 14 118
212 188 215
11 213 248
230 8 17
77 7 207
99 69 46
142 220 11
177 6 210
85 236 16
43 11 241
183 249 208
87 143 11
252 232 232
174 193 28
93 78 252
76 168 99
71 89 20
232 237 147
69 21 39
205 89 6
117 47 207
5 93 212
249 235 180
166 163 194
8 167 183
44 78 244
195 176 247
25 3 110
128 140 100
35 39 27
185 208 57
209 115 228
235 27 166
227 237 55
109 154 188
1 236 220
217 17 125
149 157 229
195 13 174
95 178 186
86 123 53
63 6 205
173 99 123
194 215 83
136 207 209
132 113 1
85 28 213
13 99 93
135 1 10
133 194 14
218 165 115
197 122 128
76 175 46
249 55 222
3 76 97
104 164 72
17 120 150
57 204 1
245 45 24
125 148 150
254 237 183
215 102 22
198 7 31
71 76 81
142 92 113
8 201 144
182 69 2
43 165 49
202 152 221
158 115 145
173 147 28
233 145 224
77 208 209
224 84 78
38 5 43
157 30 195
228 108 16
64 40 212
22 251 159
68 55 243
36 6 76
94 9 52
1 155 61
202 253 143
227 7 49
112 135 219
24 72 213
72 33 97
24 20 153
89 70 115
166 169 182
201 23 21
22 176 255
146 186 236
41 50 40
107 236 126
250 15 234
224 149 104
122 47 40
138 6 236
217 165 52
126 221 150
44 57 74
215 37 46
209 152 132
195 197 150
124 6 219
170 93 251
82 79 63
0 175 209
192 122 108
3 89 18
28 31 167
109 6 183
215 74 119
116 182 57
255 202 222
171 10 199
94 198 72
216 183 126
10 23 99
162 13 180
79 140 1
229 174 20
1 184 6
177 53 234
198 181 15
196 140 146
64 92 153
78 255 183
126 24 5
208 236 121
233 89 197
151 218 79
90 4 8
234 117 179
240 13 87
66 3 146
11 14 58
147 84 174
82 246 7
131 21 218
1 139 179
131 147 0
42 178 182
122 150 120
202 16 37
107 239 129
176 113 133
182 159 77
81 65 173
60 29 31
228 238 13
204 105 157
82 203 154
196 77 40
179 15 140
241 188 37
185 11 74
208 128 79
223 85 132
18 86 58
173 222 184
42 167 224
190 192 110
57 5 172
9 128 189
63 48 242
139 223 154
230 68 109
177 230 65
197 227 208
215 16 129
12 254 225
166 72 144
78 227 121
163 161 68
236 248 211
17 78 172
169 96 95
138 104 78
225 73 14
105 38 89
96 132 19
250 123 112
237 87 20
177 175 37
34 59 38
250 4 6
204 71 234
139 236 200
199 160 142
114 109 132
222 251 202
172 245 208
243 220 212
248 96 236
178 203 10
177 235 123
53 139 213
25 107 47
176 59 132
86 111 72
123 37 121
238 98 43
134 249 30
187 157 153
11 89 231
228 140 67
206 152 37
84 5 27
37 24 75
141 233 211
61 4 55
119 96 151
6 24 58
134 97 211
185 13 164
146 78 251
232 171 47
7 105 53
136 84 173
200 210 209
153 229 209
59 73 12
65 187 123
41 73 147
199 115 57
94 94 104
236 155 196
239 216 128
199 143 14
157 245 83
60 235 44
214 166 249
51 79 115
87 204 100
117 183 148
68 149 180
128 184 51
9 219 53
90 92 253
102 17 195
232 83 252
73 218 129
123 13 103
147 111 37
30 20 184
181 8 165
124 159 243
226 123 151
63 121 131
183 109 70
36 201 194
206 89 55
166 38 145
245 69 186
232 198 12
75 17 177
251 108 246
140 58 127
159 129 31
202 254 96
244 173 154
125 186 51
118 12 192
177 147 123
209 119 109
179 197 3
102 56 169
9 179 203
12 6 23
61 53 235
14 54 134
84 87 85
120 238 139
128 123 245
201 28 61
26 90 95
16 163 5
147 165 47
10 92 83
95 117 48
110 65 202
15 17 57
58 127 118
223 29 95
193 21 4
56 147 124
9 57 93
153 114 251
20 48 223
63 96 69
28 224 121
47 84 120
60 69 192
152 251 75
160 99 9
180 176 156
250 196 26
212 30 219
119 241 34
164 107 36
69 5 114
12 231 23
106 55 104
186 109 144
34 160 95
20 15 163
66 36 171
51 43 165
242 223 131
140 217 96
122 228 249
158 119 195
214 102 68
81 243 29
245 99 182
124 40 27
15 94 179
95 182 173
0 114 55
50 108 78
252 89 24
127 124 248
121 190 242
54 13 63
106 223 200
178 25 142
19 171 63
39 2 26
77 187 133
169 84 82
200 85 184
8 234 101
165 232 136
105 136 40
83 69 58
53 251 168
181 24 167
152 201 196
48 147 251
128 1 8
34 210 72
15 239 52
159 246 97
167 230 228
139 115 239
186 51 60
118 107 128
59 124 212
162 247 131
206 88 104
88 255 14
166 63 29
214 33 133
143 62 100
127 162 167
235 253 233
114 227 74
111 203 90
93 26 31
46 33 195
200 142 82
242 178 190
57 58 197
194 115 97
167 157 121
1 133 163
93 23 165
54 81 119
70 230 216
137 164 152
238 44 219
111 245 141
248 90 213
144 233 162
169 218 75
182 186 66
238 58 41
82 205 226
161 35 77
122 127 150
144 232 129
115 52 221
120 226 150
7 45 44
158 26 97
21 214 91
108 117 177
171 209 25
175 104 187
152 78 0
77 128 149
25 187 178
57 210 167
164 26 153
32 17 107
127 192 130
98 25 138
145 89 159
110 184 75
171 188 110
181 110 136
17 215 95
57 82 244
32 157 76
94 162 1
185 54 254
20 74 12
147 2 109
33 251 150
111 120 9
56 223 127
213 191 20
208 225 130
40 218 215
230 57 41
45 89 93
115 103 53
253 138 171
247 1 125
179 181 77
78 158 52
209 185 71
103 116 92
115 151 114
250 97 112
80 147 116
198 60 234
21 127 151
200 195 104
217 76 117
71 97 217
81 212 92
230 137 133
158 125 202
54 244 83
230 50 243
72 15 62
250 166 62
145 163 233
61 188 102
61 145 218
143 111 211
241 5 172
95 73 74
249 23 99
110 68 108
218 239 168
225 163 133
98 115 42
40 16 154
43 100 147
194 72 89
63 14 28
158 138 141
47 9 20
92 12 214
165 197 198
26 72 23
85 156 159
12 203 141
115 47 54
37 231 213
39 17 23
162 185 195
151 107 204
205 141 123
82 184 38
83 220 185
134 51 220
183 240 112
96 63 82
110 198 148
227 34 125
149 91 34
8 196 216
90 243 252
132 215 188
170 1 9
36 127 180
14 4 200
209 171 26
163 139 194
9 175 163
188 242 42
253 150 195
209 7 123
165 35 87
248 188 235
202 84 192
231 118 130
202 93 249
100 157 245
232 2 44
129 77 137
156 41 217
113 201 183
90 8 151
176 78 186
209 188 250
12 68 43
13 140 13
200 197 30
235 40 103
67 46 240
200 198 119
113 240 228
198 122 157
235 128 233
147 234 217
246 92 248
68 67 76
148 63 200
52 119 102
249 152 78
188 107 96
52 115 240
170 225 42
84 232 104
38 208 44
252 234 52
43 50 108
222 226 117
220 111 13
69 121 232
219 238 121
234 244 78
138 15 222
238 112 199
66 144 173
147 88 153
98 84 22
97 164 169
175 201 225
31 23 96
145 77 67
50 92 161
142 151 48
90 229 178
7 137 114
206 58 34
92 244 241
44 93 193
199 18 231
39 180 122
127 111 41
57 162 50
13 11 181
214 15 103
143 17 73
55 201 203
126 175 18
48 67 7
100 91 140
191 243 86
111 166 71
127 89 40
53 238 180
213 43 144
22 20 102
213 30 102
218 189 15
130 239 44
230 246 15
42 234 235
179 25 134
244 58 29
101 19 201
210 183 35
104 87 210
190 173 145
215 177 204
34 201 99
204 225 211
17 44 73
156 8 86
101 129 85
57 22 61
36 219 241
59 23 224
210 61 226
159 252 14
60 185 149
209 53 252
93 217 122
53 214 183
44 129 1
85 192 187
122 125 21
161 176 35
218 253 210
212 205 56
156 232 58
109 48 169
148 253 8
49 125 13
16 73 69
151 60 243
70 70 226
209 218 31
78 132 235
90 76 196
34 37 131
69 233 221
202 196 20
49 133 211
135 75 29
129 201 237
30 204 91
44 150 188
99 77 15
15 9 219
124 165 82
195 42 48
128 144 183
198 118 35
216 31 9
28 121 19
186 38 208
232 85 72
49 83 250
162 209 172
2 160 0
62 55 185
32 213 251
151 222 246
87 204 215
7 232 18
195 202 176
157 117 75
69 67 214
36 15 245
56 230 102
17 131 195
254 55 25
123 182 171
247 149 206
166 38 148
168 112 72
216 226 176
144 52 172
207 10 125
126 89 110
62 199 229
38 32 232
22 95 28
164 225 86
102 0 233
232 217 193
182 216 142
123 16 175
128 28 214
124 240 131
98 218 238
247 57 250
197 106 57
246 48 169
230 237 110
232 15 134
92 101 124
137 147 209
208 200 15
200 135 26
195 192 198
86 95 98
208 245 11
69 94 122
24 185 121
73 234 113
183 149 57
224 64 187
205 57 58
65 195 52
96 150 95
135 202 162
210 0 209
242 213 75
152 73 75
194 153 126
130 187 229
137 186 80
232 129 45
98 171 138
77 34 145
120 227 119
137 129 146
219 217 90
16 213 54
5 81 18
166 198 248
137 162 64
226 34 246
203 236 249
205 105 229
153 93 27
221 5 176
189 112 125
91 248 146
158 151 186
224 185 28
34 48 185
53 243 191
85 108 162
188 175 168
160 172 67
3 54 251
28 193 112
236 159 158
49 48 133
115 216 96
218 149 203
91 145 60
5 28 21
85 3 130
124 187 84
87 110 211
154 162 94
91 130 230
74 51 97
164 221 104
251 120 1
123 2 77
160 217 37
120 48 69
145 32 77
3 43 241
215 153 95
99 235 214
171 90 110
2 77 121
181 58 119
148 169 108
1 244 2
138 238 101
201 182 232
0 136 9
206 6 209
130 125 75
135 46 73
216 210 244
115 131 24
155 65 22
252 57 2
30 186 181
27 68 210
165 185 31
108 16 125
80 83 34
36 132 10
212 203 196
168 22 98
121 101 53
211 168 60
227 171 2
99 102 20
175 92 174
85 2 119
143 138 6
174 37 197
166 49 51
8 55 245
159 240 79
202 236 212
11 54 42
219 69 165
86 150 187
29 231 6
104 185 89
251 240 131
123 165 221
127 168 119
153 247 104
191 254 28
179 167 217
187 44 218
197 127 10
79 219 255
250 62 13
86 73 82
161 212 109
242 234 49
222 0 66
22 15 123
57 137 157
206 40 76
186 72 120
158 176 233
30 14 16
5 62 107
133 194 178
88 166 236
191 242 196
46 202 160
137 243 136
100 143 187
74 220 69
224 95 240
243 18 163
82 92 119
83 119 255
77 60 208
158 70 1
99 138 45
128 253 186
155 136 30
143 183 101
65 141 38
43 52 55
73 202 190
192 223 159
25 209 34
107 208 25
51 237 120
2 88 11
223 78 83
8 141 142
116 156 47
57 118 239
195 127 99
144 98 76
245 160 133
252 104 70
149 122 160
59 62 145
170 219 229
28 3 212
40 153 50
65 9 131
141 185 123
201 54 217
199 39 173
81 117 229
120 68 33
170 243 126
131 187 31
92 255 217
29 198 134
254 11 45
126 56 227
142 145 79
147 56 86
28 250 214
16 25 130
161 123 168
10 93 60
96 138 15
120 254 74
105 216 218
200 138 212
5 9 47
109 146 57
67 136 186
102 108 181
216 40 189
100 228 255
241 196 33
58 117 213
239 200 222
44 129 251
188 50 195
243 112 31
67 174 161
140 179 201
209 204 122
179 32 116
24 164 30
154 199 178
42 125 127
90 175 7
183 254 23
249 137 66
184 243 183
39 114 124
20 62 76
245 145 119
119 8 28
27 234 236
77 174 166
139 33 182
151 29 117
145 176 23
234 236 143
49 147 241
40 202 143
253 168 116
59 116 240
62 195 38
29 109 6
138 231 97
213 9 78
219 105 157
139 120 214
153 155 119
134 57 51
198 237 202
19 163 214
107 49 244
53 209 163
19 195 173
158 245 2
103 192 75
136 133 184
137 16 1
49 121 93
180 22 31
227 87 26
169 1 216
85 169 85
239 143 33
181 159 57
69 144 118
148 209 119
39 71 231
165 107 10
61 89 92
133 228 211
223 188 55
110 231 224
73 121 173
78 169 61
95 51 97
19 73 62
212 208 252
202 40 138
211 191 142
169 223 31
131 239 86
64 176 15
26 252 250
111 229 227
61 11 180
40 39 189
111 110 102
113 96 171
190 211 127
133 82 193
145 172 174
157 50 32
226 243 196
162 227 21
92 128 65
161 115 136
119 59 83
243 139 201
12 250 149
161 36 161
1 124 244
222 136 140
229 22 189
229 100 255
146 30 101
152 254 194
193 46 67
33 242 209
237 191 51
152 133 249
39 81 231
120 122 111
37 72 74
121 61 253
193 49 24
121 23 146
88 223 145
206 64 171
77 170 157
38 57 105
216 49 0
132 159 65
100 77 55
13 253 4
222 53 240
16 187 14
121 108 206
133 68 199
96 57 39
173 75 195
117 104 80
65 106 18
153 192 86
168 124 78
213 11 116
242 54 51
217 184 114
56 5 245
226 244 3
206 91 192
70 103 238
92 237 76
91 96 145
146 101 100
170 116 245
235 24 69
20 255 32
49 119 188
45 231 75
189 172 222
6 246 249
87 63 199
180 222 163
29 120 139
157 29 21
237 173 114
22 218 50
54 222 60
179 121 179
144 154 139
155 95 131
45 81 220
104 128 110
206 11 106
25 26 145
126 15 212
13 88 88
211 110 237
141 15 221
185 195 127
130 62 164
32 234 19
183 120 133
125 186 113
52 165 64
125 134 91
164 18 248
31 102 83
80 6 58
54 60 172
87 119 217
28 13 123
171 92 172
110 102 190
7 112 142
166 247 87
234 199 21
182 81 192
254 29 254
121 110 230
144 176 231
223 172 43
149 141 149
143 160 173
53 165 114
235 209 89
174 111 190
157 27 80
184 140 172
7 249 36
88 35 82
79 134 188
195 147 155
109 203 50
68 121 27
203 228 183
78 237 213
206 16 229
125 88 131
148 102 99
56 41 234
191 220 103
148 101 133
70 172 128
144 246 146
137 168 231
223 164 249
26 75 52
238 132 149
252 232 21
156 185 46
153 232 116
85 232 91
35 162 214
165 207 204
123 196 32
53 246 60
92 255 18
59 234 80
215 52 69
6 9 33
97 6 48
151 68 239
110 83 237
148 28 26
19 15 180
104 194 162
101 182 42
189 216 211
153 24 61
142 221 217
224 171 198
162 4 96
125 194 93
236 113 195
93 235 41
117 188 165
237 127 236
250 69 78
82 248 47
17 135 78
29 234 153
62 239 207
77 72 109
104 21 71
10 202 94
3 62 23
160 92 4
179 167 60
167 166 93
172 88 200
157 180 253
31 239 41
229 50 72
125 178 93
214 5 126
61 191 33
197 113 120
161 143 228
33 196 5
178 62 136
21 176 137
235 75 165
251 58 236
22 136 43
219 57 110
115 159 164
172 165 165
181 88 187
242 239 53
223 11 49
220 23 93
249 51 47
237 209 182
219 154 217
242 139 233
91 161 106
94 241 168
0 252 238
87 65 157
140 27 36
29 243 41
42 54 193
195 127 204
164 60 234
107 7 204
37 210 5
3 28 33
38 109 44
227 28 56
128 14 212
114 0 224
101 215 64
64 31 35
49 78 147
221 206 81
162 161 63
29 211 226
26 47 89
137 91 227
117 83 77
197 94 207
50 46 11
224 48 255
101 136 5
54 34 195
236 128 111
15 191 3
155 51 220
116 189 160
223 241 84
180 88 153
127 135 113
96 220 23
222 89 50
173 145 215
253 92 231
226 163 58
254 39 18
190 200 221
66 161 72
237 109 240
125 49 212
92 246 220
38 209 96
150 193 64
128 219 175
40 147 88
238 229 73
10 22 235
249 176 150
226 23 141
93 54 12
67 200 19
90 94 246
5 127 40
73 6 177
247 86 242
84 15 244
155 101 219
134 220 197
62 255 20
224 165 8
78 45 2
222 163 119
96 45 143
8 166 254
96 156 216
81 84 39
96 98 52
98 71 230
120 87 43
28 160 59
112 11 65
12 101 53
24 97 191
118 142 209
226 53 60
126 30 183
194 33 56
171 214 114
9 9 73
225 78 100
185 158 170
121 220 31
248 169 161
186 222 66
130 180 133
221 19 22
188 116 168
128 60 60
32 56 202
201 142 120
220 45 28
201 55 142
233 96 41
105 250 234
204 133 201
65 152 231
3 140 141
55 131 1
246 138 25
217 56 208
235 246 126
57 249 204
238 69 173
123 149 0
178 162 58
167 134 26
244 127 219
194 112 2
152 12 165
226 144 130
167 218 123
47 24 166
187 229 211
88 224 227
132 243 111
108 115 121
50 229 196
77 142 119
29 167 34
95 218 196
27 182 136
168 97 9
45 77 103
243 5 7
29 117 168
90 66 102
63 161 249
232 29 129
92 64 212
253 165 43
209 117 30
69 111 40
110 187 218
14 217 231
172 9 7
165 82 192
51 190 97
142 158 97
242 175 47
225 5 178
165 227 20
155 5 193
244 147 89
53 185 102
49 155 179
110 184 237
103 197 243
32 244 71
199 76 75
8 155 190
95 211 137
163 241 224
4 209 58
61 54 87
234 3 153
132 69 138
127 59 255
162 16 237
196 56 72
15 73 135
37 140 86
220 213 99
237 94 59
111 30 40
158 92 15
75 120 202
59 50 219
20 122 55
13 115 251
145 93 14
38 36 110
204 33 253
57 238 226
188 134 210
54 72 195
55 148 163
95 182 217
71 153 226
164 106 201
68 134 94
38 212 170
75 36 130
0 14 200
13 76 166
229 51 179
178 110 180
131 162 249
154 129 177
197 191 128
86 27 104
182 41 109
247 134 228
16 175 240
152 105 8
6 186 156
116 154 24
104 191 12
3 105 31
47 82 148
239 160 109
61 167 100
18 93 5
235 33 225
14 128 158
202 87 47
196 221 24
41 187 155
186 133 179
39 66 46
112 118 100
244 25 124
78 220 76
36 237 18
159 243 239
201 77 222
54 8 58
173 127 108
145 46 157
109 207 49
225 41 147
148 53 98
209 1 173
2 89 13
77 20 238
191 26 143
91 244 186
12 158 67
196 0 86
94 60 191
201 207 222
165 138 103
162 58 88
173 112 102
3 227 231
129 88 59
108 167 140
137 141 22
162 57 194
157 188 184
70 40 59
57 194 148
152 55 69
48 34 1
194 37 140
91 128 99
128 6 130
142 254 238
204 129 202
158 119 136
98 131 217
75 254 143
186 202 42
199 223 251
148 188 30
0 19 195
19 220 123
134 228 246
68 76 196
92 126 0
75 129 217
76 167 22
20 170 192
47 164 206
127 210 91
108 174 171
9 125 193
13 104 254
229 11 101
128 56 13
148 249 113
26 139 90
87 79 0
112 127 103
56 254 140
2 95 18
246 24 208
42 114 70
194 108 48
120 81 252
29 120 137
167 74 156
36 221 219
103 144 162
218 128 197
62 234 77
13 184 65
245 13 68
255 7 232
137 192 60
74 67 43
216 216 44
248 163 27
71 167 186
246 209 8
144 235 128
47 225 134
212 150 252
125 56 168
144 174 86
6 252 27
211 59 32
106 128 252
50 225 19
37 22 217
246 119 56
115 0 59
249 185 71
60 62 71
229 172 0
136 228 104
196 180 236
192 201 113
178 132 77
46 56 215
236 81 79
104 120 114
32 22 177
61 79 187
55 105 32
83 253 246
60 8 135
18 198 124
168 253 49
195 69 8
99 246 109
220 88 204
237 153 93
254 154 10
14 131 16
57 45 104
167 72 171
136 41 7
58 252 170
193 244 62
31 24 83
122 11 144
122 218 236
59 249 105
124 219 132
7 69 130
65 207 62
124 128 147
191 134 170
211 52 111
168 45 0
31 72 190
14 7 86
52 74 66
228 163 205
106 62 65
200 161 135
115 177 232
234 150 136
152 20 90
208 5 191
237 22 31
227 50 71
154 144 142
95 19 106
34 123 142
126 189 61
58 125 87
111 114 105
115 168 122
198 77 240
230 125 165
180 181 202
128 159 42
65 90 172
32 81 181
34 200 44
254 62 86
198 255 96
7 0 150
165 233 199
111 63 166
175 209 0
0 59 254
16 106 194
98 230 36
218 98 34
244 204 221
96 145 163
7 137 60
71 54 195
234 221 10
33 229 218
62 52 133
175 45 251
182 58 243
238 37 189
138 14 252
211 117 139
41 141 251
249 56 88
191 189 166
34 129 64
176 243 217
245 147 193
165 158 0
153 142 199
83 77 135
58 49 23
181 126 81
172 216 145
50 199 122
222 58 87
55 19 182
178 172 129
247 36 65
145 3 109
189 171 9
145 215 172
191 115 188
198 119 139
25 229 178
109 107 172
65 251 69
211 198 85
163 114 158
185 39 137
163 66 185
8 122 210
196 9 203
2 16 69
22 43 124
136 248 92
113 16 52
51 90 244
64 237 2
50 217 183
182 185 120
218 31 206
68 122 8
213 200 186
96 171 106
235 71 35
62 201 123
184 187 103
147 154 72
129 156 97
104 48 249
162 97 139
189 227 90
121 248 255
247 157 120
204 53 249
69 70 252
146 126 133
46 71 80
92 133 198
241 152 168
62 17 255
144 11 230
228 8 22
23 223 38
6 169 62
124 199 45
54 208 159
249 228 104
19 228 9
251 92 131
63 195 76
62 169 189
130 68 226
249 201 117
110 147 154
223 233 106
164 140 53
166 208 107
171 182 174
97 178 252
34 228 156
232 209 47
19 218 134
68 54 186
61 160 14
87 165 31
210 252 122
111 139 148
61 136 73
104 92 94
39 55 189
15 179 4
81 110 240
87 62 114
211 203 122
106 238 61
100 34 176
231 104 173
192 137 176
145 223 76
227 118 68
93 17 216
16 252 1
97 53 128
63 38 44
162 7 49
252 52 58
101 4 211
3 188 220
132 175 154
223 90 100
212 12 69
49 18 64
171 117 98
157 241 165
252 251 39
197 134 101
166 46 249
168 83 154
66 148 137
218 81 73
193 86 32
207 165 102
202 123 204
244 160 235
91 87 126
45 18 250
104 92 80
217 35 139
157 109 127
171 202 25
132 225 71
162 190 238
139 74 92
115 204 222
226 38 236
124 29 211
236 202 228
26 144 159
117 79 44
90 53 129
147 243 74
2 80 200
114 77 41
232 76 228
120 201 68
150 56 174
224 64 182
55 216 122
38 210 126
96 166 187
239 189 169
171 187 200
184 176 70
206 117 160
19 93 158
211 156 71
191 111 245
57 140 117
31 50 74
139 211 40
105 213 163
9 79 43
167 29 146
21 172 43
33 1 9
95 132 189
132 171 224
173 128 107
94 14 129
163 179 97
166 177 210
233 26 224
171 3 197
92 188 105
134 44 26
88 52 178
41 142 206
198 48 82
219 250 76
181 11 38
164 16 78
96 214 66
255 105 77
33 252 144
252 236 46
20 238 130
250 140 97
38 255 226
27 204 181
91 161 61
49 151 236
93 144 135
14 238 177
174 40 235
45 166 160
214 142 224
247 120 252
194 158 220
89 149 202
147 109 18
93 111 109
213 62 26
175 194 224
118 216 183
246 250 38
47 109 42
200 10 46
78 185 172
85 11 32
118 202 216
243 135 64
246 175 133
148 25 213
142 118 8
55 99 108
72 247 136
60 4 127
208 181 24
209 87 166
166 86 155
79 22 184
174 108 251
242 151 160
77 11 221
22 124 52
25 114 214
0 187 94
34 203 74
89 173 140
34 214 116
228 45 57
49 192 41
103 237 96
250 209 151
95 47 131
70 214 13
182 209 10
238 33 183
64 114 157
243 22 71
3 10 138
220 114 28
83 100 183
138 167 51
9 179 183
44 213 0
172 142 182
234 23 48
63 135 71
227 54 41
170 23 86
246 248 52
115 196 248
180 164 48
3 124 198
60 252 76
41 60 56
100 184 32
227 78 49
19 249 143
28 91 37
83 84 168
135 144 243
227 147 187
58 245 251
183 61 73
100 124 23
70 12 100
156 100 183
29 15 242
208 160 74
179 141 150
62 186 169
60 166 85
93 200 116
9 19 160
209 126 50
34 135 141
149 45 5
24 220 205
123 97 21
170 49 181
53 42 31
199 152 78
1 104 116
198 60 51
26 161 46
29 175 140
206 165 35
174 64 165
20 103 215
146 179 184
68 212 174
4 98 201
26 221 53
247 113 141
85 155 132
144 169 12
246 131 50
243 109 62
5 110 253
192 164 71
106 32 94
158 176 134
13 250 27
201 155 9
50 63 43
234 28 138
123 161 195
14 136 34
39 71 78
71 228 141
99 107 148
81 14 192
209 196 243
23 118 14
87 51 36
236 51 43
92 4 174
58 64 158
78 231 109
255 38 45
249 21 48
240 138 248
98 251 115
34 123 221
16 48 120
50 95 55
144 112 70
155 147 2
163 149 94
64 10 219
82 209 164
241 66 222
117 58 40
124 125 77
237 107 236
249 213 18
237 196 255
30 12 133
217 237 18
144 38 163
173 201 53
92 226 246
153 2 76
3 213 41
247 33 95
190 161 119
15 209 16
87 50 125
251 226 76
64 164 111
168 132 147
253 245 78
176 254 222
206 226 23
224 9 242
104 105 57
88 253 28
87 203 155
176 183 185
52 135 179
19 54 147
230 124 212
113 159 252
241 234 243
11 36 187
188 251 21
89 50 38
158 213 77
188 92 123
191 17 162
61 22 181
79 23 53
121 149 89
174 139 106
237 39 94
0 66 168
170 113 30
133 173 174
220 166 56
167 104 86
134 140 28
249 160 125
210 189 205
199 79 232
175 94 211
164 224 222
54 46 130
89 245 85
44 76 213
186 67 133
22 32 248
3 152 115
52 184 220
201 248 96
82 117 3
125 25 171
175 8 37
217 236 89
226 32 214
61 176 204
39 151 170
20 29 33
145 78 46
116 253 236
184 53 42
136 50 180
178 88 226
168 32 127
28 148 20
225 35 171
227 192 43
35 79 122
236 21 75
233 70 197
127 22 197
189 161 124
252 11 223
53 53 236
41 200 212
139 193 229
198 62 246
168 241 65
114 152 202
216 32 80
